source/confirmed_python/presence/Presence.CUBE
#Created by: Infinite Arch Leica Look Builder
#Unique Leica Look ID: 27
#Based Filmstyle Mode: Standard
TITLE "Presence"
LUT_3D_SIZE 17
DOMAIN_MIN 0.0 0.0 0.0
DOMAIN_MAX 1.0 1.0 1.0
0.033027 0.030013 0.026997
0.087167 0.031265 0.028250
0.141093 0.032516 0.029502
0.194784 0.033768 0.030753
0.248226 0.035019 0.032005
0.301407 0.036271 0.033257
0.354317 0.037522 0.034509
0.406947 0.038774 0.035760
0.459290 0.040025 0.037011
0.511340 0.041276 0.038263
0.563091 0.042527 0.039514
0.614539 0.043778 0.040765
0.665678 0.045028 0.042016
0.716507 0.046279 0.043267
0.767021 0.047530 0.044518
0.817219 0.048780 0.045768
0.867099 0.050030 0.047019
0.037237 0.087112 0.031209
0.091362 0.088359 0.032461
0.145270 0.089606 0.033713
0.198942 0.090853 0.034964
0.252364 0.092099 0.036216
0.305524 0.093346 0.037467
0.358412 0.094592 0.038718
0.411021 0.095838 0.039969
0.463341 0.097085 0.041220
0.515368 0.098331 0.042471
0.567096 0.099577 0.043722
0.618520 0.100822 0.044973
0.669636 0.102068 0.046224
0.720440 0.103314 0.047474
0.770930 0.104559 0.048725
0.821103 0.105804 0.049975
0.870959 0.107050 0.051225
0.041446 0.143973 0.035420
0.095555 0.145215 0.036671
0.149445 0.146456 0.037923
0.203098 0.147697 0.039174
0.256500 0.148938 0.040425
0.309640 0.150179 0.041676
0.362507 0.151420 0.042927
0.415093 0.152661 0.044178
0.467391 0.153901 0.045428
0.519395 0.155142 0.046679
0.571099 0.156382 0.047930
0.622499 0.157622 0.049180
0.673591 0.158862 0.050430
0.724371 0.160102 0.051680
0.774836 0.161342 0.052931
0.824985 0.162582 0.054180
0.874816 0.163821 0.055430
0.045654 0.200573 0.039629
0.099747 0.201808 0.040880
0.153619 0.203044 0.042131
0.207253 0.204279 0.043382
0.260635 0.205514 0.044633
0.313754 0.206749 0.045884
0.366599 0.207984 0.047134
0.419163 0.209219 0.048385
0.471439 0.210453 0.049635
0.523420 0.211688 0.050885
0.575100 0.212922 0.052136
0.626477 0.214156 0.053386
0.677544 0.215390 0.054636
0.728300 0.216624 0.055885
0.778741 0.217858 0.057135
0.828865 0.219091 0.058385
0.878671 0.220325 0.059634
0.049861 0.256894 0.043838
0.103937 0.258123 0.045088
0.157791 0.259352 0.046339
0.211407 0.260581 0.047590
0.264769 0.261810 0.048840
0.317866 0.263039 0.050090
0.370690 0.264267 0.051341
0.423232 0.265496 0.052591
0.475485 0.266724 0.053841
0.527443 0.267952 0.055091
0.579100 0.269180 0.056340
0.630452 0.270408 0.057590
0.681496 0.271636 0.058840
0.732227 0.272863 0.060089
0.782643 0.274091 0.061339
0.832743 0.275318 0.062588
0.882524 0.276545 0.063837
0.054066 0.312922 0.048045
0.108126 0.314145 0.049295
0.161962 0.315368 0.050545
0.215558 0.316590 0.051796
0.268900 0.317812 0.053046
0.321977 0.319034 0.054296
0.374779 0.320256 0.055546
0.427299 0.321478 0.056795
0.479529 0.322700 0.058045
0.531464 0.323922 0.059295
0.583097 0.325143 0.060544
0.634426 0.326364 0.061793
0.685445 0.327585 0.063043
0.736152 0.328806 0.064292
0.786544 0.330027 0.065541
0.836619 0.331248 0.066790
0.886375 0.332468 0.068038
0.058271 0.368647 0.052251
0.112314 0.369863 0.053501
0.166132 0.371079 0.054751
0.219709 0.372295 0.056001
0.273031 0.373510 0.057250
0.326086 0.374726 0.058500
0.378867 0.375941 0.059749
0.431364 0.377156 0.060999
0.483572 0.378371 0.062248
0.535483 0.379586 0.063497
0.587093 0.380800 0.064746
0.638398 0.382015 0.065995
0.689393 0.383229 0.067244
0.740075 0.384443 0.068493
0.790443 0.385657 0.069742
0.840493 0.386871 0.070990
0.890225 0.388085 0.072239
0.062474 0.424059 0.056456
0.116500 0.425268 0.057705
0.170300 0.426477 0.058955
0.223858 0.427686 0.060204
0.277159 0.428894 0.061454
0.330194 0.430102 0.062703
0.382953 0.431311 0.063952
0.435428 0.432519 0.065201
0.487612 0.433727 0.066450
0.539500 0.434935 0.067699
0.591087 0.436142 0.068948
0.642368 0.437350 0.070196
0.693339 0.438557 0.071445
0.743997 0.439764 0.072693
0.794340 0.440971 0.073941
0.844365 0.442178 0.075189
0.894072 0.443385 0.076437
0.066676 0.479149 0.060659
0.120685 0.480351 0.061909
0.174467 0.481553 0.063158
0.228005 0.482754 0.064407
0.281286 0.483956 0.065656
0.334300 0.485157 0.066905
0.387037 0.486358 0.068153
0.439489 0.487559 0.069402
0.491651 0.488760 0.070651
0.543516 0.489961 0.071899
0.595079 0.491161 0.073147
0.646336 0.492361 0.074396
0.697283 0.493562 0.075644
0.747917 0.494762 0.076892
0.798235 0.495961 0.078140
0.848235 0.497161 0.079387
0.897918 0.498361 0.080635
0.070876 0.533911 0.064862
0.124869 0.535105 0.066111
0.178632 0.536300 0.067359
0.232151 0.537494 0.068608
0.285411 0.538688 0.069857
0.338404 0.539882 0.071105
0.391119 0.541076 0.072354
0.443549 0.542270 0.073602
0.495688 0.543463 0.074850
0.547530 0.544657 0.076098
0.599069 0.545850 0.077346
0.650302 0.547043 0.078594
0.701225 0.548236 0.079842
0.751834 0.549429 0.081089
0.802128 0.550621 0.082337
0.852104 0.551813 0.083584
0.901762 0.553006 0.084832
0.075076 0.588338 0.069063
0.129051 0.589525 0.070311
0.182796 0.590712 0.071560
0.236295 0.591899 0.072808
0.289535 0.593086 0.074056
0.342506 0.594272 0.075304
0.395200 0.595459 0.076553
0.447608 0.596645 0.077800
0.499724 0.597831 0.079048
0.551542 0.599017 0.080296
0.603058 0.600203 0.081544
0.654267 0.601388 0.082791
0.705165 0.602574 0.084038
0.755750 0.603759 0.085286
0.806019 0.604944 0.086533
0.855970 0.606129 0.087780
0.905604 0.607314 0.089027
0.079274 0.642424 0.073263
0.133232 0.643604 0.074511
0.186958 0.644784 0.075759
0.240437 0.645963 0.077007
0.293657 0.647143 0.078255
0.346607 0.648322 0.079502
0.399278 0.649501 0.080750
0.451664 0.650679 0.081998
0.503757 0.651858 0.083245
0.555552 0.653036 0.084492
0.607044 0.654215 0.085740
0.658229 0.655393 0.086987
0.709103 0.656571 0.088234
0.759664 0.657748 0.089481
0.809908 0.658926 0.090727
0.859835 0.660104 0.091974
0.909443 0.661281 0.093220
0.083470 0.696167 0.077461
0.137411 0.697339 0.078709
0.191119 0.698511 0.079957
0.244578 0.699683 0.081204
0.297777 0.700855 0.082452
0.350706 0.702026 0.083699
0.403356 0.703197 0.084946
0.455719 0.704369 0.086194
0.507789 0.705540 0.087441
0.559561 0.706710 0.088688
0.611029 0.707881 0.089934
0.662190 0.709052 0.091181
0.713040 0.710222 0.092428
0.763576 0.711392 0.093674
0.813795 0.712562 0.094920
0.863698 0.713732 0.096167
0.913281 0.714902 0.097413
0.087666 0.749561 0.081659
0.141589 0.750726 0.082906
0.195278 0.751890 0.084153
0.248718 0.753054 0.085401
0.301896 0.754218 0.086648
0.354803 0.755382 0.087895
0.407431 0.756546 0.089142
0.459772 0.757709 0.090388
0.511819 0.758873 0.091635
0.563567 0.760036 0.092881
0.615012 0.761199 0.094128
0.666149 0.762362 0.095374
0.716974 0.763524 0.096620
0.767486 0.764687 0.097866
0.817681 0.765849 0.099112
0.867558 0.767011 0.100358
0.917117 0.768173 0.101604
0.091860 0.802604 0.085855
0.145766 0.803761 0.087102
0.199436 0.804918 0.088349
0.252856 0.806074 0.089595
0.306013 0.807231 0.090842
0.358899 0.808387 0.092089
0.411505 0.809543 0.093335
0.463823 0.810699 0.094582
0.515847 0.811854 0.095828
0.567572 0.813010 0.097074
0.618993 0.814165 0.098320
0.670106 0.815320 0.099566
0.720907 0.816475 0.100812
0.771394 0.817630 0.102057
0.821564 0.818784 0.103303
0.871417 0.819939 0.104548
0.920952 0.821093 0.105794
0.096053 0.855295 0.090049
0.149941 0.856444 0.091296
0.203592 0.857593 0.092543
0.256992 0.858741 0.093789
0.310129 0.859890 0.095035
0.362993 0.861038 0.096282
0.415577 0.862187 0.097528
0.467872 0.863335 0.098774
0.519873 0.864483 0.100020
0.571575 0.865630 0.101265
0.622972 0.866778 0.102511
0.674061 0.867925 0.103756
0.724838 0.869072 0.105002
0.775300 0.870219 0.106247
0.825446 0.871366 0.107492
0.875274 0.872513 0.108737
0.924784 0.873660 0.109982
0.100245 0.907631 0.094243
0.154115 0.908772 0.095489
0.207747 0.909914 0.096735
0.261127 0.911055 0.097981
0.314243 0.912195 0.099227
0.367086 0.913336 0.100473
0.419647 0.914477 0.101719
0.471920 0.915617 0.102964
0.523898 0.916757 0.104210
0.575576 0.917897 0.105455
0.626949 0.919037 0.106700
0.678014 0.920177 0.107946
0.728767 0.921316 0.109191
0.779204 0.922455 0.110435
0.829326 0.923594 0.111680
0.879129 0.924733 0.112925
0.928614 0.925872 0.114169
0.033452 0.030438 0.080336
0.087591 0.031690 0.081583
0.141514 0.032941 0.082831
0.195204 0.034193 0.084078
0.248644 0.035445 0.085325
0.301823 0.036696 0.086573
0.354730 0.037947 0.087820
0.407358 0.039198 0.089066
0.459699 0.040450 0.090313
0.511747 0.041701 0.091560
0.563495 0.042952 0.092806
0.614941 0.044202 0.094053
0.666078 0.045453 0.095299
0.716904 0.046704 0.096545
0.767416 0.047954 0.097791
0.817611 0.049205 0.099037
0.867489 0.050455 0.100283
0.037662 0.087536 0.084532
0.091785 0.088783 0.085779
0.145691 0.090029 0.087027
0.199362 0.091276 0.088274
0.252782 0.092523 0.089520
0.305940 0.093769 0.090767
0.358826 0.095015 0.092014
0.411432 0.096262 0.093260
0.463750 0.097508 0.094507
0.515775 0.098754 0.095753
0.567500 0.100000 0.096999
0.618922 0.101245 0.098245
0.670035 0.102491 0.099491
0.720837 0.103737 0.100737
0.771324 0.104982 0.101982
0.821495 0.106227 0.103228
0.871348 0.107472 0.104474
0.041871 0.144395 0.088727
0.095978 0.145636 0.089974
0.149866 0.146878 0.091221
0.203518 0.148119 0.092468
0.256918 0.149360 0.093714
0.310055 0.150601 0.094960
0.362920 0.151841 0.096207
0.415504 0.153082 0.097453
0.467800 0.154323 0.098699
0.519801 0.155563 0.099945
0.571503 0.156803 0.101190
0.622901 0.158043 0.102436
0.673990 0.159283 0.103681
0.724767 0.160523 0.104927
0.775230 0.161763 0.106172
0.825377 0.163003 0.107417
0.875205 0.164242 0.108662
0.046079 0.200992 0.092921
0.100170 0.202228 0.094168
0.154040 0.203463 0.095414
0.207673 0.204698 0.096660
0.261053 0.205933 0.097906
0.314169 0.207168 0.099152
0.367012 0.208403 0.100398
0.419574 0.209638 0.101644
0.471847 0.210872 0.102889
0.523826 0.212107 0.104135
0.575504 0.213341 0.105380
0.626878 0.214575 0.106626
0.677943 0.215809 0.107871
0.728696 0.217043 0.109116
0.779135 0.218277 0.110361
0.829256 0.219510 0.111605
0.879060 0.220744 0.112850
0.050286 0.257311 0.097114
0.104360 0.258540 0.098360
0.158213 0.259769 0.099606
0.211826 0.260998 0.100852
0.265186 0.262227 0.102097
0.318281 0.263456 0.103343
0.371103 0.264684 0.104588
0.423643 0.265913 0.105834
0.475893 0.267141 0.107079
0.527849 0.268369 0.108324
0.579504 0.269597 0.109569
0.630853 0.270825 0.110814
0.681894 0.272052 0.112058
0.732623 0.273280 0.113303
0.783037 0.274507 0.114548
0.833134 0.275735 0.115792
0.882913 0.276962 0.117036
0.054491 0.313338 0.101305
0.108549 0.314560 0.102551
0.162383 0.315783 0.103796
0.215978 0.317005 0.105042
0.269317 0.318227 0.106287
0.322392 0.319449 0.107532
0.375192 0.320671 0.108777
0.427709 0.321893 0.110022
0.479937 0.323115 0.111267
0.531869 0.324336 0.112512
0.583501 0.325558 0.113756
0.634827 0.326779 0.115001
0.685844 0.328000 0.116245
0.736548 0.329221 0.117489
0.786938 0.330442 0.118733
0.837010 0.331662 0.119977
0.886764 0.332883 0.121221
0.058695 0.369060 0.105495
0.112736 0.370276 0.106740
0.166553 0.371492 0.107985
0.220128 0.372708 0.109230
0.273447 0.373923 0.110475
0.326501 0.375138 0.111720
0.379279 0.376353 0.112965
0.431774 0.377568 0.114209
0.483980 0.378783 0.115454
0.535889 0.379998 0.116698
0.587497 0.381213 0.117942
0.638799 0.382427 0.119186
0.689791 0.383641 0.120430
0.740471 0.384855 0.121674
0.790836 0.386069 0.122917
0.840884 0.387283 0.124161
0.890613 0.388497 0.125404
0.062898 0.424470 0.109684
0.116923 0.425679 0.110928
0.170721 0.426887 0.112173
0.224276 0.428096 0.113418
0.277576 0.429304 0.114662
0.330608 0.430513 0.115907
0.383365 0.431721 0.117151
0.435838 0.432929 0.118395
0.488020 0.434137 0.119639
0.539906 0.435345 0.120883
0.591490 0.436552 0.122127
0.642769 0.437760 0.123370
0.693737 0.438967 0.124614
0.744393 0.440174 0.125857
0.794733 0.441381 0.127100
0.844756 0.442588 0.128343
0.894461 0.443794 0.129586
0.067100 0.479557 0.113871
0.121107 0.480759 0.115115
0.174887 0.481961 0.116360
0.228423 0.483162 0.117604
0.281702 0.484364 0.118848
0.334714 0.485565 0.120092
0.387449 0.486766 0.121336
0.439899 0.487967 0.122579
0.492059 0.489168 0.123823
0.543921 0.490368 0.125066
0.595482 0.491569 0.126310
0.646737 0.492769 0.127553
0.697681 0.493969 0.128796
0.748312 0.495169 0.130039
0.798628 0.496369 0.131282
0.848626 0.497568 0.132525
0.898306 0.498768 0.133767
0.071300 0.534316 0.118057
0.125291 0.535511 0.119301
0.179053 0.536705 0.120545
0.232569 0.537900 0.121788
0.285828 0.539094 0.123032
0.338818 0.540288 0.124276
0.391531 0.541482 0.125519
0.443959 0.542675 0.126762
0.496096 0.543869 0.128005
0.547935 0.545062 0.129249
0.599472 0.546255 0.130491
0.650703 0.547448 0.131734
0.701623 0.548641 0.132977
0.752230 0.549834 0.134219
0.802521 0.551026 0.135462
0.852494 0.552218 0.136704
0.902150 0.553411 0.137946
0.075499 0.588741 0.122241
0.129473 0.589928 0.123485
0.183216 0.591115 0.124728
0.236713 0.592302 0.125972
0.289951 0.593489 0.127215
0.342920 0.594675 0.128458
0.395611 0.595862 0.129701
0.448017 0.597048 0.130944
0.500131 0.598234 0.132187
0.551947 0.599420 0.133429
0.603460 0.600605 0.134672
0.654667 0.601791 0.135914
0.705563 0.602976 0.137156
0.756145 0.604162 0.138399
0.806412 0.605347 0.139641
0.856361 0.606532 0.140883
0.905991 0.607716 0.142124
0.079697 0.642825 0.126424
0.133654 0.644005 0.127668
0.187378 0.645184 0.128911
0.240855 0.646364 0.130154
0.294073 0.647543 0.131396
0.347021 0.648722 0.132639
0.399690 0.649901 0.133882
0.452073 0.651080 0.135124
0.504164 0.652258 0.136366
0.555957 0.653437 0.137609
0.607447 0.654615 0.138851
0.658629 0.655793 0.140093
0.709501 0.656971 0.141335
0.760059 0.658148 0.142576
0.810301 0.659326 0.143818
0.860225 0.660503 0.145059
0.909831 0.661681 0.146301
0.083894 0.696565 0.130606
0.137833 0.697737 0.131849
0.191539 0.698909 0.133091
0.244996 0.700081 0.134334
0.298193 0.701252 0.135576
0.351120 0.702424 0.136819
0.403767 0.703595 0.138061
0.456128 0.704766 0.139303
0.508196 0.705937 0.140545
0.559965 0.707108 0.141787
0.611431 0.708279 0.143028
0.662590 0.709449 0.144270
0.713437 0.710619 0.145511
0.763971 0.711790 0.146753
0.814188 0.712959 0.147994
0.864087 0.714129 0.149235
0.913669 0.715299 0.150476
0.088089 0.749957 0.134786
0.142011 0.751121 0.136029
0.195698 0.752285 0.137271
0.249136 0.753450 0.138513
0.302312 0.754614 0.139755
0.355217 0.755777 0.140997
0.407842 0.756941 0.142239
0.460181 0.758104 0.143480
0.512226 0.759268 0.144722
0.563972 0.760431 0.145963
0.615414 0.761594 0.147204
0.666548 0.762757 0.148446
0.717371 0.763919 0.149687
0.767880 0.765082 0.150927
0.818073 0.766244 0.152168
0.867948 0.767406 0.153409
0.917505 0.768568 0.154649
0.092283 0.802997 0.138965
0.146187 0.804154 0.140207
0.199856 0.805311 0.141449
0.253273 0.806467 0.142691
0.306429 0.807623 0.143932
0.359313 0.808779 0.145174
0.411916 0.809935 0.146415
0.464232 0.811091 0.147656
0.516253 0.812247 0.148897
0.567976 0.813402 0.150138
0.619395 0.814557 0.151379
0.670505 0.815712 0.152620
0.721304 0.816867 0.153860
0.771788 0.818022 0.155101
0.821956 0.819177 0.156341
0.871806 0.820331 0.157581
0.921338 0.821485 0.158821
0.096476 0.855685 0.143143
0.150363 0.856834 0.144384
0.204012 0.857983 0.145626
0.257409 0.859131 0.146867
0.310544 0.860280 0.148108
0.363406 0.861428 0.149349
0.415988 0.862577 0.150590
0.468281 0.863725 0.151831
0.520280 0.864872 0.153072
0.571979 0.866020 0.154312
0.623374 0.867167 0.155552
0.674460 0.868315 0.156793
0.725234 0.869462 0.158033
0.775694 0.870609 0.159273
0.825838 0.871756 0.160513
0.875663 0.872902 0.161753
0.925171 0.874049 0.162992
0.100668 0.908019 0.147319
0.154536 0.909160 0.148560
0.208166 0.910301 0.149801
0.261544 0.911442 0.151042
0.314658 0.912583 0.152283
0.367499 0.913723 0.153523
0.420058 0.914864 0.154764
0.472328 0.916004 0.156004
0.524304 0.917144 0.157244
0.575980 0.918284 0.158484
0.627351 0.919424 0.159724
0.678413 0.920564 0.160964
0.729163 0.921703 0.162204
0.779599 0.922842 0.163443
0.829717 0.923981 0.164683
0.879518 0.925120 0.165922
0.929001 0.926259 0.167161
0.033877 0.030863 0.133469
0.088014 0.032115 0.134712
0.141936 0.033366 0.135954
0.195624 0.034618 0.137196
0.249062 0.035870 0.138438
0.302238 0.037121 0.139680
0.355144 0.038372 0.140922
0.407769 0.039623 0.142164
0.460108 0.040874 0.143406
0.512153 0.042125 0.144647
0.563900 0.043376 0.145889
0.615343 0.044627 0.147130
0.666477 0.045878 0.148371
0.717301 0.047128 0.149612
0.767810 0.048379 0.150853
0.818003 0.049629 0.152094
0.867879 0.050880 0.153334
0.038087 0.087959 0.137648
0.092208 0.089206 0.138891
0.146113 0.090453 0.140132
0.199781 0.091699 0.141374
0.253199 0.092946 0.142616
0.306355 0.094192 0.143858
0.359239 0.095439 0.145099
0.411843 0.096685 0.146340
0.464159 0.097931 0.147582
0.516181 0.099177 0.148823
0.567904 0.100423 0.150064
0.619323 0.101668 0.151304
0.670434 0.102914 0.152545
0.721234 0.104160 0.153786
0.771718 0.105405 0.155026
0.821887 0.106650 0.156267
0.871737 0.107895 0.157507
0.042296 0.144816 0.141826
0.096401 0.146058 0.143068
0.150288 0.147299 0.144310
0.203937 0.148540 0.145551
0.257335 0.149781 0.146792
0.310471 0.151022 0.148033
0.363333 0.152263 0.149275
0.415915 0.153503 0.150515
0.468208 0.154744 0.151756
0.520208 0.155984 0.152997
0.571907 0.157224 0.154237
0.623302 0.158465 0.155478
0.674389 0.159704 0.156718
0.725164 0.160944 0.157958
0.775624 0.162184 0.159198
0.825768 0.163424 0.160438
0.875594 0.164663 0.161678
0.046504 0.201412 0.146003
0.100593 0.202647 0.147244
0.154461 0.203883 0.148485
0.208092 0.205118 0.149726
0.261470 0.206353 0.150967
0.314584 0.207588 0.152208
0.367425 0.208823 0.153449
0.419985 0.210057 0.154689
0.472256 0.211292 0.155929
0.524232 0.212526 0.157170
0.575908 0.213760 0.158410
0.627279 0.214994 0.159650
0.678342 0.216228 0.160890
0.729093 0.217462 0.162129
0.779529 0.218696 0.163369
0.829648 0.219929 0.164608
0.879449 0.221163 0.165848
0.050710 0.257729 0.150178
0.104783 0.258958 0.151419
0.158634 0.260187 0.152660
0.212245 0.261416 0.153900
0.265603 0.262644 0.155141
0.318696 0.263873 0.156381
0.371516 0.265101 0.157621
0.424053 0.266330 0.158861
0.476301 0.267558 0.160101
0.528255 0.268786 0.161341
0.579907 0.270014 0.162581
0.631255 0.271242 0.163820
0.682293 0.272469 0.165059
0.733020 0.273697 0.166299
0.783431 0.274924 0.167538
0.833525 0.276151 0.168777
0.883302 0.277378 0.170016
0.054915 0.313753 0.154352
0.108972 0.314975 0.155592
0.162804 0.316198 0.156832
0.216397 0.317420 0.158073
0.269734 0.318642 0.159313
0.322807 0.319864 0.160552
0.375605 0.321086 0.161792
0.428120 0.322308 0.163032
0.480345 0.323530 0.164271
0.532275 0.324751 0.165511
0.583904 0.325973 0.166750
0.635228 0.327194 0.167989
0.686242 0.328415 0.169228
0.736944 0.329636 0.170467
0.787331 0.330856 0.171706
0.837401 0.332077 0.172944
0.887153 0.333297 0.174183
0.059119 0.369473 0.158524
0.113159 0.370689 0.159764
0.166974 0.371905 0.161004
0.220547 0.373120 0.162244
0.273864 0.374336 0.163483
0.326916 0.375551 0.164723
0.379692 0.376766 0.165962
0.432185 0.377981 0.167201
0.484388 0.379196 0.168440
0.536294 0.380411 0.169679
0.587900 0.381625 0.170918
0.639200 0.382839 0.172157
0.690190 0.384054 0.173395
0.740867 0.385268 0.174634
0.791230 0.386482 0.175872
0.841275 0.387695 0.177110
0.891002 0.388909 0.178348
0.063322 0.424880 0.162695
0.117345 0.426089 0.163934
0.171142 0.427298 0.165174
0.224695 0.428506 0.166413
0.277992 0.429715 0.167652
0.331023 0.430923 0.168891
0.383777 0.432131 0.170130
0.436248 0.433339 0.171369
0.488428 0.434547 0.172607
0.540311 0.435755 0.173846
0.591893 0.436962 0.175084
0.643169 0.438170 0.176323
0.694135 0.439377 0.177561
0.744788 0.440584 0.178799
0.795126 0.441791 0.180037
0.845147 0.442998 0.181274
0.894849 0.444204 0.182512
0.067524 0.479966 0.166864
0.121530 0.481167 0.168103
0.175308 0.482369 0.169342
0.228842 0.483570 0.170581
0.282119 0.484772 0.171820
0.335128 0.485973 0.173058
0.387861 0.487174 0.174297
0.440309 0.488375 0.175535
0.492466 0.489575 0.176773
0.544327 0.490776 0.178011
0.595885 0.491976 0.179249
0.647137 0.493177 0.180487
0.698079 0.494377 0.181725
0.748708 0.495577 0.182962
0.799021 0.496776 0.184200
0.849017 0.497976 0.185437
0.898694 0.499175 0.186674
0.071724 0.534722 0.171032
0.125713 0.535917 0.172271
0.179473 0.537111 0.173509
0.232987 0.538305 0.174748
0.286244 0.539499 0.175986
0.339232 0.540693 0.177224
0.391943 0.541887 0.178462
0.444369 0.543081 0.179700
0.496503 0.544274 0.180938
0.548340 0.545467 0.182175
0.599875 0.546660 0.183413
0.651103 0.547853 0.184650
0.702021 0.549046 0.185887
0.752625 0.550239 0.187125
0.802913 0.551431 0.188362
0.852885 0.552623 0.189598
0.902538 0.553815 0.190835
0.075923 0.589144 0.175199
0.129895 0.590331 0.176437
0.183636 0.591518 0.177675
0.237131 0.592705 0.178913
0.290367 0.593892 0.180151
0.343334 0.595078 0.181388
0.396023 0.596264 0.182626
0.448427 0.597451 0.183863
0.500538 0.598637 0.185101
0.552352 0.599822 0.186338
0.603863 0.601008 0.187575
0.655067 0.602194 0.188812
0.705960 0.603379 0.190049
0.756540 0.604564 0.191285
0.806804 0.605749 0.192522
0.856751 0.606934 0.193758
0.906379 0.608119 0.194994
0.080121 0.643226 0.179363
0.134076 0.644405 0.180601
0.187798 0.645585 0.181839
0.241274 0.646764 0.183076
0.294489 0.647943 0.184314
0.347435 0.649122 0.185551
0.400102 0.650301 0.186788
0.452483 0.651480 0.188025
0.504571 0.652658 0.189262
0.556362 0.653837 0.190499
0.607849 0.655015 0.191735
0.659029 0.656193 0.192972
0.709898 0.657371 0.194208
0.760454 0.658548 0.195444
0.810693 0.659726 0.196681
0.860615 0.660903 0.197916
0.910218 0.662080 0.199152
0.084318 0.696963 0.183527
0.138255 0.698135 0.184764
0.191959 0.699307 0.186002
0.245414 0.700479 0.187239
0.298609 0.701650 0.188476
0.351533 0.702822 0.189712
0.404179 0.703993 0.190949
0.456537 0.705164 0.192186
0.508603 0.706335 0.193422
0.560370 0.707506 0.194658
0.611833 0.708676 0.195894
0.662989 0.709847 0.197131
0.713834 0.711017 0.198366
0.764365 0.712187 0.199602
0.814580 0.713357 0.200838
0.864477 0.714526 0.202073
0.914056 0.715696 0.203309
0.088513 0.750352 0.187689
0.142433 0.751517 0.188926
0.196118 0.752681 0.190163
0.249553 0.753845 0.191399
0.302728 0.755009 0.192636
0.355631 0.756173 0.193872
0.408254 0.757336 0.195108
0.460590 0.758499 0.196344
0.512632 0.759663 0.197580
0.564376 0.760826 0.198816
0.615816 0.761989 0.200052
0.666948 0.763151 0.201288
0.717769 0.764314 0.202523
0.768275 0.765476 0.203758
0.818465 0.766639 0.204994
0.868337 0.767801 0.206229
0.917892 0.768962 0.207463
0.092707 0.803390 0.191849
0.146609 0.804547 0.193086
0.200275 0.805703 0.194322
0.253691 0.806860 0.195558
0.306844 0.808016 0.196794
0.359726 0.809172 0.198030
0.412327 0.810328 0.199266
0.464640 0.811484 0.200502
0.516660 0.812639 0.201737
0.568380 0.813794 0.202973
0.619796 0.814950 0.204208
0.670904 0.816105 0.205443
0.721701 0.817259 0.206678
0.772183 0.818414 0.207913
0.822348 0.819569 0.209148
0.872196 0.820723 0.210382
0.921725 0.821877 0.211617
0.096899 0.856075 0.196008
0.150784 0.857224 0.197244
0.204431 0.858373 0.198480
0.257827 0.859522 0.199716
0.310960 0.860670 0.200952
0.363820 0.861818 0.202187
0.416399 0.862966 0.203423
0.468689 0.864114 0.204658
0.520686 0.865262 0.205893
0.572383 0.866410 0.207128
0.623775 0.867557 0.208363
0.674859 0.868704 0.209597
0.725631 0.869852 0.210832
0.776089 0.870998 0.212066
0.826229 0.872145 0.213300
0.876052 0.873292 0.214535
0.925557 0.874438 0.215769
0.101091 0.908406 0.200166
0.154957 0.909548 0.201401
0.208586 0.910689 0.202637
0.261961 0.911829 0.203872
0.315073 0.912970 0.205107
0.367912 0.914111 0.206342
0.420469 0.915251 0.207577
0.472737 0.916391 0.208812
0.524710 0.917531 0.210047
0.576383 0.918671 0.211281
0.627752 0.919811 0.212516
0.678812 0.920950 0.213750
0.729560 0.922090 0.214984
0.779993 0.923229 0.216218
0.830109 0.924368 0.217452
0.879907 0.925507 0.218685
0.929387 0.926646 0.219919
0.034302 0.031288 0.186377
0.088438 0.032540 0.187614
0.142358 0.033791 0.188851
0.196043 0.035043 0.190088
0.249479 0.036295 0.191325
0.302654 0.037546 0.192561
0.355557 0.038797 0.193798
0.408181 0.040048 0.195034
0.460517 0.041299 0.196270
0.512560 0.042550 0.197506
0.564304 0.043801 0.198742
0.615745 0.045052 0.199978
0.666877 0.046303 0.201213
0.717698 0.047553 0.202449
0.768205 0.048804 0.203684
