source/confirmed_python/presence/Presence.CUBE
#Created by: Infinite Arch Leica Look Builder
#Unique Leica Look ID: 27
#Based Filmstyle Mode: Standard
TITLE "Presence"
LUT_3D_SIZE 9
DOMAIN_MIN 0.0 0.0 0.0
DOMAIN_MAX 1.0 1.0 1.0
0.033027 0.030013 0.026997
0.141093 0.032516 0.029502
0.248226 0.035019 0.032005
0.354317 0.037522 0.034509
0.459290 0.040025 0.037011
0.563091 0.042527 0.039514
0.665678 0.045028 0.042016
0.767021 0.047530 0.044518
0.867099 0.050030 0.047019
0.041446 0.143973 0.035420
0.149445 0.146456 0.037923
0.256500 0.148938 0.040425
0.362507 0.151420 0.042927
0.467391 0.153901 0.045428
0.571099 0.156382 0.047930
0.673591 0.158862 0.050430
0.774836 0.161342 0.052931
0.874816 0.163821 0.055430
0.049861 0.256894 0.043838
0.157791 0.259352 0.046339
0.264769 0.261810 0.048840
0.370690 0.264267 0.051341
0.475485 0.266724 0.053841
0.579100 0.269180 0.056340
0.681496 0.271636 0.058840
0.782643 0.274091 0.061339
0.882524 0.276545 0.063837
0.058271 0.368647 0.052251
0.166132 0.371079 0.054751
0.273031 0.373510 0.057250
0.378867 0.375941 0.059749
0.483572 0.378371 0.062248
0.587093 0.380800 0.064746
0.689393 0.383229 0.067244
0.790443 0.385657 0.069742
0.890225 0.388085 0.072239
0.066676 0.479149 0.060659
0.174467 0.481553 0.063158
0.281286 0.483956 0.065656
0.387037 0.486358 0.068153
0.491651 0.488760 0.070651
0.595079 0.491161 0.073147
0.697283 0.493562 0.075644
0.798235 0.495961 0.078140
0.897918 0.498361 0.080635
0.075076 0.588338 0.069063
0.182796 0.590712 0.071560
0.289535 0.593086 0.074056
0.395200 0.595459 0.076553
0.499724 0.597831 0.079048
0.603058 0.600203 0.081544
0.705165 0.602574 0.084038
0.806019 0.604944 0.086533
0.905604 0.607314 0.089027
0.083470 0.696167 0.077461
0.191119 0.698511 0.079957
0.297777 0.700855 0.082452
0.403356 0.703197 0.084946
0.507789 0.705540 0.087441
0.611029 0.707881 0.089934
0.713040 0.710222 0.092428
0.813795 0.712562 0.094920
0.913281 0.714902 0.097413
0.091860 0.802604 0.085855
0.199436 0.804918 0.088349
0.306013 0.807231 0.090842
0.411505 0.809543 0.093335
0.515847 0.811854 0.095828
0.618993 0.814165 0.098320
0.720907 0.816475 0.100812
0.821564 0.818784 0.103303
0.920952 0.821093 0.105794
0.100245 0.907631 0.094243
0.207747 0.909914 0.096735
0.314243 0.912195 0.099227
0.419647 0.914477 0.101719
0.523898 0.916757 0.104210
0.626949 0.919037 0.106700
0.728767 0.921316 0.109191
0.829326 0.923594 0.111680
0.928614 0.925872 0.114169
0.033877 0.030863 0.133469
0.141936 0.033366 0.135954
0.249062 0.035870 0.138438
0.355144 0.038372 0.140922
0.460108 0.040874 0.143406
0.563900 0.043376 0.145889
0.666477 0.045878 0.148371
0.767810 0.048379 0.150853
0.867879 0.050880 0.153334
0.042296 0.144816 0.141826
0.150288 0.147299 0.144310
0.257335 0.149781 0.146792
0.363333 0.152263 0.149275
0.468208 0.154744 0.151756
0.571907 0.157224 0.154237
0.674389 0.159704 0.156718
0.775624 0.162184 0.159198
0.875594 0.164663 0.161678
0.050710 0.257729 0.150178
0.158634 0.260187 0.152660
0.265603 0.262644 0.155141
0.371516 0.265101 0.157621
0.476301 0.267558 0.160101
0.579907 0.270014 0.162581
0.682293 0.272469 0.165059
0.783431 0.274924 0.167538
0.883302 0.277378 0.170016
0.059119 0.369473 0.158524
0.166974 0.371905 0.161004
0.273864 0.374336 0.163483
0.379692 0.376766 0.165962
0.484388 0.379196 0.168440
0.587900 0.381625 0.170918
0.690190 0.384054 0.173395
0.791230 0.386482 0.175872
0.891002 0.388909 0.178348
0.067524 0.479966 0.166864
0.175308 0.482369 0.169342
0.282119 0.484772 0.171820
0.387861 0.487174 0.174297
0.492466 0.489575 0.176773
0.595885 0.491976 0.179249
0.698079 0.494377 0.181725
0.799021 0.496776 0.184200
0.898694 0.499175 0.186674
0.075923 0.589144 0.175199
0.183636 0.591518 0.177675
0.290367 0.593892 0.180151
0.396023 0.596264 0.182626
0.500538 0.598637 0.185101
0.603863 0.601008 0.187575
0.705960 0.603379 0.190049
0.806804 0.605749 0.192522
0.906379 0.608119 0.194994
0.084318 0.696963 0.183527
0.191959 0.699307 0.186002
0.298609 0.701650 0.188476
0.404179 0.703993 0.190949
0.508603 0.706335 0.193422
0.611833 0.708676 0.195894
0.713834 0.711017 0.198366
0.814580 0.713357 0.200838
0.914056 0.715696 0.203309
0.092707 0.803390 0.191849
0.200275 0.805703 0.194322
0.306844 0.808016 0.196794
0.412327 0.810328 0.199266
0.516660 0.812639 0.201737
0.619796 0.814950 0.204208
0.721701 0.817259 0.206678
0.822348 0.819569 0.209148
0.921725 0.821877 0.211617
0.101091 0.908406 0.200166
0.208586 0.910689 0.202637
0.315073 0.912970 0.205107
0.420469 0.915251 0.207577
0.524710 0.917531 0.210047
0.627752 0.919811 0.212516
0.729560 0.922090 0.214984
0.830109 0.924368 0.217452
0.929387 0.926646 0.219919
0.034728 0.031713 0.239046
0.142780 0.034217 0.241509
0.249897 0.036719 0.243970
0.355971 0.039222 0.246432
0.460926 0.041724 0.248893
0.564709 0.044226 0.251353
0.667276 0.046727 0.253812
0.768600 0.049228 0.256271
0.868658 0.051729 0.258730
0.043146 0.145660 0.247328
0.151131 0.148142 0.249788
0.258170 0.150624 0.252248
0.364160 0.153105 0.254708
0.469026 0.155586 0.257167
0.572715 0.158067 0.259625
0.675187 0.160547 0.262083
0.776413 0.163026 0.264540
0.876373 0.165505 0.266996
0.051559 0.258563 0.255603
0.159476 0.261021 0.258062
0.266437 0.263479 0.260520
0.372342 0.265936 0.262977
0.477118 0.268392 0.265434
0.580714 0.270848 0.267891
0.683091 0.273303 0.270347
0.784219 0.275758 0.272802
0.884080 0.278212 0.275257
0.059968 0.370299 0.263872
0.167815 0.372730 0.266329
0.274698 0.375161 0.268785
0.380517 0.377591 0.271241
0.485203 0.380021 0.273696
0.588706 0.382450 0.276150
0.690987 0.384878 0.278604
0.792017 0.387306 0.281057
0.891779 0.389733 0.283510
0.068372 0.480782 0.272134
0.176149 0.483185 0.274589
0.282952 0.485588 0.277044
0.388685 0.487990 0.279497
0.493282 0.490391 0.281951
0.596691 0.492792 0.284403
0.698875 0.495192 0.286855
0.799807 0.497591 0.289307
0.899470 0.499990 0.291758
0.076771 0.589950 0.280391
0.184477 0.592324 0.282844
0.291200 0.594698 0.285296
0.396847 0.597070 0.287748
0.501353 0.599442 0.290199
0.604668 0.601813 0.292650
0.706756 0.604184 0.295100
0.807590 0.606554 0.297549
0.907154 0.608923 0.299998
0.085165 0.697759 0.288640
0.192799 0.700103 0.291091
0.299441 0.702446 0.293542
0.405001 0.704788 0.295992
0.509416 0.707130 0.298441
0.612638 0.709471 0.300890
0.714629 0.711812 0.303338
0.815365 0.714151 0.305785
0.914831 0.716490 0.308232
0.093553 0.804176 0.296883
0.201114 0.806489 0.299333
0.307675 0.808801 0.301781
0.413149 0.811113 0.304229
0.517473 0.813424 0.306676
0.620600 0.815734 0.309123
0.722494 0.818044 0.311569
0.823132 0.820353 0.314015
0.922499 0.822661 0.316460
0.101937 0.909181 0.305120
0.209424 0.911464 0.307567
0.315904 0.913745 0.310014
0.421290 0.916026 0.312460
0.525522 0.918306 0.314905
0.628555 0.920585 0.317350
0.730352 0.922864 0.319794
0.830892 0.925142 0.322238
0.930160 0.927419 0.324681
0.035578 0.032563 0.343620
0.143623 0.035067 0.346058
0.250733 0.037569 0.348495
0.356798 0.040072 0.350932
0.461744 0.042574 0.353368
0.565517 0.045075 0.355803
0.668075 0.047577 0.358238
0.769389 0.050077 0.360673
0.869437 0.052578 0.363107
0.043995 0.146503 0.351819
0.151973 0.148985 0.354255
0.259005 0.151467 0.356690
0.364986 0.153948 0.359125
0.469843 0.156429 0.361559
0.573523 0.158909 0.363992
0.675986 0.161389 0.366425
0.777201 0.163868 0.368858
0.877151 0.166347 0.371289
0.052408 0.259398 0.360011
0.160318 0.261856 0.362445
0.267271 0.264313 0.364878
0.373167 0.266770 0.367311
0.477935 0.269226 0.369743
0.581521 0.271682 0.372175
0.683888 0.274137 0.374606
0.785006 0.276591 0.377036
0.884857 0.279045 0.379466
0.060817 0.371125 0.368196
0.168657 0.373556 0.370628
0.275531 0.375987 0.373060
0.381342 0.378417 0.375490
0.486019 0.380846 0.377921
0.589513 0.383275 0.380350
0.691783 0.385703 0.382779
0.792803 0.388130 0.385207
0.892556 0.390557 0.387635
0.069220 0.481598 0.376375
0.176990 0.484001 0.378805
0.283785 0.486403 0.381234
0.389509 0.488805 0.383663
0.494097 0.491206 0.386091
0.597496 0.493607 0.388519
0.699671 0.496007 0.390945
0.800593 0.498406 0.393372
0.900246 0.500804 0.395797
0.077618 0.590757 0.384547
0.185317 0.593130 0.386975
0.292032 0.595503 0.389402
0.397670 0.597876 0.391829
0.502167 0.600247 0.394255
0.605473 0.602618 0.396680
0.707551 0.604989 0.399105
0.808375 0.607359 0.401529
0.907930 0.609728 0.403953
0.086012 0.698555 0.392712
0.193638 0.700899 0.395138
0.300272 0.703242 0.397563
0.405824 0.705584 0.399988
0.510230 0.707925 0.402412
0.613442 0.710266 0.404835
0.715423 0.712606 0.407258
0.816149 0.714946 0.409680
0.915605 0.717285 0.412101
0.094400 0.804961 0.400870
0.201954 0.807274 0.403294
0.308506 0.809586 0.405717
0.413971 0.811898 0.408140
0.518286 0.814208 0.410562
0.621403 0.816519 0.412983
0.723288 0.818828 0.415404
0.823916 0.821137 0.417824
0.923273 0.823445 0.420243
0.102783 0.909957 0.409022
0.210263 0.912238 0.411443
0.316734 0.914520 0.413864
0.422111 0.916800 0.416285
0.526335 0.919080 0.418705
0.629357 0.921359 0.421124
0.731145 0.923637 0.423543
0.831675 0.925915 0.425961
0.930933 0.928192 0.428378
0.036428 0.033414 0.447116
0.144466 0.035917 0.449528
0.251568 0.038419 0.451940
0.357625 0.040922 0.454350
0.462562 0.043423 0.456760
0.566326 0.045925 0.459170
0.668874 0.048426 0.461579
0.770178 0.050927 0.463987
0.870216 0.053427 0.466395
0.044845 0.147346 0.455228
0.152816 0.149828 0.457638
0.259840 0.152309 0.460047
0.365812 0.154791 0.462456
0.470660 0.157271 0.464864
0.574331 0.159751 0.467271
0.676784 0.162231 0.469678
0.777989 0.164710 0.472084
0.877929 0.167188 0.474489
0.053257 0.260233 0.463332
0.161160 0.262691 0.465740
0.268106 0.265148 0.468147
0.373993 0.267604 0.470554
0.478751 0.270060 0.472960
0.582329 0.272515 0.475365
0.684686 0.274970 0.477770
0.785794 0.277425 0.480174
0.885635 0.279878 0.482577
0.061665 0.371950 0.471430
0.169498 0.374381 0.473835
0.276365 0.376812 0.476240
0.382167 0.379242 0.478645
0.486835 0.381671 0.481049
0.590319 0.384099 0.483452
0.692580 0.386527 0.485854
0.793590 0.388955 0.488256
0.893332 0.391381 0.490657
0.070068 0.482414 0.479520
0.177831 0.484817 0.481924
0.284618 0.487219 0.484326
0.390334 0.489621 0.486729
0.494912 0.492022 0.489130
0.598302 0.494422 0.491531
0.700467 0.496821 0.493932
0.801379 0.499220 0.496332
0.901022 0.501619 0.498731
0.078466 0.591563 0.487603
0.186157 0.593936 0.490005
0.292864 0.596309 0.492405
0.398494 0.598681 0.494806
0.502981 0.601053 0.497205
0.606278 0.603424 0.499604
0.708346 0.605794 0.502002
0.809160 0.608163 0.504400
0.908705 0.610532 0.506797
0.086859 0.699351 0.495679
0.194478 0.701694 0.498079
0.301104 0.704037 0.500477
0.406647 0.706379 0.502875
0.511044 0.708720 0.505273
0.614246 0.711061 0.507669
0.716218 0.713401 0.510066
0.816934 0.715740 0.512461
0.916380 0.718079 0.514856
0.095246 0.805747 0.503748
0.202793 0.808059 0.506145
0.309337 0.810371 0.508542
0.414793 0.812683 0.510938
0.519099 0.814993 0.513333
0.622207 0.817303 0.515728
0.724082 0.819612 0.518122
0.824699 0.821921 0.520515
0.924047 0.824228 0.522908
0.103629 0.910732 0.511810
0.211101 0.913013 0.514205
0.317564 0.915294 0.516599
0.422933 0.917574 0.518993
0.527147 0.919854 0.521386
0.630160 0.922133 0.523779
0.731938 0.924411 0.526170
0.832458 0.926688 0.528562
0.931706 0.928965 0.530952
0.037277 0.034264 0.549481
0.145309 0.036767 0.551866
0.252403 0.039269 0.554250
0.358451 0.041771 0.556634
0.463380 0.044273 0.559017
0.567134 0.046774 0.561399
0.669673 0.049275 0.563781
0.770967 0.051776 0.566162
0.870995 0.054276 0.568543
0.045694 0.148189 0.557502
0.153659 0.150671 0.559884
0.260675 0.153152 0.562267
0.366638 0.155633 0.564648
0.471477 0.158113 0.567029
0.575138 0.160593 0.569409
0.677582 0.163073 0.571789
0.778778 0.165551 0.574167
0.878707 0.168030 0.576546
0.054106 0.261068 0.565515
0.162002 0.263525 0.567895
0.268940 0.265982 0.570275
0.374818 0.268438 0.572655
0.479568 0.270894 0.575033
0.583135 0.273349 0.577411
0.685483 0.275804 0.579789
0.786581 0.278258 0.582165
0.886412 0.280711 0.584541
0.062514 0.372776 0.573521
0.170340 0.375207 0.575899
0.277198 0.377637 0.578277
0.382991 0.380067 0.580654
0.487651 0.382496 0.583030
0.591125 0.384924 0.585406
0.693376 0.387352 0.587781
0.794377 0.389779 0.590156
0.894109 0.392205 0.592530
0.070916 0.483230 0.581519
0.178672 0.485633 0.583895
0.285450 0.488035 0.586271
0.391158 0.490436 0.588646
0.495727 0.492837 0.591020
0.599107 0.495237 0.593394
0.701262 0.497636 0.595767
0.802165 0.500035 0.598139
0.901798 0.502433 0.600511
0.079314 0.592369 0.589510
0.186998 0.594742 0.591884
0.293696 0.597115 0.594258
0.399317 0.599487 0.596630
0.503795 0.601858 0.599003
0.607082 0.604229 0.601374
0.709141 0.606599 0.603745
0.809945 0.608968 0.606115
0.909480 0.611337 0.608484
0.087706 0.700147 0.597494
0.195318 0.702490 0.599866
0.301935 0.704832 0.602237
0.407470 0.707174 0.604608
0.511857 0.709515 0.606977
0.615050 0.711856 0.609347
0.717012 0.714195 0.611715
0.817718 0.716534 0.614083
0.917154 0.718873 0.616450
0.096093 0.806532 0.605470
0.203632 0.808845 0.607840
0.310168 0.811156 0.610209
0.415615 0.813467 0.612577
0.519912 0.815778 0.614945
0.623010 0.818087 0.617312
0.724875 0.820396 0.619678
0.825483 0.822704 0.622044
0.924820 0.825012 0.624409
0.104475 0.911506 0.613439
0.211940 0.913788 0.615807
0.318394 0.916068 0.618174
0.423754 0.918348 0.620540
0.527959 0.920628 0.622905
0.630962 0.922906 0.625270
0.732731 0.925184 0.627634
0.833240 0.927462 0.629998
0.932479 0.929738 0.632360
0.038127 0.035114 0.650674
0.146152 0.037616 0.653031
0.253239 0.040119 0.655387
0.359278 0.042621 0.657743
0.464198 0.045122 0.660098
0.567942 0.047624 0.662452
0.670472 0.050124 0.664806
0.771756 0.052625 0.667159
0.871774 0.055125 0.669512
0.046544 0.149032 0.658600
0.154501 0.151513 0.660955
0.261509 0.153995 0.663309
0.367464 0.156475 0.665663
0.472294 0.158956 0.668016
0.575946 0.161435 0.670368
0.678380 0.163915 0.672719
0.779566 0.166393 0.675070
0.879486 0.168871 0.677420
0.054955 0.261902 0.666520
0.162844 0.264360 0.668872
0.269774 0.266816 0.671224
0.375644 0.269272 0.673575
0.480384 0.271728 0.675926
0.583942 0.274183 0.678276
0.686280 0.276637 0.680625
0.787368 0.279091 0.682974
0.887189 0.281544 0.685322
0.063362 0.373602 0.674431
0.171181 0.376032 0.676781
0.278032 0.378462 0.679131
0.383816 0.380892 0.681480
0.488466 0.383320 0.683829
0.591931 0.385749 0.686176
0.694173 0.388176 0.688523
0.795163 0.390603 0.690870
0.894886 0.393029 0.693215
0.071764 0.484046 0.682335
0.179513 0.486449 0.684683
0.286283 0.488850 0.687031
0.391982 0.491251 0.689378
0.496542 0.493652 0.691724
0.599913 0.496052 0.694069
0.702058 0.498451 0.696414
0.802950 0.500849 0.698758
0.902574 0.503247 0.701101
0.080161 0.593175 0.690232
0.187838 0.595548 0.692578
0.294528 0.597920 0.694923
0.400140 0.600292 0.697267
0.504610 0.602663 0.699611
0.607887 0.605033 0.701954
0.709936 0.607403 0.704297
0.810730 0.609772 0.706639
0.910255 0.612141 0.708980
0.088553 0.700943 0.698121
0.196157 0.703286 0.700464
0.302767 0.705628 0.702807
0.408292 0.707969 0.705150
0.512671 0.710310 0.707491
0.615854 0.712650 0.709832
0.717806 0.714990 0.712173
0.818502 0.717329 0.714512
0.917928 0.719667 0.716851
0.096939 0.807318 0.706002
0.204471 0.809630 0.708344
0.310999 0.811941 0.710684
0.416437 0.814252 0.713024
0.520724 0.816562 0.715364
0.623813 0.818871 0.717703
0.725668 0.821180 0.720041
0.826266 0.823488 0.722378
0.925594 0.825795 0.724715
0.105321 0.912281 0.713876
0.212778 0.914562 0.716215
0.319224 0.916843 0.718554
0.424575 0.919123 0.720892
0.528771 0.921402 0.723229
0.631765 0.923680 0.725565
0.733523 0.925958 0.727901
0.834023 0.928235 0.730236
0.933252 0.930511 0.732571
0.038977 0.035964 0.750663
0.146995 0.038466 0.752992
0.254074 0.040969 0.755320
0.360105 0.043470 0.757647
0.465015 0.045972 0.759973
0.568751 0.048473 0.762299
0.671270 0.050974 0.764625
0.772544 0.053474 0.766949
0.872553 0.055974 0.769273
0.047393 0.149875 0.758494
0.155344 0.152356 0.760820
0.262344 0.154837 0.763146
0.368290 0.157318 0.765471
0.473111 0.159798 0.767795
0.576754 0.162277 0.770119
0.679178 0.164756 0.772442
0.780354 0.167235 0.774764
0.880264 0.169713 0.777085
0.055804 0.262737 0.766317
0.163686 0.265194 0.768641
0.270608 0.267650 0.770965
0.376469 0.270106 0.773287
0.481200 0.272562 0.775609
0.584749 0.275016 0.777931
0.687077 0.277471 0.780251
0.788156 0.279924 0.782571
0.887967 0.282377 0.784890
0.064211 0.374427 0.774133
0.172023 0.376858 0.776454
0.278865 0.379287 0.778775
0.384641 0.381716 0.781096
0.489282 0.384145 0.783416
0.592737 0.386573 0.785735
0.694969 0.389000 0.788053
0.795950 0.391427 0.790371
0.895662 0.393853 0.792688
0.072612 0.484862 0.781941
0.180353 0.487264 0.784260
0.287116 0.489666 0.786579
0.392806 0.492067 0.788897
0.497356 0.494467 0.791214
0.600718 0.496867 0.793531
0.702854 0.499266 0.795847
0.803736 0.501664 0.798163
0.903350 0.504062 0.800478
0.081008 0.593981 0.789741
0.188678 0.596354 0.792058
0.295360 0.598726 0.794374
0.400964 0.601097 0.796690
0.505424 0.603468 0.799006
0.608692 0.605838 0.801320
0.710731 0.608208 0.803634
0.811515 0.610577 0.805947
0.911030 0.612945 0.808260
0.089400 0.701738 0.797533
0.196997 0.704081 0.799848
0.303598 0.706423 0.802163
0.409115 0.708764 0.804476
0.513484 0.711105 0.806789
0.616657 0.713445 0.809101
0.718600 0.715784 0.811413
0.819286 0.718123 0.813724
0.918702 0.720461 0.816034
0.097786 0.808103 0.805318
0.205310 0.810415 0.807631
0.311829 0.812726 0.809943
0.417259 0.815036 0.812254
0.521537 0.817346 0.814565
0.624616 0.819655 0.816875
0.726462 0.821964 0.819184
0.827050 0.824272 0.821493
0.926367 0.826579 0.823801
0.106166 0.913056 0.813096
0.213616 0.915337 0.815406
0.320054 0.917617 0.817716
0.425396 0.919897 0.820025
0.529583 0.922176 0.822333
0.632567 0.924454 0.824641
0.734316 0.926731 0.826948
0.834806 0.929008 0.829254
0.934024 0.931284 0.831560
0.039827 0.036814 0.849429
0.147838 0.039316 0.851729
0.254909 0.041818 0.854028
0.360932 0.044320 0.856326
0.465833 0.046821 0.858624
0.569559 0.049322 0.860921
0.672069 0.051823 0.863217
0.773333 0.054323 0.865513
0.873332 0.056822 0.867808
0.048242 0.150717 0.857163
0.156186 0.153199 0.859460
0.263178 0.155680 0.861757
0.369116 0.158160 0.864053
0.473928 0.160640 0.866348
0.577561 0.163119 0.868643
0.679975 0.165598 0.870937
0.781142 0.168076 0.873230
0.881042 0.170554 0.875523
0.056653 0.263571 0.864889
0.164528 0.266028 0.867184
0.271441 0.268485 0.869478
0.377294 0.270940 0.871772
0.482016 0.273395 0.874065
0.585556 0.275850 0.876358
0.687874 0.278304 0.878649
0.788943 0.280757 0.880940
0.888744 0.283210 0.883231
0.065059 0.375253 0.872607
0.172864 0.377683 0.874900
0.279698 0.380112 0.877192
0.385465 0.382541 0.879483
0.490097 0.384970 0.881774
0.593543 0.387397 0.884064
0.695765 0.389825 0.886354
0.796736 0.392251 0.888643
0.896439 0.394677 0.890931
0.073460 0.485678 0.880318
0.181194 0.488080 0.882608
0.287948 0.490481 0.884898
0.393630 0.492882 0.887187
0.498171 0.495282 0.889476
0.601523 0.497681 0.891764
0.703649 0.500080 0.894051
0.804522 0.502478 0.896337
0.904126 0.504876 0.898623
0.081856 0.594787 0.888021
0.189518 0.597159 0.890309
0.296192 0.599531 0.892597
0.401787 0.601903 0.894883
0.506238 0.604273 0.897170
0.609496 0.606643 0.899455
0.711525 0.609012 0.901740
0.812300 0.611381 0.904025
0.911805 0.613749 0.906308
0.090246 0.702534 0.895716
0.197836 0.704876 0.898002
0.304429 0.707218 0.900287
0.409937 0.709559 0.902572
0.514297 0.711900 0.904856
0.617461 0.714239 0.907139
0.719394 0.716578 0.909422
0.820070 0.718917 0.911704
0.919476 0.721254 0.913985
0.098632 0.808888 0.903404
0.206148 0.811200 0.905687
0.312660 0.813511 0.907970
0.418081 0.815821 0.910253
0.522349 0.818131 0.912535
0.625419 0.820440 0.914816
0.727255 0.822748 0.917096
0.827833 0.825055 0.919376
0.927140 0.827362 0.921655
0.107012 0.913831 0.911084
0.214454 0.916111 0.913365
0.320884 0.918391 0.915646
0.426218 0.920671 0.917926
0.530394 0.922949 0.920205
0.633369 0.925227 0.922484
0.735108 0.927505 0.924762
0.835588 0.929781 0.927040
0.934797 0.932057 0.929317
