source/confirmed_python/presence/Presence.CUBE
#Created by: Infinite Arch Leica Look Builder
#Unique Leica Look ID: 27
#Based Filmstyle Mode: Standard
TITLE "Presence"
LUT_3D_SIZE 5
DOMAIN_MIN 0.0 0.0 0.0
DOMAIN_MAX 1.0 1.0 1.0
0.033027 0.030013 0.026997
0.248226 0.035019 0.032005
0.459290 0.040025 0.037011
0.665678 0.045028 0.042016
0.867099 0.050030 0.047019
0.049861 0.256894 0.043838
0.264769 0.261810 0.048840
0.475485 0.266724 0.053841
0.681496 0.271636 0.058840
0.882524 0.276545 0.063837
0.066676 0.479149 0.060659
0.281286 0.483956 0.065656
0.491651 0.488760 0.070651
0.697283 0.493562 0.075644
0.897918 0.498361 0.080635
0.083470 0.696167 0.077461
0.297777 0.700855 0.082452
0.507789 0.705540 0.087441
0.713040 0.710222 0.092428
0.913281 0.714902 0.097413
0.100245 0.907631 0.094243
0.314243 0.912195 0.099227
0.523898 0.916757 0.104210
0.728767 0.921316 0.109191
0.928614 0.925872 0.114169
0.034728 0.031713 0.239046
0.249897 0.036719 0.243970
0.460926 0.041724 0.248893
0.667276 0.046727 0.253812
0.868658 0.051729 0.258730
0.051559 0.258563 0.255603
0.266437 0.263479 0.260520
0.477118 0.268392 0.265434
0.683091 0.273303 0.270347
0.884080 0.278212 0.275257
0.068372 0.480782 0.272134
0.282952 0.485588 0.277044
0.493282 0.490391 0.281951
0.698875 0.495192 0.286855
0.899470 0.499990 0.291758
0.085165 0.697759 0.288640
0.299441 0.702446 0.293542
0.509416 0.707130 0.298441
0.714629 0.711812 0.303338
0.914831 0.716490 0.308232
0.101937 0.909181 0.305120
0.315904 0.913745 0.310014
0.525522 0.918306 0.314905
0.730352 0.922864 0.319794
0.930160 0.927419 0.324681
0.036428 0.033414 0.447116
0.251568 0.038419 0.451940
0.462562 0.043423 0.456760
0.668874 0.048426 0.461579
0.870216 0.053427 0.466395
0.053257 0.260233 0.463332
0.268106 0.265148 0.468147
0.478751 0.270060 0.472960
0.684686 0.274970 0.477770
0.885635 0.279878 0.482577
0.070068 0.482414 0.479520
0.284618 0.487219 0.484326
0.494912 0.492022 0.489130
0.700467 0.496821 0.493932
0.901022 0.501619 0.498731
0.086859 0.699351 0.495679
0.301104 0.704037 0.500477
0.511044 0.708720 0.505273
0.716218 0.713401 0.510066
0.916380 0.718079 0.514856
0.103629 0.910732 0.511810
0.317564 0.915294 0.516599
0.527147 0.919854 0.521386
0.731938 0.924411 0.526170
0.931706 0.928965 0.530952
0.038127 0.035114 0.650674
0.253239 0.040119 0.655387
0.464198 0.045122 0.660098
0.670472 0.050124 0.664806
0.871774 0.055125 0.669512
0.054955 0.261902 0.666520
0.269774 0.266816 0.671224
0.480384 0.271728 0.675926
0.686280 0.276637 0.680625
0.887189 0.281544 0.685322
0.071764 0.484046 0.682335
0.286283 0.488850 0.687031
0.496542 0.493652 0.691724
0.702058 0.498451 0.696414
0.902574 0.503247 0.701101
0.088553 0.700943 0.698121
0.302767 0.705628 0.702807
0.512671 0.710310 0.707491
0.717806 0.714990 0.712173
0.917928 0.719667 0.716851
0.105321 0.912281 0.713876
0.319224 0.916843 0.718554
0.528771 0.921402 0.723229
0.733523 0.925958 0.727901
0.933252 0.930511 0.732571
0.039827 0.036814 0.849429
0.254909 0.041818 0.854028
0.465833 0.046821 0.858624
0.672069 0.051823 0.863217
0.873332 0.056822 0.867808
0.056653 0.263571 0.864889
0.271441 0.268485 0.869478
0.482016 0.273395 0.874065
0.687874 0.278304 0.878649
0.888744 0.283210 0.883231
0.073460 0.485678 0.880318
0.287948 0.490481 0.884898
0.498171 0.495282 0.889476
0.703649 0.500080 0.894051
0.904126 0.504876 0.898623
0.090246 0.702534 0.895716
0.304429 0.707218 0.900287
0.514297 0.711900 0.904856
0.719394 0.716578 0.909422
0.919476 0.721254 0.913985
0.107012 0.913831 0.911084
0.320884 0.918391 0.915646
0.530394 0.922949 0.920205
0.735108 0.927505 0.924762
0.934797 0.932057 0.929317
