working/Infinite_Arch_Leica_Looks_v1.2/looks/presence/look.CUBE
#Created by: Infinite Arch Leica Looks v1.0
#Unique Leica Look ID: 1004
#Based Filmstyle Mode: Standard
TITLE "IA Presence"
#LUT size
LUT_3D_SIZE 5
#data domain
DOMAIN_MIN 0.0 0.0 0.0
DOMAIN_MAX 1.0 1.0 1.0
#LUT data points
0.008000 0.008000 0.008000
0.210211 0.000000 0.000000
0.426131 0.000000 0.000000
0.647141 0.000000 0.000000
0.870695 0.000000 0.000000
0.000000 0.196546 0.024654
0.181569 0.202607 0.000000
0.423033 0.188443 0.000000
0.660163 0.188323 0.000000
0.898137 0.197449 0.000000
0.047206 0.463199 0.114284
0.222713 0.475190 0.068478
0.478945 0.498582 0.048428
0.731489 0.488059 0.000000
0.970941 0.480124 0.007126
0.155310 0.750645 0.214209
0.307183 0.760946 0.153681
0.541095 0.776184 0.153106
0.786859 0.794655 0.127824
1.000000 0.785695 0.066190
0.239978 1.000000 0.314403
0.359444 1.000000 0.231044
0.570692 1.000000 0.225607
0.783389 1.000000 0.207053
0.998266 1.000000 0.157143
0.002707 0.003267 0.226666
0.199754 0.000000 0.207207
0.416425 0.007808 0.218346
0.642652 0.027608 0.238496
0.872664 0.051782 0.260501
0.000000 0.191882 0.202470
0.189124 0.205797 0.208578
0.429155 0.228234 0.230049
0.670804 0.235039 0.235727
0.913457 0.248087 0.245647
0.058730 0.470250 0.307773
0.270169 0.484112 0.290951
0.495481 0.505581 0.280917
0.735749 0.479947 0.225140
0.972455 0.457736 0.204538
0.175512 0.756781 0.420403
0.373594 0.769211 0.398368
0.557586 0.780817 0.367238
0.796199 0.798101 0.352578
1.000000 0.776743 0.286625
0.259874 1.000000 0.524841
0.439481 1.000000 0.495410
0.581436 1.000000 0.431460
0.787204 1.000000 0.414662
0.997905 1.000000 0.368854
0.000000 0.000569 0.454688
0.208624 0.005218 0.438025
0.416302 0.013856 0.435061
0.643242 0.041797 0.459527
0.878005 0.075171 0.490864
0.000000 0.208154 0.440785
0.198956 0.216750 0.448193
0.435836 0.247861 0.459408
0.685102 0.287466 0.493866
0.935210 0.321560 0.525242
0.046414 0.458501 0.474133
0.273989 0.487214 0.487891
0.503419 0.508864 0.501949
0.756099 0.545833 0.535082
0.999175 0.561574 0.549895
0.173861 0.763138 0.598406
0.390264 0.775839 0.599385
0.595313 0.786385 0.579229
0.804391 0.799005 0.582414
1.000000 0.794078 0.558383
0.255141 1.000000 0.701202
0.450186 1.000000 0.694664
0.632993 1.000000 0.645623
0.806268 1.000000 0.618056
0.999924 1.000000 0.587980
0.002629 0.001136 0.681430
0.217197 0.010675 0.669706
0.434518 0.031834 0.669731
0.647716 0.049832 0.676567
0.884837 0.089399 0.707319
0.000000 0.216642 0.676462
0.211293 0.228634 0.684209
0.461837 0.268447 0.697760
0.694527 0.297678 0.711003
0.947155 0.342256 0.747531
0.050423 0.485035 0.711570
0.277599 0.502567 0.723521
0.518918 0.521282 0.737649
0.764185 0.557077 0.753918
1.000000 0.595880 0.790023
0.158307 0.741812 0.755567
0.377914 0.766902 0.770046
0.594970 0.791160 0.783167
0.806633 0.800571 0.792647
1.000000 0.823414 0.816733
0.245098 1.000000 0.873329
0.441636 1.000000 0.867061
0.636106 1.000000 0.839784
0.821186 1.000000 0.815568
0.997067 0.997061 0.793929
0.011189 0.008980 0.907479
0.228511 0.023070 0.901559
0.453216 0.050822 0.905397
0.675354 0.078978 0.914334
0.894845 0.100833 0.924886
0.001836 0.230051 0.910902
0.228735 0.246419 0.919374
0.483627 0.287111 0.933609
0.729188 0.327386 0.949218
0.958318 0.353175 0.963282
0.072460 0.504316 0.949249
0.294829 0.516600 0.959989
0.537843 0.537051 0.974074
0.791609 0.579077 0.989957
1.000000 0.603589 1.000000
0.167330 0.772914 0.992479
0.381408 0.789285 1.000000
0.593917 0.801195 1.000000
0.814131 0.808239 1.000000
1.000000 0.824969 1.000000
0.230557 0.999728 1.000000
0.429503 1.000000 1.000000
0.621351 1.000000 1.000000
0.808386 1.000000 1.000000
0.990000 0.990000 0.990000
