working/Infinite_Arch_Leica_Looks_v1.2/looks/presence/look.CUBE
#Created by: Infinite Arch Leica Looks v1.0
#Unique Leica Look ID: 1004
#Based Filmstyle Mode: Standard
TITLE "IA Presence"
#LUT size
LUT_3D_SIZE 9
#data domain
DOMAIN_MIN 0.0 0.0 0.0
DOMAIN_MAX 1.0 1.0 1.0
#LUT data points
0.008000 0.008000 0.008000
0.106853 0.000000 0.000000
0.210211 0.000000 0.000000
0.317024 0.000000 0.000000
0.426131 0.000000 0.000000
0.536526 0.000000 0.000000
0.647141 0.000000 0.000000
0.759261 0.000000 0.000000
0.870695 0.000000 0.000000
0.000000 0.089076 0.003537
0.077915 0.086459 0.000000
0.192204 0.075713 0.000000
0.304703 0.068679 0.000000
0.418218 0.063888 0.000000
0.532598 0.061156 0.000000
0.647333 0.061968 0.000000
0.762817 0.065190 0.000000
0.877850 0.070554 0.000000
0.000000 0.196546 0.024654
0.065961 0.197747 0.000000
0.181569 0.202607 0.000000
0.305959 0.196417 0.000000
0.423033 0.188443 0.000000
0.541403 0.186851 0.000000
0.660163 0.188323 0.000000
0.779724 0.192425 0.000000
0.898137 0.197449 0.000000
0.008111 0.324107 0.065304
0.075241 0.327554 0.029650
0.191602 0.335121 0.027505
0.317972 0.345215 0.011759
0.450639 0.345873 0.000000
0.568954 0.334093 0.000000
0.688907 0.330076 0.000000
0.810623 0.330966 0.000000
0.931294 0.334724 0.000000
0.047206 0.463199 0.114284
0.103975 0.467426 0.066895
0.222713 0.475190 0.068478
0.346396 0.485285 0.065845
0.478945 0.498582 0.048428
0.614022 0.503677 0.019124
0.731489 0.488059 0.000000
0.851034 0.481528 0.003212
0.970941 0.480124 0.007126
0.099238 0.606821 0.163133
0.149211 0.610564 0.108641
0.264510 0.618445 0.110294
0.385345 0.627467 0.111026
0.509595 0.637633 0.106812
0.642187 0.651760 0.089605
0.775466 0.658808 0.060429
0.890783 0.640609 0.023581
1.000000 0.631829 0.025585
0.155310 0.750645 0.214209
0.193612 0.753997 0.150335
0.307183 0.760946 0.153681
0.422563 0.768079 0.154354
0.541095 0.776184 0.153106
0.660598 0.784082 0.146252
0.786859 0.794655 0.127824
0.916277 0.802196 0.101650
1.000000 0.785695 0.066190
0.202839 0.890875 0.263969
0.231746 0.893557 0.192373
0.340523 0.898723 0.195812
0.451546 0.903358 0.197196
0.563206 0.907956 0.196413
0.675914 0.912073 0.191349
0.789310 0.914861 0.180900
0.906621 0.918657 0.157459
1.000000 0.923592 0.124715
0.239978 1.000000 0.314403
0.256934 1.000000 0.231122
0.359444 1.000000 0.231044
0.465132 1.000000 0.229891
0.570692 1.000000 0.225607
0.677656 1.000000 0.220089
0.783389 1.000000 0.207053
0.888992 1.000000 0.187626
0.998266 1.000000 0.157143
0.005189 0.005428 0.115780
0.099934 0.000615 0.103379
0.201444 0.000000 0.102936
0.309117 0.000000 0.105296
0.419061 0.000679 0.108750
0.530602 0.003203 0.112453
0.642652 0.006794 0.117051
0.756767 0.015084 0.122226
0.870096 0.023930 0.128704
0.000000 0.085596 0.090482
0.078870 0.085475 0.086726
0.188417 0.088394 0.089937
0.301711 0.086563 0.089835
0.416200 0.087569 0.092503
0.531707 0.090657 0.096145
0.647797 0.094177 0.098475
0.765031 0.098418 0.100318
0.881733 0.105382 0.104320
0.000000 0.197780 0.119288
0.086513 0.199422 0.109589
0.186139 0.203827 0.098483
0.306450 0.191023 0.070219
0.423953 0.177713 0.059755
0.542307 0.176817 0.061107
0.661291 0.180252 0.065322
0.781166 0.186488 0.070889
0.900354 0.193926 0.077513
0.010384 0.326433 0.163801
0.113736 0.331868 0.157900
0.200982 0.337752 0.135608
0.324927 0.348500 0.126187
0.452084 0.341561 0.091031
0.568234 0.318529 0.066825
0.686911 0.306186 0.057384
0.807743 0.302531 0.055883
0.927622 0.303563 0.058179
0.054188 0.466251 0.215834
0.157752 0.473317 0.208016
0.232872 0.478420 0.174930
0.354326 0.488319 0.174939
0.486046 0.501959 0.161672
0.616422 0.500919 0.128630
0.732055 0.477901 0.095847
0.848418 0.457313 0.075299
0.966021 0.444852 0.064371
0.112729 0.610397 0.270250
0.211888 0.617116 0.258299
0.275193 0.621790 0.216103
0.393302 0.630372 0.217866
0.516596 0.640420 0.216344
0.648168 0.654648 0.201066
0.777742 0.656720 0.171958
0.892468 0.636553 0.136227
1.000000 0.614255 0.106140
0.173786 0.754016 0.326868
0.264553 0.760205 0.309145
0.317486 0.763762 0.258221
0.430426 0.770531 0.260835
0.547172 0.778447 0.260198
0.665866 0.786103 0.255999
0.790741 0.796278 0.238806
0.917367 0.800048 0.211560
1.000000 0.781447 0.175566
0.226547 0.893225 0.382385
0.308683 0.898001 0.358961
0.349866 0.900651 0.299789
0.458260 0.904945 0.301580
0.568231 0.909138 0.301416
0.679965 0.912873 0.297575
0.792337 0.915397 0.288413
0.908651 0.918597 0.265556
1.000000 0.920469 0.232729
0.260510 1.000000 0.431096
0.343073 1.000000 0.406953
0.367223 1.000000 0.333139
0.472001 1.000000 0.333913
0.574603 1.000000 0.328343
0.680424 1.000000 0.323612
0.784917 1.000000 0.311424
0.890055 1.000000 0.293132
0.998237 1.000000 0.263043
0.002707 0.003267 0.226666
0.102500 0.001272 0.214433
0.199754 0.000000 0.207207
0.305948 0.002464 0.211053
0.416425 0.007808 0.218346
0.528826 0.015449 0.227283
0.642652 0.027608 0.238496
0.757889 0.040015 0.249240
0.872664 0.051782 0.260501
0.000000 0.090255 0.204472
0.079583 0.087473 0.201813
0.186974 0.093860 0.200205
0.299685 0.104358 0.211053
0.415720 0.113346 0.222243
0.533112 0.124112 0.233387
0.651531 0.135649 0.244256
0.771435 0.146708 0.253874
0.890632 0.158379 0.263317
0.000000 0.191882 0.202470
0.082812 0.199559 0.204706
0.189124 0.205797 0.208578
0.308581 0.220811 0.222907
0.429155 0.228234 0.230049
0.549790 0.231470 0.233011
0.670804 0.235039 0.235727
0.792551 0.240377 0.239629
0.913457 0.248087 0.245647
0.010223 0.329615 0.253787
0.117728 0.335801 0.254156
0.222799 0.341891 0.243527
0.332658 0.351400 0.244415
0.456189 0.352085 0.232589
0.574960 0.338740 0.217476
0.695960 0.333517 0.212574
0.818088 0.334885 0.214125
0.939446 0.340870 0.219541
0.058730 0.470250 0.307773
0.167292 0.477567 0.309575
0.270169 0.484112 0.290951
0.371544 0.491942 0.284192
0.495481 0.505581 0.280917
0.619896 0.502701 0.255670
0.735749 0.479947 0.225140
0.853337 0.463538 0.208287
0.972455 0.457736 0.204538
0.115745 0.613821 0.363141
0.225690 0.621329 0.365261
0.323882 0.627821 0.344574
0.410727 0.633873 0.324994
0.528851 0.643562 0.326257
0.656073 0.657735 0.317454
0.780069 0.655809 0.289151
0.894502 0.633278 0.254259
1.000000 0.611822 0.229036
0.175512 0.756781 0.420403
0.281812 0.763816 0.420549
0.373594 0.769211 0.398368
0.444637 0.773742 0.365862
0.557586 0.780817 0.367238
0.673710 0.788186 0.365665
0.796199 0.798101 0.352578
0.918369 0.797995 0.324407
1.000000 0.776743 0.286625
0.226390 0.895277 0.476097
0.327538 0.900426 0.473546
0.414316 0.904063 0.451981
0.469047 0.906777 0.405251
0.576214 0.910271 0.405829
0.685939 0.913618 0.402999
0.796733 0.915797 0.395650
0.911166 0.918384 0.374630
1.000000 0.917110 0.341712
0.259874 1.000000 0.524841
0.360454 1.000000 0.520320
0.439481 1.000000 0.495410
0.479683 1.000000 0.434861
0.581436 1.000000 0.431460
0.684029 1.000000 0.425830
0.787204 1.000000 0.414662
0.891388 1.000000 0.398456
0.997905 1.000000 0.368854
0.000558 0.001597 0.340492
0.101636 0.000683 0.329606
0.204960 0.002886 0.322122
0.305695 0.003073 0.318574
0.415100 0.011044 0.326079
0.528034 0.022122 0.337325
0.642216 0.033694 0.349485
0.758381 0.047965 0.362966
0.875177 0.067106 0.378656
0.000000 0.091167 0.321513
0.079787 0.089796 0.319351
0.194187 0.100036 0.318519
0.300744 0.107123 0.320256
0.416277 0.121313 0.333779
0.534609 0.136340 0.348745
0.654052 0.150730 0.362814
0.775651 0.166685 0.376859
0.897808 0.185350 0.392291
0.000000 0.202809 0.321807
0.080287 0.206089 0.324301
0.193723 0.211175 0.328648
0.310824 0.225731 0.334023
0.432554 0.243845 0.350375
0.556054 0.259558 0.365393
0.680078 0.273496 0.378511
0.804839 0.287701 0.391050
0.927764 0.300205 0.402119
0.001435 0.319720 0.335185
0.110264 0.330931 0.340549
0.223107 0.345158 0.346998
0.336078 0.353637 0.353291
0.462734 0.373407 0.370707
0.588305 0.386746 0.382258
0.712523 0.394038 0.388323
0.835943 0.399162 0.392378
0.957437 0.404003 0.396193
0.057256 0.473381 0.397268
0.167902 0.481110 0.400055
0.279327 0.488785 0.394282
0.388446 0.496038 0.391653
0.499609 0.506240 0.394975
0.625422 0.516787 0.396508
0.745389 0.510661 0.386408
0.866034 0.505487 0.380105
0.985406 0.502878 0.377720
0.117786 0.617449 0.453180
0.228472 0.625181 0.457198
0.337480 0.632337 0.450270
0.436488 0.638687 0.431428
0.544530 0.646687 0.434581
0.660935 0.658081 0.434496
0.783104 0.662284 0.422227
0.898570 0.646441 0.397662
1.000000 0.629313 0.378016
0.176005 0.759863 0.510295
0.283595 0.766790 0.513177
0.389579 0.772885 0.507101
0.482098 0.777976 0.481108
0.576808 0.783283 0.473885
0.686503 0.790224 0.475094
0.802377 0.799728 0.469864
0.919387 0.799675 0.450063
1.000000 0.780637 0.416420
0.225400 0.897277 0.566029
0.327262 0.902368 0.566627
0.429969 0.906050 0.561740
0.518120 0.908915 0.532727
0.594898 0.911498 0.509570
0.699199 0.914114 0.507881
0.805571 0.915925 0.503223
0.915117 0.917891 0.488300
1.000000 0.915301 0.460363
0.257891 1.000000 0.614349
0.358150 1.000000 0.612183
0.452515 1.000000 0.603599
0.538212 1.000000 0.573050
0.597190 1.000000 0.531937
0.695564 1.000000 0.526751
0.795618 1.000000 0.517292
0.896282 1.000000 0.503064
0.999060 1.000000 0.478305
0.000000 0.000569 0.454688
0.100824 0.000508 0.444978
0.208624 0.005218 0.438025
0.313360 0.010253 0.435532
0.416302 0.013856 0.435061
0.527765 0.025892 0.445161
0.643242 0.041797 0.459527
0.760590 0.058089 0.475364
0.878005 0.075171 0.490864
0.000000 0.092324 0.438482
0.081081 0.092569 0.436725
0.198265 0.103733 0.436570
0.310549 0.116547 0.439020
0.418272 0.124823 0.442772
0.535768 0.141349 0.457594
0.657382 0.160618 0.474794
0.780178 0.179167 0.491330
0.902337 0.197820 0.507318
0.000000 0.208154 0.440785
0.082938 0.210445 0.443925
0.198956 0.216750 0.448193
0.322276 0.235156 0.453915
0.435836 0.247861 0.459408
0.559250 0.267477 0.476237
0.685102 0.287466 0.493866
0.810951 0.305231 0.510192
0.935210 0.321560 0.525242
0.003879 0.334484 0.455106
0.109994 0.342872 0.460484
0.223718 0.351587 0.466300
0.343112 0.359726 0.472422
0.466236 0.377294 0.479623
0.593472 0.398162 0.497879
0.720664 0.416582 0.514866
0.846404 0.432096 0.529228
0.970152 0.445463 0.542209
0.046414 0.458501 0.474133
0.158996 0.470741 0.480539
0.273989 0.487214 0.487891
0.388858 0.499749 0.494827
0.503419 0.508864 0.501949
0.630774 0.529484 0.520338
0.756099 0.545833 0.535082
0.879030 0.555831 0.544240
0.999175 0.561574 0.549895
0.115508 0.620402 0.542660
0.226361 0.628156 0.546030
0.337508 0.635624 0.542991
0.447849 0.643152 0.538563
0.555685 0.650036 0.540925
0.663959 0.659234 0.544623
0.786178 0.673146 0.553542
0.903554 0.672695 0.550005
1.000000 0.669353 0.545855
0.173861 0.763138 0.598406
0.283307 0.769626 0.602106
0.390264 0.775839 0.599385
0.496292 0.781515 0.589777
0.595313 0.786385 0.579229
0.697294 0.791925 0.581747
0.804391 0.799005 0.582414
0.920045 0.805044 0.578021
1.000000 0.794078 0.558383
0.223986 0.899379 0.654066
0.326377 0.904261 0.655964
0.429508 0.907728 0.653706
0.530402 0.910572 0.639576
0.620294 0.912720 0.616168
0.714233 0.914195 0.611710
0.814522 0.915770 0.608768
0.918426 0.917343 0.601117
1.000000 0.915810 0.583705
0.255141 1.000000 0.701202
0.354251 1.000000 0.699725
0.450186 1.000000 0.694664
0.548341 1.000000 0.677292
0.632993 1.000000 0.645623
0.711227 1.000000 0.626428
0.806268 1.000000 0.618056
0.902459 1.000000 0.606672
0.999924 1.000000 0.587980
0.000000 0.000131 0.568339
0.103315 0.001183 0.559792
0.212555 0.007491 0.553968
0.320106 0.015689 0.551969
0.425704 0.023765 0.552633
0.530165 0.029823 0.554450
0.643839 0.044852 0.566837
0.761950 0.063804 0.582973
0.882087 0.083699 0.600842
0.000000 0.094123 0.554633
0.085799 0.096231 0.553487
0.202720 0.107852 0.554310
0.318473 0.123032 0.557181
0.429996 0.136358 0.561469
0.539328 0.146024 0.566412
0.659499 0.164702 0.582224
0.783840 0.186327 0.600688
0.908392 0.207844 0.619047
0.000000 0.212511 0.558702
0.088177 0.214579 0.562060
0.204690 0.222388 0.566580
0.330155 0.241221 0.572640
0.450145 0.259801 0.579103
0.563962 0.271922 0.585134
0.688632 0.292637 0.602242
0.815717 0.314758 0.620723
0.942123 0.335348 0.638956
0.004733 0.342378 0.573773
0.112656 0.348982 0.579033
0.228576 0.356109 0.584808
0.350610 0.366010 0.590956
0.480269 0.387656 0.598636
0.597843 0.402069 0.605727
0.724867 0.423361 0.624235
0.852034 0.444313 0.642973
0.976847 0.461862 0.659974
0.048584 0.475002 0.593721
0.162038 0.486034 0.599885
0.276290 0.497485 0.606255
0.390530 0.506361 0.612931
0.511100 0.514959 0.619843
0.634728 0.533106 0.628376
0.760332 0.553549 0.647032
0.884411 0.571654 0.664297
1.000000 0.585927 0.678767
0.103649 0.600583 0.614661
0.215678 0.612725 0.621564
0.329636 0.628780 0.629157
0.443158 0.644648 0.637457
0.555188 0.653238 0.643194
0.666862 0.661441 0.650389
0.788466 0.679742 0.668278
0.907664 0.695544 0.684065
1.000000 0.705291 0.694415
0.170580 0.765713 0.687925
0.280145 0.772044 0.690933
0.387221 0.778319 0.689655
0.494718 0.784072 0.684607
0.600460 0.789468 0.682617
0.703517 0.793863 0.686466
0.805710 0.799730 0.688718
0.920052 0.811039 0.698136
1.000000 0.811069 0.696018
0.220514 0.901066 0.741393
0.323103 0.905850 0.743183
0.427238 0.909160 0.742021
0.528893 0.912021 0.732124
0.629393 0.913898 0.721431
0.725564 0.914723 0.713706
0.820482 0.915327 0.712013
0.918477 0.915695 0.707844
1.000000 0.917465 0.702111
0.251094 1.000000 0.787161
0.351997 1.000000 0.786109
0.446964 1.000000 0.781583
0.545559 1.000000 0.767749
0.640934 1.000000 0.748461
0.726570 1.000000 0.725664
0.815700 1.000000 0.717510
0.906826 1.000000 0.707246
0.999349 1.000000 0.692436
0.002629 0.001136 0.681430
0.108128 0.003191 0.674395
0.217197 0.010675 0.669706
0.326586 0.021040 0.668385
0.434518 0.031834 0.669731
0.541516 0.042099 0.672805
0.647716 0.049832 0.676567
0.763994 0.067386 0.690331
0.884837 0.089399 0.707319
0.000000 0.097145 0.670287
0.091584 0.100943 0.669650
0.207822 0.112750 0.671472
0.325820 0.129258 0.675351
0.440944 0.145521 0.680229
0.553879 0.159922 0.685807
0.664763 0.170537 0.691169
0.786923 0.190578 0.707518
0.912793 0.213516 0.726757
0.000000 0.216642 0.676462
0.094114 0.219421 0.679686
0.211293 0.228634 0.684209
0.337277 0.247293 0.690419
0.461837 0.268447 0.697760
0.580362 0.285772 0.704596
0.694527 0.297678 0.711003
0.819897 0.319147 0.728347
0.947155 0.342256 0.747531
0.011892 0.349784 0.692441
0.121270 0.355441 0.697301
0.235043 0.361303 0.702476
0.358772 0.372742 0.709087
0.490363 0.394610 0.716743
0.614354 0.414926 0.724649
0.729958 0.427668 0.731950
0.855772 0.448809 0.750361
0.981766 0.470096 0.769523
0.050423 0.485035 0.711570
0.162749 0.494107 0.717887
0.277599 0.502567 0.723521
0.394799 0.510434 0.730513
0.518918 0.521282 0.737649
0.648534 0.543169 0.746388
0.764185 0.557077 0.753918
0.887320 0.577035 0.771903
1.000000 0.595880 0.790023
0.107867 0.618286 0.733582
0.219620 0.629640 0.740216
0.332217 0.641317 0.747035
0.444437 0.652531 0.753834
0.555556 0.659404 0.760085
0.672865 0.666665 0.766730
0.790940 0.682727 0.775354
0.909406 0.700001 0.792634
1.000000 0.714707 0.807968
0.158307 0.741812 0.755567
0.268732 0.753037 0.762554
0.377914 0.766902 0.770046
0.487498 0.781097 0.777083
0.594970 0.791160 0.783167
0.701324 0.795996 0.787546
0.806633 0.800571 0.792647
0.920004 0.813069 0.805832
1.000000 0.823414 0.816733
0.215229 0.902727 0.830647
0.318321 0.907335 0.831611
0.422503 0.910501 0.830425
0.524206 0.913258 0.823423
0.625901 0.914890 0.816246
0.725863 0.915613 0.812916
0.822793 0.915121 0.813343
0.917723 0.914866 0.809725
1.000000 0.918806 0.812753
0.245098 1.000000 0.873329
0.344932 1.000000 0.871403
0.441636 1.000000 0.867061
0.540427 1.000000 0.855263
0.636106 1.000000 0.839784
0.729869 1.000000 0.825943
0.821186 1.000000 0.815568
0.908260 1.000000 0.806545
0.997067 0.997061 0.793929
0.006903 0.003658 0.794381
0.112832 0.006908 0.788713
0.222303 0.015459 0.785335
0.333321 0.027420 0.785059
0.443500 0.040380 0.787165
0.552637 0.052900 0.790693
0.661259 0.064630 0.795250
0.769534 0.074069 0.799977
0.888439 0.092492 0.815392
0.000000 0.101564 0.785171
0.097960 0.106933 0.785715
0.213543 0.119090 0.788147
0.332903 0.136306 0.792687
0.451263 0.154624 0.798482
0.567469 0.171647 0.804487
0.681418 0.186472 0.810484
0.793261 0.197617 0.816196
0.916818 0.218161 0.833201
0.000000 0.221657 0.792743
0.101108 0.225705 0.796767
0.219183 0.236277 0.801791
0.345015 0.254623 0.807705
0.472091 0.276714 0.815149
0.594755 0.296929 0.822976
0.712424 0.313424 0.830008
0.826351 0.325051 0.836666
0.951620 0.346271 0.854395
0.020258 0.356762 0.809883
0.128796 0.361531 0.815034
0.242779 0.367665 0.819768
0.367523 0.380335 0.826295
0.499931 0.401844 0.834812
0.627853 0.424475 0.843058
0.747349 0.442107 0.850919
0.860954 0.453804 0.857575
0.985224 0.474298 0.875807
0.059940 0.493985 0.829474
0.170529 0.501317 0.835666
0.284377 0.508467 0.841466
0.402403 0.516288 0.847928
0.527379 0.528198 0.855489
0.658232 0.550110 0.863783
0.779104 0.569404 0.871650
0.891021 0.581061 0.878183
1.000000 0.599698 0.896079
0.109729 0.630383 0.852175
0.220763 0.639857 0.857963
0.332307 0.648642 0.864603
0.444503 0.656754 0.870337
0.558754 0.663052 0.877000
0.679050 0.672281 0.883896
0.801932 0.691434 0.891822
0.911490 0.702168 0.898345
1.000000 0.717687 0.913327
0.162827 0.759399 0.873754
0.271383 0.769624 0.880297
0.379564 0.779601 0.885989
0.487763 0.790117 0.892621
0.594197 0.797702 0.897923
0.699738 0.800833 0.902686
0.810090 0.803988 0.906972
0.920370 0.814378 0.910424
1.000000 0.824631 0.921332
0.203108 0.876539 0.894958
0.308272 0.885037 0.899724
0.413196 0.893925 0.904677
0.515799 0.904826 0.908442
0.618403 0.912509 0.910814
0.718598 0.916036 0.912115
0.818613 0.915349 0.911883
0.916707 0.913898 0.910797
1.000000 0.917571 0.914793
0.238961 1.000000 0.961548
0.336987 1.000000 0.958910
0.435100 1.000000 0.953962
0.534344 1.000000 0.943460
0.629229 1.000000 0.930851
0.724225 1.000000 0.919397
0.816970 1.000000 0.910452
0.906956 1.000000 0.904124
0.993663 0.993614 0.892257
0.011189 0.008980 0.907479
0.118181 0.013474 0.903373
0.228511 0.023070 0.901559
0.340918 0.036185 0.902469
0.453216 0.050822 0.905397
0.564480 0.065212 0.909597
0.675354 0.078978 0.914334
0.785493 0.091450 0.919328
0.894845 0.100833 0.924886
0.000000 0.109068 0.901252
0.105253 0.115643 0.902478
0.220301 0.128066 0.904985
0.340784 0.145797 0.909921
0.462009 0.165639 0.915992
0.580838 0.184607 0.922210
0.697359 0.201316 0.929014
0.811703 0.215535 0.935961
0.923805 0.226221 0.942050
0.001836 0.230051 0.910902
0.111126 0.235127 0.914296
0.228735 0.246419 0.919374
0.355565 0.264852 0.926391
0.483627 0.287111 0.933609
0.608819 0.308830 0.941540
0.729188 0.327386 0.949218
0.845325 0.342452 0.956508
0.958318 0.353175 0.963282
0.029493 0.365005 0.927685
0.138561 0.369744 0.932373
0.253883 0.376816 0.938316
0.378559 0.390164 0.944346
0.510761 0.411174 0.953055
0.640489 0.434336 0.961933
0.762927 0.454369 0.970154
0.878813 0.469693 0.977518
0.990118 0.480201 0.983034
0.072460 0.504316 0.949249
0.182026 0.510468 0.954017
0.294829 0.516600 0.959989
0.412270 0.524035 0.966081
0.537843 0.537051 0.974074
0.668032 0.558083 0.982191
0.791609 0.579077 0.989957
0.905930 0.594335 0.996727
1.000000 0.603589 1.000000
0.118380 0.640787 0.970303
0.228269 0.648815 0.976745
0.339121 0.655891 0.982881
0.451387 0.662623 0.989237
0.566301 0.669241 0.994603
0.686196 0.679221 1.000000
0.809823 0.697723 1.000000
0.923047 0.712755 1.000000
1.000000 0.720004 1.000000
0.167330 0.772914 0.992479
0.274460 0.781444 0.997856
0.381408 0.789285 1.000000
0.487956 0.796433 1.000000
0.593917 0.801195 1.000000
0.701584 0.803707 1.000000
0.814131 0.808239 1.000000
0.928180 0.820649 1.000000
1.000000 0.824969 1.000000
0.206682 0.894008 1.000000
0.311196 0.901129 1.000000
0.414322 0.908074 1.000000
0.516150 0.914946 1.000000
0.617225 0.919594 1.000000
0.716338 0.920960 1.000000
0.814998 0.918205 1.000000
0.917305 0.914732 1.000000
1.000000 0.916098 1.000000
0.230557 0.999728 1.000000
0.329990 1.000000 1.000000
0.429503 1.000000 1.000000
0.527978 1.000000 1.000000
0.621351 1.000000 1.000000
0.715837 1.000000 1.000000
0.808386 1.000000 1.000000
0.899970 0.999941 0.999837
0.990000 0.990000 0.990000
