working/Infinite_Arch_Leica_Looks_v1.2/looks/presence/look.CUBE
#Created by: Infinite Arch Leica Looks v1.0
#Unique Leica Look ID: 1004
#Based Filmstyle Mode: Standard
TITLE "IA Presence"
#LUT size
LUT_3D_SIZE 17
#data domain
DOMAIN_MIN 0.0 0.0 0.0
DOMAIN_MAX 1.0 1.0 1.0
#LUT data points
0.008000 0.008000 0.008000
0.056534 0.002463 0.002967
0.106853 0.000000 0.000000
0.158010 0.000000 0.000000
0.210211 0.000000 0.000000
0.263369 0.000000 0.000000
0.317024 0.000000 0.000000
0.371407 0.000000 0.000000
0.426131 0.000000 0.000000
0.481175 0.000000 0.000000
0.536526 0.000000 0.000000
0.591786 0.000000 0.000000
0.647141 0.000000 0.000000
0.702741 0.000000 0.000000
0.759261 0.000000 0.000000
0.814953 0.000000 0.000000
0.870695 0.000000 0.000000
0.000000 0.045003 0.002469
0.038380 0.042003 0.000000
0.093033 0.035095 0.000000
0.146526 0.029869 0.000000
0.200572 0.025656 0.000000
0.255292 0.021788 0.000000
0.310567 0.018099 0.000000
0.366206 0.014533 0.000000
0.421918 0.011632 0.000000
0.478323 0.009452 0.000000
0.534472 0.007757 0.000000
0.590677 0.006392 0.000000
0.646898 0.005577 0.000000
0.703286 0.006687 0.000000
0.760457 0.009349 0.000000
0.816465 0.012246 0.000000
0.872876 0.015044 0.000000
0.000000 0.089076 0.003537
0.024758 0.087871 0.000000
0.077915 0.086459 0.000000
0.136226 0.081227 0.000000
0.192204 0.075713 0.000000
0.248251 0.071768 0.000000
0.304703 0.068679 0.000000
0.361556 0.066272 0.000000
0.418218 0.063888 0.000000
0.475444 0.062090 0.000000
0.532598 0.061156 0.000000
0.589718 0.060877 0.000000
0.647333 0.061968 0.000000
0.704749 0.063256 0.000000
0.762817 0.065190 0.000000
0.820057 0.067827 0.000000
0.877850 0.070554 0.000000
0.000000 0.139909 0.011049
0.016859 0.139870 0.000000
0.069157 0.139722 0.000000
0.125898 0.140459 0.000000
0.187437 0.138146 0.000000
0.245214 0.131746 0.000000
0.302567 0.127299 0.000000
0.360503 0.124711 0.000000
0.418674 0.123010 0.000000
0.476797 0.122155 0.000000
0.534930 0.121714 0.000000
0.592897 0.121640 0.000000
0.651551 0.123018 0.000000
0.710210 0.124778 0.000000
0.769254 0.127014 0.000000
0.827671 0.129537 0.000000
0.886378 0.132458 0.000000
0.000000 0.196546 0.024654
0.013735 0.196825 0.000370
0.065961 0.197747 0.000000
0.121847 0.199900 0.000000
0.181569 0.202607 0.000000
0.246969 0.204573 0.000000
0.305959 0.196417 0.000000
0.364477 0.191568 0.000000
0.423033 0.188443 0.000000
0.482149 0.187080 0.000000
0.541403 0.186851 0.000000
0.600590 0.187103 0.000000
0.660163 0.188323 0.000000
0.719837 0.190055 0.000000
0.779724 0.192425 0.000000
0.839173 0.194747 0.000000
0.898137 0.197449 0.000000
0.000000 0.258151 0.042890
0.015375 0.259257 0.012760
0.068019 0.260855 0.012444
0.123746 0.263507 0.011328
0.183111 0.267387 0.007025
0.245739 0.271603 0.000000
0.315378 0.277696 0.000000
0.374806 0.268074 0.000000
0.433876 0.263206 0.000000
0.492703 0.259042 0.000000
0.552265 0.257286 0.000000
0.612275 0.256771 0.000000
0.672688 0.257444 0.000000
0.733058 0.258546 0.000000
0.793705 0.260093 0.000000
0.853649 0.262363 0.000000
0.913376 0.264906 0.000000
0.008111 0.324107 0.065304
0.021904 0.325379 0.028868
0.075241 0.327554 0.029650
0.131588 0.330692 0.029226
0.191602 0.335121 0.027505
0.253108 0.339979 0.022474
0.317972 0.345215 0.011759
0.390482 0.353717 0.000000
0.450639 0.345873 0.000000
0.509691 0.338422 0.000000
0.568954 0.334093 0.000000
0.628382 0.330996 0.000000
0.688907 0.330076 0.000000
0.749912 0.330405 0.000000
0.810623 0.330966 0.000000
0.871244 0.332793 0.000000
0.931294 0.334724 0.000000
0.025674 0.392669 0.089476
0.033126 0.393782 0.046612
0.087217 0.396715 0.047740
0.144964 0.400162 0.048152
0.205186 0.404629 0.047812
0.266596 0.409544 0.046033
0.329624 0.414798 0.040399
0.396845 0.421517 0.029115
0.470592 0.430935 0.017235
0.531332 0.424751 0.000461
0.589804 0.414936 0.000000
0.649365 0.410751 0.000000
0.708937 0.406830 0.000000
0.769153 0.405219 0.000000
0.830120 0.404703 0.000000
0.891038 0.405456 0.000000
0.951209 0.406737 0.000000
0.047206 0.463199 0.114284
0.048618 0.463904 0.065707
0.103975 0.467426 0.066895
0.163162 0.471071 0.068381
0.222713 0.475190 0.068478
0.283954 0.480056 0.068349
0.346396 0.485285 0.065845
0.410156 0.490839 0.059683
0.478945 0.498582 0.048428
0.552678 0.508711 0.034882
0.614022 0.503677 0.019124
0.672359 0.493828 0.001451
0.731489 0.488059 0.000000
0.791308 0.484436 0.001527
0.851034 0.481528 0.003212
0.910978 0.479709 0.005037
0.970941 0.480124 0.007126
0.072088 0.534596 0.139481
0.072250 0.535273 0.088560
0.126274 0.538817 0.087797
0.183739 0.542682 0.088416
0.242703 0.546622 0.089027
0.303342 0.551240 0.089244
0.365317 0.556423 0.088535
0.428075 0.561685 0.085633
0.491845 0.567098 0.078822
0.561204 0.575494 0.068344
0.634969 0.585971 0.054915
0.696320 0.582029 0.037683
0.754508 0.573097 0.020417
0.812917 0.565108 0.011500
0.872140 0.560993 0.013055
0.931013 0.557476 0.014666
0.989838 0.555088 0.016401
0.099238 0.606821 0.163133
0.099566 0.607282 0.113017
0.149211 0.610564 0.108641
0.205897 0.614546 0.109251
0.264510 0.618445 0.110294
0.324294 0.622558 0.111155
0.385345 0.627467 0.111026
0.446716 0.632549 0.109429
0.509595 0.637633 0.106812
0.572628 0.642669 0.099140
0.642187 0.651760 0.089605
0.714663 0.662030 0.077183
0.775466 0.658808 0.060429
0.833396 0.650649 0.041189
0.890783 0.640609 0.023581
0.948891 0.635700 0.024131
1.000000 0.631829 0.025585
0.127201 0.679179 0.188039
0.126791 0.679619 0.137582
0.171963 0.682547 0.129402
0.228616 0.686292 0.130738
0.286209 0.690073 0.131673
0.345374 0.693825 0.133282
0.404880 0.698217 0.133375
0.465133 0.702913 0.132501
0.526392 0.707621 0.131340
0.587569 0.712159 0.126461
0.649804 0.716666 0.119414
0.718152 0.725404 0.109027
0.789210 0.735890 0.097545
0.848970 0.732668 0.082500
0.906583 0.725149 0.064594
0.962992 0.715638 0.047802
1.000000 0.706648 0.033579
0.155310 0.750645 0.214209
0.154165 0.751271 0.163230
0.193612 0.753997 0.150335
0.250849 0.757309 0.153078
0.307183 0.760946 0.153681
0.364408 0.764501 0.154001
0.422563 0.768079 0.154354
0.481235 0.772242 0.153771
0.541095 0.776184 0.153106
0.600624 0.780249 0.150771
0.660598 0.784082 0.146252
0.721257 0.787680 0.138628
0.786859 0.794655 0.127824
0.857676 0.805684 0.116827
0.916277 0.802196 0.101650
0.973235 0.795026 0.084976
1.000000 0.785695 0.066190
0.180935 0.821359 0.239798
0.179923 0.821989 0.188795
0.214208 0.824399 0.171505
0.270199 0.827406 0.174198
0.325548 0.830591 0.174724
0.381305 0.833748 0.174954
0.438011 0.836749 0.175265
0.495679 0.839952 0.176379
0.553826 0.843188 0.176225
0.611430 0.846436 0.173737
0.669859 0.849321 0.171518
0.728186 0.852052 0.165598
0.786985 0.854524 0.156558
0.849917 0.859462 0.145153
0.919936 0.870423 0.132106
0.977391 0.866152 0.116578
1.000000 0.858991 0.099158
0.202839 0.890875 0.263969
0.202884 0.891512 0.214198
0.231746 0.893557 0.192373
0.285527 0.896276 0.194116
0.340523 0.898723 0.195812
0.396270 0.900990 0.197271
0.451546 0.903358 0.197196
0.506892 0.905692 0.196710
0.563206 0.907956 0.196413
0.620278 0.909821 0.195983
0.675914 0.912073 0.191349
0.732402 0.913602 0.187608
0.789310 0.914861 0.180900
0.846192 0.916097 0.170050
0.906621 0.918657 0.157459
0.975458 0.928727 0.141524
1.000000 0.923592 0.124715
0.223847 0.958008 0.290721
0.224981 0.958514 0.241640
0.247230 0.960221 0.213628
0.297913 0.962661 0.213439
0.352005 0.964307 0.215108
0.407365 0.965500 0.217058
0.461146 0.967142 0.216067
0.514080 0.968808 0.213595
0.569287 0.969709 0.213616
0.624460 0.970527 0.212384
0.678629 0.971497 0.207668
0.733389 0.971861 0.203347
0.788033 0.972014 0.196832
0.842709 0.971824 0.187836
0.898296 0.971053 0.177425
0.956238 0.971118 0.161615
1.000000 0.979758 0.141533
0.239978 1.000000 0.314403
0.240941 1.000000 0.265254
0.256934 1.000000 0.231122
0.306941 1.000000 0.230533
0.359444 1.000000 0.231044
0.412370 1.000000 0.231156
0.465132 1.000000 0.229891
0.517892 1.000000 0.227856
0.570692 1.000000 0.225607
0.624022 1.000000 0.222889
0.677656 1.000000 0.220089
0.731191 1.000000 0.215733
0.783389 1.000000 0.207053
0.836150 1.000000 0.199593
0.888992 1.000000 0.187626
0.942948 1.000000 0.175201
0.998266 1.000000 0.157143
0.006541 0.006662 0.061320
0.052890 0.003614 0.054647
0.101646 0.001700 0.052755
0.152322 0.000000 0.051529
0.204335 0.000000 0.050410
0.257503 0.000000 0.049430
0.311643 0.000000 0.048796
0.366472 0.000000 0.048632
0.421446 0.000000 0.048326
0.477048 0.000000 0.048719
0.532720 0.000000 0.048930
0.588238 0.000000 0.049830
0.644094 0.000000 0.051563
0.700247 0.000000 0.053532
0.757288 0.000000 0.055414
0.813411 0.002681 0.057971
0.869763 0.006566 0.060694
0.000000 0.042857 0.045070
0.038113 0.040704 0.041152
0.089517 0.039216 0.039780
0.142914 0.035565 0.036738
0.196882 0.032866 0.034499
0.251412 0.031268 0.033604
0.306786 0.030342 0.033715
0.362204 0.029580 0.034204
0.418049 0.029285 0.034713
0.474699 0.029229 0.034870
0.531067 0.029647 0.035708
0.587707 0.030651 0.037043
0.644359 0.031728 0.038230
0.701560 0.033354 0.038774
0.759488 0.034758 0.038599
0.816060 0.036855 0.039356
0.873211 0.038948 0.040219
0.000000 0.088609 0.049636
0.032830 0.086895 0.042317
0.078835 0.085938 0.034105
0.136046 0.078011 0.019048
0.192798 0.069884 0.012274
0.248674 0.066189 0.010460
0.305121 0.064232 0.010392
0.361697 0.063056 0.010564
0.418310 0.062253 0.011150
0.475488 0.062287 0.012406
0.532514 0.062863 0.013489
0.589732 0.064632 0.015463
0.647371 0.066724 0.017042
0.704942 0.069851 0.019583
0.763108 0.073136 0.021873
0.820615 0.076651 0.024086
0.878916 0.079941 0.025732
0.000000 0.139906 0.059530
0.032480 0.139418 0.054184
0.071561 0.139706 0.040797
0.127095 0.140433 0.033521
0.187526 0.135317 0.015573
0.245741 0.123886 0.003138
0.303487 0.115821 0.000000
0.361621 0.111422 0.000000
0.419517 0.108978 0.000000
0.477454 0.108152 0.000000
0.535363 0.108284 0.000000
0.593192 0.109491 0.000000
0.651757 0.111345 0.001441
0.710255 0.114119 0.004163
0.769316 0.117411 0.006884
0.827604 0.120573 0.009081
0.886427 0.124017 0.011457
0.000000 0.197044 0.074604
0.036771 0.197300 0.070391
0.068663 0.198339 0.050997
0.124172 0.200451 0.048830
0.183144 0.203012 0.040190
0.247284 0.202601 0.023350
0.306187 0.190733 0.007568
0.364616 0.179677 0.000000
0.423105 0.171806 0.000000
0.481974 0.167213 0.000000
0.540831 0.164691 0.000000
0.599671 0.163644 0.000000
0.658878 0.163957 0.000000
0.718170 0.165357 0.000000
0.777712 0.167629 0.000000
0.836783 0.169971 0.000000
0.895474 0.173710 0.000000
0.000000 0.258901 0.094200
0.046014 0.260683 0.090082
0.071444 0.261856 0.064800
0.127129 0.264514 0.064523
0.185827 0.268386 0.062014
0.247996 0.272611 0.052421
0.316173 0.276476 0.037155
0.375256 0.265554 0.020127
0.433644 0.253360 0.006112
0.491591 0.242406 0.000000
0.550601 0.235115 0.000000
0.609824 0.230288 0.000000
0.669449 0.227460 0.000000
0.729222 0.226176 0.000000
0.789284 0.226166 0.000000
0.848701 0.227121 0.000000
0.907905 0.228845 0.000000
0.010843 0.325232 0.117015
0.060662 0.327814 0.113512
0.079559 0.328938 0.081805
0.135995 0.332043 0.082162
0.195235 0.336238 0.081826
0.256303 0.341174 0.078162
0.321209 0.346793 0.068095
0.391601 0.352844 0.053521
0.451436 0.343842 0.036691
0.509514 0.331592 0.020729
0.567338 0.319597 0.008470
0.625503 0.309396 0.000000
0.684715 0.302682 0.000000
0.744632 0.297782 0.000000
0.804637 0.294798 0.000000
0.864357 0.292943 0.000000
0.923590 0.292328 0.000000
0.029497 0.394103 0.141934
0.079584 0.397230 0.137618
0.092825 0.398296 0.100090
0.150134 0.401797 0.101077
0.209307 0.405915 0.101506
0.270232 0.410934 0.100346
0.333035 0.416244 0.096121
0.400046 0.423074 0.085319
0.471857 0.430411 0.071355
0.532344 0.423176 0.054164
0.590367 0.411606 0.037884
0.648147 0.399460 0.023144
0.705949 0.388259 0.012186
0.764610 0.379007 0.003207
0.824176 0.372488 0.000000
0.883445 0.367992 0.000000
0.943162 0.366299 0.000000
0.052491 0.464680 0.167960
0.103060 0.467906 0.163058
0.111221 0.469142 0.119472
0.168608 0.472656 0.121338
0.227218 0.476667 0.121704
0.287911 0.481542 0.121854
0.350062 0.486810 0.120255
0.413633 0.492309 0.114997
0.482180 0.500138 0.104689
0.554335 0.508308 0.090380
0.615241 0.502484 0.073012
0.673397 0.491893 0.056040
0.731090 0.480180 0.040349
0.788870 0.468634 0.027661
0.846989 0.457985 0.016459
0.905420 0.449582 0.008593
0.964066 0.443508 0.002710
0.080027 0.536363 0.194355
0.128329 0.539857 0.186226
0.132809 0.540601 0.139640
0.189375 0.544369 0.141116
0.248095 0.548176 0.142735
0.307940 0.552714 0.143043
0.369462 0.557813 0.142914
0.432242 0.563051 0.141186
0.495406 0.568520 0.134600
0.565226 0.577407 0.125589
0.636499 0.585663 0.111301
0.697536 0.581092 0.093859
0.755504 0.571472 0.075046
0.813152 0.560442 0.059437
0.870894 0.548733 0.044418
0.928213 0.537675 0.032265
0.985270 0.527598 0.022154
0.110820 0.608823 0.221603
0.155874 0.612011 0.210955
0.155640 0.612361 0.160258
0.211490 0.616211 0.161547
0.269615 0.620002 0.163460
0.328573 0.624041 0.164210
0.389324 0.628917 0.164709
0.450778 0.633905 0.164038
0.512901 0.639019 0.161311
0.575757 0.644020 0.154608
0.645290 0.653221 0.144854
0.715901 0.661689 0.132457
0.776641 0.657811 0.115853
0.834410 0.649021 0.096844
0.891582 0.638650 0.079320
0.948429 0.627378 0.062973
1.000000 0.616414 0.050404
0.141399 0.681309 0.249173
0.183203 0.684182 0.235993
0.183675 0.684306 0.186181
0.234857 0.687779 0.183533
0.290897 0.691640 0.184130
0.349658 0.695309 0.186360
0.408731 0.699539 0.186595
0.468599 0.704199 0.185902
0.529693 0.708865 0.185385
0.590601 0.713415 0.181153
0.652657 0.717793 0.174375
0.720578 0.726524 0.164573
0.790301 0.735333 0.153427
0.849813 0.731774 0.137972
0.907280 0.723688 0.120597
0.963810 0.713602 0.102466
1.000000 0.702546 0.083474
0.172182 0.752741 0.277797
0.209843 0.755537 0.261516
0.209337 0.755941 0.211043
0.255839 0.758882 0.204573
0.311721 0.762362 0.205719
0.368405 0.765861 0.206625
0.426546 0.769233 0.207975
0.485441 0.773214 0.208099
0.544166 0.777320 0.206778
0.603897 0.781300 0.206246
0.663415 0.785093 0.201586
0.723678 0.788693 0.194416
0.788944 0.795560 0.184061
0.858340 0.804998 0.172010
0.916810 0.801174 0.157011
0.973677 0.793434 0.139755
1.000000 0.783623 0.120572
0.200211 0.823284 0.305864
0.234593 0.825680 0.286793
0.233263 0.826433 0.235814
0.274827 0.828820 0.225345
0.330557 0.831651 0.227358
0.385920 0.834741 0.228073
0.441751 0.837782 0.228692
0.499032 0.840785 0.229809
0.557153 0.843907 0.230181
0.614063 0.847283 0.227418
0.672145 0.850045 0.225922
0.730255 0.852729 0.220273
0.788811 0.855143 0.211583
0.851817 0.860039 0.200628
0.920110 0.869554 0.187099
0.977425 0.864934 0.171762
1.000000 0.857291 0.153692
0.225292 0.892316 0.332812
0.256646 0.894357 0.311900
0.255969 0.895262 0.261913
0.290950 0.897231 0.246355
0.345940 0.899449 0.249083
0.400011 0.901895 0.249340
0.454555 0.904218 0.249251
0.509859 0.906328 0.249596
0.565924 0.908531 0.249336
0.622009 0.910594 0.247725
0.677904 0.912472 0.244776
0.733991 0.914072 0.240378
0.790426 0.915333 0.233693
0.847511 0.916231 0.223743
0.907411 0.918553 0.211016
0.975078 0.927513 0.196238
1.000000 0.922051 0.179320
0.245027 0.959096 0.359022
0.278059 0.960078 0.339167
0.276353 0.961474 0.288244
0.303162 0.963293 0.265306
0.356061 0.964929 0.266723
0.410631 0.966116 0.268536
0.464069 0.967570 0.267972
0.517800 0.968799 0.266997
0.571180 0.970049 0.265146
0.625957 0.970780 0.263914
0.681191 0.971066 0.262092
0.735030 0.971674 0.256453
0.789461 0.971627 0.250526
0.844082 0.971230 0.242300
0.899169 0.970715 0.229896
0.957007 0.970544 0.215860
1.000000 0.977960 0.194925
0.260326 1.000000 0.382209
0.291750 1.000000 0.360949
0.292120 1.000000 0.311486
0.312637 1.000000 0.282274
0.363134 1.000000 0.282217
0.415637 1.000000 0.282418
0.468938 1.000000 0.282735
0.521361 1.000000 0.280810
0.572531 1.000000 0.277113
0.625778 1.000000 0.275035
0.679218 1.000000 0.272364
0.732706 1.000000 0.268718
0.784309 1.000000 0.259634
0.836992 1.000000 0.253256
0.889592 1.000000 0.241198
0.943060 1.000000 0.228154
0.998298 1.000000 0.209904
0.005189 0.005428 0.115780
0.053518 0.003336 0.108546
0.099934 0.000615 0.103379
0.149787 0.000021 0.102619
0.201444 0.000000 0.102936
0.254835 0.000000 0.103907
0.309117 0.000000 0.105296
0.363781 0.000000 0.106727
0.419061 0.000679 0.108750
0.474710 0.001686 0.110296
0.530602 0.003203 0.112453
0.586560 0.004707 0.114589
0.642652 0.006794 0.117051
0.699557 0.010520 0.119723
0.756767 0.015084 0.122226
0.813181 0.019646 0.125136
0.870096 0.023930 0.128704
0.000000 0.043996 0.100137
0.037484 0.040474 0.096624
0.087540 0.040445 0.092685
0.139385 0.041730 0.093969
0.192776 0.042428 0.095472
0.247800 0.043065 0.097330
0.303532 0.043562 0.099107
0.359300 0.043858 0.100476
0.415793 0.044565 0.102615
0.472518 0.045728 0.104368
0.529535 0.047598 0.106799
0.586556 0.049720 0.109005
0.643795 0.052969 0.111516
0.701805 0.057296 0.114600
0.759930 0.061439 0.116938
0.817140 0.066186 0.120131
0.875175 0.070658 0.123498
0.000000 0.085596 0.090482
0.030272 0.085960 0.088272
0.078870 0.085475 0.086726
0.132821 0.088415 0.089513
0.188417 0.088394 0.089937
0.244696 0.087170 0.089546
0.301711 0.086563 0.089835
0.358770 0.086475 0.090568
0.416200 0.087569 0.092503
0.474029 0.089208 0.094706
0.531707 0.090657 0.096145
0.589648 0.092516 0.097656
0.647797 0.094177 0.098475
0.706139 0.096479 0.099828
0.765031 0.098418 0.100318
0.822851 0.101754 0.101992
0.881733 0.105382 0.104320
0.000000 0.140099 0.102862
0.031317 0.139858 0.100455
0.080459 0.139912 0.093127
0.129033 0.140592 0.090067
0.186903 0.139027 0.083078
0.244810 0.131420 0.075054
0.302770 0.126590 0.071570
0.361132 0.124809 0.070844
0.419213 0.124837 0.071900
0.477578 0.126286 0.074076
0.535838 0.127968 0.075987
0.594333 0.130395 0.078302
0.653391 0.133083 0.080154
0.712456 0.136592 0.082965
0.772256 0.140123 0.085152
0.830868 0.144137 0.087893
0.890267 0.147906 0.090561
0.000000 0.197780 0.119288
0.036726 0.198298 0.118317
0.086513 0.199422 0.109589
0.130918 0.201238 0.102299
0.186139 0.203827 0.098483
0.247763 0.202766 0.085029
0.306450 0.191023 0.070219
0.365064 0.182040 0.062459
0.423953 0.177713 0.059755
0.483095 0.176571 0.059946
0.542307 0.176817 0.061107
0.601589 0.178164 0.063130
0.661291 0.180252 0.065322
0.721075 0.183099 0.068034
0.781166 0.186488 0.070889
0.840646 0.190064 0.074043
0.900354 0.193926 0.077513
0.000000 0.260100 0.139995
0.046714 0.262014 0.139597
0.097562 0.263952 0.132339
0.135067 0.265894 0.117733
0.191326 0.269649 0.117052
0.251456 0.273973 0.111050
0.317098 0.275678 0.094918
0.375772 0.263493 0.076708
0.434146 0.251792 0.064731
0.492619 0.243700 0.058702
0.552237 0.239508 0.056056
0.611902 0.237468 0.055489
0.671993 0.237048 0.056229
0.732251 0.237879 0.057829
0.792805 0.239639 0.060013
0.852801 0.242022 0.062599
0.912467 0.245176 0.065855
0.010384 0.326433 0.163801
0.061896 0.329264 0.163643
0.113736 0.331868 0.157900
0.143800 0.333870 0.135218
0.200982 0.337752 0.135608
0.260989 0.342649 0.133934
0.324927 0.348500 0.126187
0.392870 0.351987 0.109777
0.452084 0.341561 0.091031
0.510180 0.329191 0.076598
0.568234 0.318529 0.066825
0.627074 0.310648 0.060668
0.686911 0.306186 0.057384
0.747236 0.303452 0.055880
0.807743 0.302531 0.055883
0.867954 0.302465 0.056669
0.927622 0.303563 0.058179
0.029729 0.395519 0.189346
0.082808 0.398895 0.189042
0.133902 0.401915 0.182924
0.157452 0.403757 0.153929
0.214858 0.407478 0.154856
0.274942 0.412446 0.154758
0.337131 0.417741 0.151995
0.403786 0.424798 0.143015
0.473338 0.429755 0.127708
0.533201 0.421259 0.108482
0.591169 0.409229 0.092605
0.649115 0.397422 0.079527
0.707159 0.387387 0.071011
0.766486 0.380048 0.064524
0.826468 0.375410 0.061184
0.886191 0.372537 0.059066
0.945717 0.370235 0.057327
0.054188 0.466251 0.215834
0.109064 0.469950 0.215435
0.157752 0.473317 0.208016
0.175622 0.474517 0.173907
0.232872 0.478420 0.174930
0.292560 0.483053 0.175615
0.354326 0.488319 0.174939
0.417415 0.493836 0.170860
0.486046 0.501959 0.161672
0.555958 0.507873 0.147129
0.616422 0.500919 0.128630
0.674324 0.489788 0.110575
0.732055 0.477901 0.095847
0.790018 0.466858 0.084403
0.848418 0.457313 0.075299
0.907261 0.450358 0.069338
0.966021 0.444852 0.064371
0.082755 0.538027 0.242805
0.137614 0.541931 0.242150
0.184194 0.545091 0.232987
0.195989 0.546220 0.193495
0.253410 0.550021 0.195394
0.312385 0.554280 0.196159
0.373434 0.559345 0.196456
0.435726 0.564620 0.195275
0.498814 0.569993 0.190157
0.568288 0.578883 0.181127
0.638057 0.585350 0.167639
0.698889 0.579918 0.150263
0.756616 0.569521 0.131126
0.814196 0.558109 0.114238
0.871908 0.546549 0.100290
0.929356 0.536014 0.089616
0.986616 0.526930 0.081113
0.112729 0.610397 0.270250
0.167738 0.614140 0.269599
0.211888 0.617116 0.258299
0.218237 0.618039 0.213855
0.275193 0.621790 0.216103
0.333395 0.625668 0.217316
0.393302 0.630372 0.217866
0.454487 0.635350 0.217859
0.516596 0.640420 0.216344
0.578927 0.645435 0.210001
0.648168 0.654648 0.201066
0.717392 0.661322 0.188471
0.777742 0.656720 0.171958
0.835414 0.647229 0.153622
0.892468 0.636553 0.136227
0.949310 0.625046 0.118823
1.000000 0.614255 0.106140
0.143316 0.682728 0.298244
0.197102 0.686367 0.296742
0.239165 0.689011 0.283791
0.241000 0.689561 0.235168
0.296320 0.693316 0.236600
0.354418 0.696968 0.239033
0.412784 0.700906 0.239568
0.472250 0.705537 0.239459
0.533177 0.710173 0.239532
0.593727 0.714652 0.235753
0.655463 0.719087 0.229840
0.723162 0.727731 0.220147
0.791127 0.734973 0.208398
0.850722 0.730690 0.192888
0.908036 0.722022 0.175448
0.964421 0.711517 0.158858
1.000000 0.700238 0.140760
0.173786 0.754016 0.326868
0.226007 0.757616 0.324531
0.264553 0.760205 0.309145
0.264842 0.760409 0.258885
0.317486 0.763762 0.258221
0.372840 0.767318 0.259132
0.430426 0.770531 0.260835
0.488969 0.774314 0.261293
0.547172 0.778447 0.260198
0.606654 0.782320 0.260009
0.665866 0.786103 0.255999
0.725944 0.789616 0.249067
0.790741 0.796278 0.238806
0.858985 0.804374 0.227089
0.917367 0.800048 0.211560
0.974219 0.791801 0.194020
1.000000 0.781447 0.175566
0.201336 0.824424 0.354797
0.252897 0.827614 0.351901
0.287516 0.830070 0.333790
0.288126 0.830378 0.284100
0.335139 0.833069 0.278816
0.389649 0.836053 0.279933
0.445321 0.838953 0.281170
0.501942 0.841853 0.281972
0.559617 0.844933 0.282385
0.616499 0.848136 0.280529
0.674415 0.850895 0.279265
0.732326 0.853472 0.274215
0.790533 0.855824 0.265863
0.852996 0.860396 0.254817
0.920435 0.868591 0.241030
0.977638 0.863638 0.225683
1.000000 0.855457 0.207858
0.226547 0.893225 0.382385
0.276548 0.895921 0.378968
0.308683 0.898001 0.358961
0.308855 0.898848 0.309972
0.349866 0.900651 0.299789
0.404277 0.902725 0.301465
0.458260 0.904945 0.301580
0.512507 0.907125 0.301313
0.568231 0.909138 0.301416
0.624968 0.910825 0.301392
0.679965 0.912873 0.297575
0.736080 0.914289 0.294344
0.792337 0.915397 0.288413
0.848825 0.916347 0.278094
0.908651 0.918597 0.265556
0.975012 0.926215 0.249678
1.000000 0.920469 0.232729
0.245516 0.959826 0.408116
0.296826 0.961375 0.405299
0.327980 0.962920 0.384446
0.326991 0.964251 0.334601
0.360690 0.965548 0.318156
0.414770 0.966602 0.320218
0.467373 0.967970 0.319649
0.520625 0.969092 0.318844
0.573617 0.970204 0.317343
0.628185 0.970808 0.316359
0.682623 0.971203 0.313780
0.736652 0.971534 0.309053
0.790446 0.971555 0.302927
0.845076 0.970975 0.294995
0.899922 0.970251 0.283449
0.957205 0.969943 0.268180
1.000000 0.976113 0.248960
0.260510 1.000000 0.431096
0.312115 1.000000 0.428377
0.343073 1.000000 0.406953
0.341575 1.000000 0.357061
0.367223 1.000000 0.333139
0.418957 1.000000 0.333465
0.472001 1.000000 0.333913
0.523869 1.000000 0.332027
0.574603 1.000000 0.328343
0.627170 1.000000 0.326270
0.680424 1.000000 0.323612
0.733592 1.000000 0.319581
0.784917 1.000000 0.311424
0.837499 1.000000 0.304521
0.890055 1.000000 0.293132
0.943120 1.000000 0.280990
0.998237 1.000000 0.263043
0.003940 0.004305 0.170840
0.053246 0.002439 0.163856
0.101545 0.001321 0.158134
0.148896 0.000000 0.154170
0.200017 0.000000 0.154549
0.253148 0.000605 0.156285
0.307203 0.001480 0.158390
0.362130 0.003320 0.160993
0.417699 0.005583 0.164337
0.473316 0.008087 0.167683
0.529538 0.011077 0.172022
0.585750 0.014685 0.175454
0.642466 0.019066 0.179507
