source/experimental_legacy_banks/bank_b/looks/nostalgic/look.CUBE
#Created by: Infinite Arch Leica Look Builder
#Unique Leica Look ID: 0
#Based Filmstyle Mode: Standard
TITLE "IA Nostalgic"
LUT_3D_SIZE 5
DOMAIN_MIN 0.0 0.0 0.0
DOMAIN_MAX 1.0 1.0 1.0
0.039480 0.039480 0.039480
0.290671 0.035208 0.034783
0.534338 0.032284 0.030904
0.770071 0.030625 0.027877
0.997773 0.030171 0.025689
0.031639 0.279442 0.026984
0.278904 0.276881 0.025096
0.518945 0.275504 0.024012
0.751444 0.275259 0.023694
0.976340 0.276091 0.024101
0.038883 0.512864 0.023761
0.281993 0.511806 0.024420
0.518279 0.511812 0.025737
0.747474 0.512830 0.027656
0.969551 0.514799 0.030113
0.058607 0.739711 0.028492
0.297577 0.740044 0.031128
0.530151 0.741323 0.034203
0.756135 0.743486 0.037631
0.975554 0.746463 0.041311
0.088020 0.960534 0.038948
0.322915 0.962196 0.042690
0.551895 0.964683 0.046508
0.774879 0.967917 0.050226
0.992016 0.971807 0.053584
0.037896 0.037869 0.294871
0.288735 0.034069 0.287775
0.532053 0.031582 0.281568
0.767470 0.030339 0.276263
0.994895 0.030281 0.271844
0.031733 0.278436 0.274552
0.278581 0.276284 0.270451
0.518244 0.275297 0.267202
0.750410 0.275423 0.264769
0.975019 0.276609 0.263114
0.040350 0.512382 0.264079
0.283040 0.511691 0.262696
0.518947 0.512047 0.262028
0.747812 0.513395 0.262022
0.969610 0.515673 0.262619
0.061189 0.739714 0.262172
0.299745 0.740375 0.262973
0.531950 0.741962 0.264284
0.757620 0.744409 0.266026
0.976787 0.747645 0.268104
0.091393 0.961002 0.266749
0.325877 0.962952 0.268922
0.554500 0.965701 0.271267
0.777195 0.969169 0.273617
0.994136 0.973257 0.275717
0.036512 0.036426 0.544610
0.286976 0.033081 0.535269
0.529939 0.031023 0.526869
0.765037 0.030189 0.519414
0.992183 0.030522 0.512888
0.031976 0.277571 0.516931
0.278406 0.275820 0.510738
0.517692 0.275218 0.505440
0.749523 0.275710 0.501006
0.973846 0.277243 0.497399
0.041942 0.512027 0.499599
0.284212 0.511697 0.496283
0.519741 0.512397 0.493735
0.748277 0.514067 0.491909
0.969798 0.516647 0.490750
0.063867 0.739831 0.491413
0.302010 0.740813 0.490483
0.533848 0.742700 0.490135
0.759205 0.745424 0.490296
0.978125 0.748909 0.490882
0.094821 0.961570 0.490465
0.328895 0.963800 0.491181
0.557160 0.966803 0.492172
0.779569 0.970494 0.493287
0.996320 0.974764 0.494283
0.035313 0.035141 0.788120
0.285390 0.032241 0.776685
0.527993 0.030606 0.766233
0.762768 0.030174 0.756763
0.989634 0.030890 0.748260
0.032367 0.276845 0.753556
0.278379 0.275489 0.745400
0.517285 0.275265 0.738180
0.748782 0.276117 0.731868
0.972818 0.277990 0.726429
0.043656 0.511796 0.729788
0.285506 0.511822 0.724659
0.520659 0.512858 0.720351
0.748866 0.514845 0.716823
0.970112 0.517718 0.714025
0.066639 0.740059 0.715722
0.304369 0.741356 0.713178
0.535841 0.743535 0.711288
0.760889 0.746526 0.709990
0.979564 0.750250 0.709209
0.098300 0.962236 0.709651
0.331961 0.964737 0.709036
0.559869 0.967984 0.708810
0.781991 0.971886 0.708843
0.998563 0.976319 0.708921
0.034292 0.034010 1.000000
0.283973 0.031547 1.000000
0.526212 0.030327 0.999333
0.760663 0.030291 0.987987
0.987246 0.031384 0.977643
0.032903 0.276254 0.984106
0.278495 0.275289 0.974122
0.517022 0.275436 0.965112
0.748185 0.276641 0.957049
0.971934 0.278848 0.949906
0.045489 0.511688 0.954344
0.286921 0.512064 0.947527
0.521697 0.513429 0.941584
0.749577 0.515724 0.936477
0.970551 0.518883 0.932164
0.069500 0.740396 0.934817
0.306818 0.742000 0.930782
0.537925 0.744463 0.927476
0.762666 0.747713 0.924847
0.981103 0.751665 0.922831
0.101824 0.962996 0.924045
0.335071 0.965760 0.922237
0.562619 0.969241 0.920941
0.784454 0.973339 0.920063
1.000000 0.977913 0.919464
