source/experimental_legacy_banks/bank_b/looks/nostalgic/look.CUBE
#Created by: Infinite Arch Leica Look Builder
#Unique Leica Look ID: 0
#Based Filmstyle Mode: Standard
TITLE "IA Nostalgic"
LUT_3D_SIZE 9
DOMAIN_MIN 0.0 0.0 0.0
DOMAIN_MAX 1.0 1.0 1.0
0.039480 0.039480 0.039480
0.165965 0.037167 0.037037
0.290671 0.035208 0.034783
0.413482 0.033584 0.032738
0.534338 0.032284 0.030904
0.653206 0.031300 0.029284
0.770071 0.030625 0.027877
0.884926 0.030251 0.026679
0.997773 0.030171 0.025689
0.033478 0.160231 0.032046
0.159012 0.158385 0.030290
0.282777 0.156858 0.028747
0.404679 0.155644 0.027417
0.524667 0.154735 0.026295
0.642714 0.154124 0.025379
0.758806 0.153805 0.024666
0.872940 0.153771 0.024151
0.985119 0.154015 0.023830
0.031639 0.279442 0.026984
0.156134 0.278011 0.025938
0.278904 0.276881 0.025096
0.399856 0.276048 0.024456
0.518945 0.275504 0.024012
0.636144 0.275243 0.023760
0.751444 0.275259 0.023694
0.864841 0.275544 0.023810
0.976340 0.276091 0.024101
0.033546 0.396992 0.024272
0.156982 0.395952 0.023898
0.278737 0.395199 0.023715
0.398726 0.394727 0.023716
0.516903 0.394530 0.023896
0.633247 0.394600 0.024250
0.747747 0.394932 0.024770
0.860405 0.395518 0.025451
0.971224 0.396350 0.026285
0.038883 0.512864 0.023761
0.161256 0.512198 0.024005
0.281993 0.511806 0.024420
0.401014 0.511679 0.025000
0.518279 0.511812 0.025737
0.633768 0.512198 0.026625
0.747474 0.512830 0.027656
0.859399 0.513699 0.028821
0.969551 0.514799 0.030113
0.047345 0.627085 0.025250
0.168657 0.626780 0.026043
0.288378 0.626734 0.026984
0.406437 0.626939 0.028065
0.522796 0.627388 0.029277
0.637441 0.628075 0.030613
0.750366 0.628991 0.032062
0.861577 0.630129 0.033614
0.971083 0.631480 0.035259
0.058607 0.739711 0.028492
0.178864 0.739755 0.029750
0.297577 0.740044 0.031128
0.414683 0.740569 0.032615
0.530151 0.741323 0.034203
0.643968 0.742298 0.035879
0.756135 0.743486 0.037631
0.866658 0.744877 0.039447
0.975554 0.746463 0.041311
0.072306 0.850823 0.033182
0.191516 0.851209 0.034803
0.309233 0.851824 0.036509
0.425400 0.852660 0.038285
0.539993 0.853710 0.040121
0.653007 0.854964 0.041999
0.764445 0.856413 0.043903
0.874321 0.858046 0.045815
0.982658 0.859853 0.047712
0.088020 0.960534 0.038948
0.206188 0.961258 0.040800
0.322915 0.962196 0.042690
0.438156 0.963341 0.044599
0.551895 0.964683 0.046508
0.664131 0.966211 0.048393
0.774879 0.967917 0.050226
0.884161 0.969786 0.051972
0.992016 0.971807 0.053584
0.038661 0.038653 0.167827
0.165064 0.036464 0.164766
0.289681 0.034619 0.161910
0.412403 0.033106 0.159271
0.533174 0.031915 0.156851
0.651961 0.031037 0.154650
0.768750 0.030465 0.152669
0.883533 0.030192 0.150903
0.996313 0.030210 0.149351
0.033112 0.159568 0.158364
0.158543 0.157831 0.156024
0.282209 0.156411 0.153904
0.404016 0.155301 0.152001
0.523915 0.154494 0.150313
0.641877 0.153983 0.148838
0.757890 0.153762 0.147571
0.871950 0.153823 0.146509
0.984060 0.154160 0.145647
0.031667 0.278922 0.151362
0.156056 0.277594 0.149752
0.278723 0.276566 0.148353
0.399579 0.275831 0.147161
0.518576 0.275384 0.146172
0.635689 0.275218 0.145381
0.750908 0.275326 0.144784
0.864231 0.275700 0.144375
0.975661 0.276336 0.144147
0.033934 0.396606 0.146778
0.157263 0.395664 0.145862
0.278915 0.395008 0.145142
0.398806 0.394630 0.144613
0.516891 0.394524 0.144271
0.633148 0.394684 0.144109
0.747569 0.395103 0.144121
0.860151 0.395773 0.144300
0.970903 0.396687 0.144640
0.039601 0.512607 0.144468
0.161866 0.512035 0.144191
0.282500 0.511733 0.144093
0.401424 0.511696 0.144167
0.518597 0.511915 0.144406
0.634001 0.512386 0.144803
0.747627 0.513099 0.145350
0.859479 0.514047 0.146041
0.969565 0.515223 0.146866
0.048361 0.626952 0.144235
0.169565 0.626736 0.144532
0.289185 0.626775 0.144985
0.407146 0.627064 0.145585
0.523415 0.627595 0.146326
0.637976 0.628361 0.147198
0.750823 0.629353 0.148192
0.861963 0.630564 0.149299
0.971405 0.631985 0.150508
0.059886 0.739698 0.145839
0.180036 0.739826 0.146629
0.298649 0.740196 0.147546
0.415660 0.740800 0.148583
0.531038 0.741630 0.149728
0.644773 0.742678 0.150971
0.756864 0.743936 0.152301
0.867320 0.745395 0.153704
0.976157 0.747044 0.155168
0.073809 0.850928 0.148988
0.192914 0.851392 0.150170
0.310530 0.852084 0.151446
0.426603 0.852993 0.152804
0.541110 0.854113 0.154231
0.654043 0.855435 0.155712
0.765410 0.856947 0.157231
0.875223 0.858641 0.158769
0.983507 0.860503 0.160305
0.089699 0.960755 0.153316
0.207762 0.961553 0.154765
0.324389 0.962562 0.156262
0.439537 0.963775 0.157790
0.553190 0.965181 0.159330
0.665350 0.966771 0.160859
0.776030 0.968534 0.162349
0.885256 0.970456 0.163765
0.993067 0.972524 0.165061
0.037896 0.037869 0.294871
0.164209 0.035799 0.291215
0.288735 0.034069 0.287775
0.411368 0.032666 0.284559
0.532053 0.031582 0.281568
0.650759 0.030809 0.278803
0.767470 0.030339 0.276263
0.882182 0.030165 0.273944
0.994895 0.030281 0.271844
0.032788 0.158942 0.283444
0.158115 0.157314 0.280535
0.281682 0.156000 0.277852
0.403394 0.154994 0.275393
0.523202 0.154288 0.273154
0.641079 0.153876 0.271134
0.757013 0.153751 0.269327
0.870999 0.153907 0.267731
0.983041 0.154336 0.266342
0.031733 0.278436 0.274552
0.156015 0.277211 0.272394
0.278581 0.276284 0.270451
0.399339 0.275648 0.268722
0.518244 0.275297 0.267202
0.635271 0.275224 0.265886
0.750410 0.275423 0.264769
0.863657 0.275887 0.263847
0.975019 0.276609 0.263114
0.034357 0.396254 0.268145
0.157578 0.395410 0.266699
0.279128 0.394848 0.265457
0.398921 0.394564 0.264411
0.516914 0.394549 0.263559
0.633085 0.394798 0.262893
0.747424 0.395302 0.262408
0.859933 0.396056 0.262098
0.970617 0.397052 0.261957
0.040350 0.512382 0.264079
0.162508 0.511902 0.263295
0.283040 0.511691 0.262696
0.401866 0.511742 0.262276
0.518947 0.512047 0.262028
0.634265 0.512601 0.261945
0.747812 0.513395 0.262022
0.859591 0.514421 0.262249
0.969610 0.515673 0.262619
0.049404 0.626849 0.262166
0.170502 0.626721 0.261979
0.290020 0.626846 0.261955
0.407885 0.627218 0.262087
0.524063 0.627829 0.262367
0.638539 0.628673 0.262787
0.751309 0.629741 0.263338
0.862378 0.631024 0.264011
0.971758 0.632514 0.264796
0.061189 0.739714 0.262172
0.181234 0.739925 0.262504
0.299745 0.740375 0.262973
0.416661 0.741056 0.263570
0.531950 0.741962 0.264284
0.645603 0.743082 0.265107
0.757620 0.744409 0.266026
0.868009 0.745934 0.267029
0.976787 0.747645 0.268104
0.075332 0.851060 0.263817
0.194331 0.851602 0.264572
0.311847 0.852368 0.265431
0.427827 0.853351 0.266382
0.542246 0.854540 0.267413
0.655101 0.855927 0.268510
0.766396 0.857503 0.269656
0.876148 0.859255 0.270834
0.984380 0.861172 0.272023
0.091393 0.961002 0.266749
0.209350 0.961872 0.267805
0.325877 0.962952 0.268922
0.440932 0.964231 0.270082
0.554500 0.965701 0.271267
0.666583 0.967351 0.272454
0.777195 0.969169 0.273617
0.886366 0.971143 0.274720
0.994136 0.973257 0.275717
0.037181 0.037127 0.420492
0.163401 0.035174 0.416260
0.287834 0.033556 0.412254
0.410376 0.032263 0.408478
0.530975 0.031285 0.404934
0.649599 0.030615 0.401620
0.766233 0.030247 0.398537
0.880872 0.030173 0.395680
0.993519 0.030385 0.393049
0.032505 0.158353 0.407161
0.157728 0.156833 0.403701
0.281195 0.155624 0.400471
0.402812 0.154721 0.397471
0.522530 0.154115 0.394696
0.640322 0.153802 0.392146
0.756175 0.153773 0.389815
0.870087 0.154022 0.387700
0.982061 0.154542 0.385797
0.031836 0.277987 0.396435
0.156011 0.276863 0.393742
0.278475 0.276035 0.391272
0.399136 0.275497 0.389020
0.517950 0.275241 0.386983
0.634890 0.275262 0.385156
0.749948 0.275552 0.383534
0.863121 0.276104 0.382114
0.974414 0.276912 0.380888
0.034814 0.395935 0.388254
0.157928 0.395188 0.386293
0.279375 0.394721 0.384542
0.399070 0.394529 0.382994
0.516971 0.394604 0.381645
0.633055 0.394941 0.380490
0.747315 0.395531 0.379522
0.859749 0.396368 0.378736
0.970365 0.397444 0.378126
0.041131 0.512189 0.382480
0.163181 0.511801 0.381203
0.283610 0.511679 0.380116
0.402339 0.511817 0.379215
0.519329 0.512208 0.378494
0.634561 0.512844 0.377946
0.748029 0.513718 0.377564
0.859735 0.514822 0.377341
0.969688 0.516148 0.377269
0.050476 0.626777 0.378932
0.171467 0.626735 0.378275
0.290883 0.626945 0.377788
0.408651 0.627399 0.377465
0.524739 0.628090 0.377297
0.639131 0.629011 0.377279
0.751824 0.630153 0.377400
0.862823 0.631507 0.377652
0.972140 0.633065 0.378025
0.062516 0.739758 0.377386
0.182455 0.740051 0.377274
0.300866 0.740581 0.377307
0.417686 0.741339 0.377477
0.532887 0.742319 0.377774
0.646458 0.743510 0.378190
0.758400 0.744906 0.378712
0.868723 0.746495 0.379329
0.977443 0.748267 0.380028
0.076874 0.851218 0.377571
0.195769 0.851838 0.377912
0.313185 0.852678 0.378368
0.429070 0.853732 0.378926
0.543403 0.854990 0.379575
0.656178 0.856442 0.380301
0.767403 0.858078 0.381089
0.877093 0.859888 0.381922
0.985274 0.861859 0.382781
0.093100 0.961274 0.379152
0.210952 0.962216 0.379831
0.327379 0.963364 0.380581
0.442341 0.964710 0.381388
0.555824 0.966242 0.382233
0.667830 0.967950 0.383095
0.778375 0.969823 0.383947
0.887491 0.971846 0.384757
0.995220 0.974004 0.385475
0.036512 0.036426 0.544610
0.162637 0.034588 0.539823
0.286976 0.033081 0.535269
0.409428 0.031895 0.530950
0.529939 0.031023 0.526869
0.648480 0.030457 0.523024
0.765037 0.030189 0.519414
0.879604 0.030213 0.516036
0.992183 0.030522 0.512888
0.032263 0.157802 0.529437
0.157381 0.156388 0.525442
0.280748 0.155283 0.521683
0.402269 0.154482 0.518157
0.521896 0.153976 0.514863
0.639603 0.153760 0.511798
0.755377 0.153827 0.508958
0.869214 0.154169 0.506339
0.981119 0.154780 0.503938
0.031976 0.277571 0.516931
0.156045 0.276549 0.513721
0.278406 0.275820 0.510738
0.398970 0.275379 0.507979
0.517692 0.275218 0.505440
0.634546 0.275330 0.503117
0.749523 0.275710 0.501006
0.862621 0.276350 0.499101
0.973846 0.277243 0.497399
0.035305 0.395649 0.507030
0.158312 0.394998 0.504570
0.279656 0.394625 0.502324
0.399254 0.394525 0.500289
0.517062 0.394690 0.498458
0.633060 0.395113 0.496828
0.747239 0.395788 0.495391
0.859599 0.396707 0.494144
0.970147 0.397862 0.493079
0.041942 0.512027 0.499599
0.163885 0.511730 0.497842
0.284212 0.511697 0.496283
0.402843 0.511922 0.494916
0.519741 0.512397 0.493735
0.634888 0.513114 0.492735
0.748277 0.514067 0.491909
0.859910 0.515247 0.491250
0.969798 0.516647 0.490750
0.051575 0.626734 0.494465
0.172460 0.626778 0.493351
0.291773 0.627072 0.492415
0.409445 0.627608 0.491650
0.525443 0.628378 0.491050
0.639751 0.629374 0.490607
0.752367 0.630589 0.490312
0.863296 0.632014 0.490158
0.972550 0.633639 0.490134
0.063867 0.739831 0.491413
0.183701 0.740205 0.490871
0.302010 0.740813 0.490483
0.418735 0.741647 0.490240
0.533848 0.742700 0.490135
0.647337 0.743962 0.490157
0.759205 0.745424 0.490296
0.869462 0.747076 0.490542
0.978125 0.748909 0.490882
0.078436 0.851403 0.490186
0.197225 0.852099 0.490128
0.314541 0.853013 0.490194
0.430333 0.854137 0.490374
0.544579 0.855461 0.490656
0.657276 0.856977 0.491027
0.768430 0.858674 0.491473
0.878059 0.860540 0.491978
0.986190 0.862562 0.492522
0.094821 0.961570 0.490465
0.212567 0.962583 0.490781
0.328895 0.963800 0.491181
0.443764 0.965210 0.491651
0.557160 0.966803 0.492172
0.669090 0.968569 0.492726
0.779569 0.970494 0.493287
0.888629 0.972565 0.493822
0.996320 0.974764 0.494283
0.035890 0.035764 0.667168
0.161918 0.034039 0.661845
0.286162 0.032643 0.656760
0.408521 0.031565 0.651918
0.528945 0.030797 0.647317
0.647403 0.030333 0.642957
0.763882 0.030165 0.638837
0.878376 0.030286 0.634954
0.990888 0.030690 0.631306
0.032060 0.157286 0.650215
0.157074 0.155978 0.645702
0.280340 0.154978 0.641430
0.401766 0.154277 0.637396
0.521302 0.153871 0.633599
0.638923 0.153751 0.630035
0.754617 0.153912 0.626702
0.868380 0.154346 0.623596
0.980217 0.155047 0.620712
0.032154 0.277191 0.635986
0.156115 0.276269 0.632275
0.278374 0.275638 0.628795
0.398841 0.275293 0.625545
0.517470 0.275225 0.622520
0.634238 0.275430 0.619717
0.749135 0.275899 0.617131
0.862158 0.276625 0.614758
0.973314 0.277602 0.612592
0.035830 0.395396 0.624418
0.158729 0.394841 0.621474
0.279971 0.394561 0.618750
0.399471 0.394551 0.616242
0.517187 0.394805 0.613945
0.633099 0.395314 0.611855
0.747197 0.396073 0.609965
0.859483 0.397073 0.608270
0.969964 0.398307 0.606766
0.042784 0.511896 0.615382
0.164620 0.511690 0.613161
0.284844 0.511745 0.611144
0.403378 0.512056 0.609325
0.520185 0.512614 0.607701
0.635246 0.513412 0.606264
0.748556 0.514443 0.605008
0.860117 0.515699 0.603928
0.969940 0.517171 0.603015
0.052701 0.626721 0.608712
0.173479 0.626851 0.607156
0.292691 0.627227 0.605786
0.410267 0.627843 0.604595
0.526175 0.628691 0.603576
0.640399 0.629763 0.602723
0.752938 0.631050 0.602027
0.863797 0.632544 0.601481
0.972990 0.634235 0.601076
0.065242 0.739931 0.604205
0.184969 0.740386 0.603247
0.303178 0.741071 0.602452
0.419808 0.741981 0.601812
0.534833 0.743105 0.601318
0.648241 0.744436 0.600962
0.760035 0.745964 0.600734
0.870226 0.747679 0.600624
0.978832 0.749570 0.600621
0.080016 0.851614 0.601615
0.198700 0.852385 0.601173
0.315916 0.853371 0.600865
0.431615 0.854564 0.600681
0.545775 0.855955 0.600611
0.658393 0.857534 0.600643
0.769477 0.859289 0.600763
0.879046 0.861210 0.600957
0.987128 0.863282 0.601206
0.096555 0.961891 0.600643
0.214195 0.962974 0.600612
0.330422 0.964257 0.600677
0.445198 0.965731 0.600826
0.558509 0.967384 0.601042
0.670362 0.969205 0.601307
0.780774 0.971182 0.601596
0.889781 0.973298 0.601878
0.997435 0.975536 0.602108
0.035313 0.035141 0.788120
0.161242 0.033529 0.782280
0.285390 0.032241 0.776685
0.407657 0.031269 0.771336
0.527993 0.030606 0.766233
0.646368 0.030243 0.761376
0.762768 0.030174 0.756763
0.877189 0.030392 0.752392
0.989634 0.030890 0.748260
0.031898 0.156807 0.769449
0.156806 0.155604 0.764436
0.279972 0.154706 0.759668
0.401301 0.154107 0.755143
0.520747 0.153798 0.750860
0.638282 0.153775 0.746814
0.753896 0.154029 0.743004
0.867584 0.154555 0.739426
0.979352 0.155345 0.736076
0.032367 0.276845 0.753556
0.156222 0.276023 0.749360
0.278379 0.275489 0.745400
0.398748 0.275239 0.741675
0.517285 0.275265 0.738180
0.633967 0.275559 0.734913
0.748782 0.276117 0.731868
0.861731 0.276929 0.729041
0.972818 0.277990 0.726429
0.036388 0.395176 0.740376
0.159180 0.394715 0.736965
0.280319 0.394528 0.733778
0.399721 0.394608 0.730814
0.517345 0.394949 0.728066
0.633171 0.395544 0.725530
0.747189 0.396386 0.723202
0.859401 0.397466 0.721076
0.969815 0.398778 0.719147
0.043656 0.511796 0.729788
0.165385 0.511680 0.727118
0.285506 0.511822 0.724659
0.403943 0.512218 0.722405
0.520659 0.512858 0.720351
0.635635 0.513736 0.718492
0.748866 0.514845 0.716823
0.860355 0.516175 0.715336
0.970112 0.517718 0.714025
0.053854 0.626737 0.721634
0.174526 0.626951 0.719652
0.293636 0.627410 0.717863
0.411116 0.628106 0.716261
0.526933 0.629030 0.714838
0.641074 0.630176 0.713590
0.753537 0.631534 0.712509
0.864327 0.633096 0.711586
0.973458 0.634852 0.710815
0.066639 0.740059 0.715722
0.186261 0.740593 0.714364
0.304369 0.741356 0.713178
0.420905 0.742339 0.712155
0.535841 0.743535 0.711288
0.649168 0.744934 0.710570
0.760889 0.746526 0.709990
0.871015 0.748302 0.709541
0.979564 0.750250 0.709209
0.081615 0.851851 0.711822
0.200193 0.852696 0.711010
0.317310 0.853754 0.710343
0.432915 0.855015 0.709812
0.546989 0.856471 0.709407
0.659528 0.858111 0.709116
0.770543 0.859924 0.708928
0.880053 0.861897 0.708828
0.988086 0.864017 0.708800
0.098300 0.962236 0.709651
0.215834 0.963388 0.709288
0.331961 0.964737 0.709036
0.446643 0.966272 0.708882
0.559869 0.967984 0.708810
0.671645 0.969860 0.708804
0.781991 0.971886 0.708843
0.890944 0.974045 0.708897
0.998563 0.976319 0.708921
0.034781 0.034556 0.907432
0.160610 0.033056 0.901094
0.284660 0.031876 0.895006
0.406835 0.031010 0.889168
0.527082 0.030449 0.883581
0.645373 0.030187 0.878244
0.761695 0.030216 0.873156
0.876043 0.030530 0.868314
0.988420 0.031122 0.863715
0.031775 0.156364 0.887105
0.156578 0.155266 0.881609
0.279643 0.154470 0.876363
0.400876 0.153970 0.871365
0.520230 0.153759 0.866611
0.637680 0.153830 0.862101
0.753213 0.154178 0.857831
0.866827 0.154794 0.853797
0.978526 0.155671 0.849997
0.032617 0.276533 0.869606
0.156365 0.275809 0.864941
0.278419 0.275373 0.860519
0.398691 0.275217 0.856335
0.517136 0.275335 0.852387
0.633731 0.275720 0.848671
0.748466 0.276364 0.845183
0.861340 0.277262 0.841919
0.972358 0.278405 0.838876
0.036980 0.394988 0.854870
0.159664 0.394621 0.851007
0.280700 0.394525 0.847375
0.400005 0.394695 0.843969
0.517537 0.395123 0.840786
0.633276 0.395803 0.837821
0.747214 0.396726 0.835071
0.859353 0.397886 0.832529
0.969699 0.399275 0.830191
0.044558 0.511727 0.842785
0.166180 0.511699 0.839682
0.286199 0.511929 0.836795
0.404539 0.512408 0.834121
0.521163 0.513130 0.831654
0.636054 0.514087 0.829389
0.749206 0.515272 0.827321
0.860624 0.516675 0.825443
0.970316 0.518289 0.823750
0.055034 0.626782 0.833200
0.175599 0.627080 0.830807
0.294607 0.627620 0.828614
0.411991 0.628394 0.826615
0.527719 0.629395 0.824805
0.641777 0.630614 0.823178
0.754163 0.632042 0.821726
0.864884 0.633671 0.820443
0.973955 0.635490 0.819321
0.068058 0.740214 0.825935
0.187575 0.740827 0.824192
0.305583 0.741665 0.822629
0.422024 0.742722 0.821240
0.536872 0.743987 0.820016
0.650118 0.745453 0.818951
0.761766 0.747109 0.818036
0.871827 0.748945 0.817262
0.980321 0.750949 0.816621
0.083231 0.852114 0.820775
0.201704 0.853032 0.819610
0.318721 0.854160 0.818601
0.434233 0.855488 0.817738
0.548220 0.857008 0.817014
0.660682 0.858708 0.816418
0.771628 0.860577 0.815938
0.881078 0.862601 0.815564
0.989064 0.864767 0.815279
0.100057 0.962604 0.817459
0.217485 0.963824 0.816783
0.333511 0.965238 0.816230
0.448099 0.966835 0.815790
0.561239 0.968603 0.815450
0.672938 0.970532 0.815195
0.783218 0.972605 0.815005
0.892118 0.974806 0.814856
0.999702 0.977112 0.814709
0.034292 0.034010 1.000000
0.160020 0.032619 1.000000
0.283973 0.031547 1.000000
0.406054 0.030786 1.000000
0.526212 0.030327 0.999333
0.644419 0.030165 0.993534
0.760663 0.030291 0.987987
0.874937 0.030700 0.982691
0.987246 0.031384 0.977643
0.031691 0.155957 1.000000
0.156389 0.154962 0.997192
0.279352 0.154267 0.991486
0.400489 0.153866 0.986030
0.519751 0.153752 0.980825
0.637115 0.153918 0.975867
0.752568 0.154357 0.971153
0.866108 0.155063 0.966680
0.977738 0.156028 0.962447
0.032903 0.276254 0.984106
0.156543 0.275629 0.978991
0.278495 0.275289 0.974122
0.398669 0.275227 0.969497
0.517022 0.275436 0.965112
0.633530 0.275910 0.960964
0.748185 0.276641 0.957049
0.860984 0.277623 0.953365
0.971934 0.278848 0.949906
0.037604 0.394833 0.967873
0.160181 0.394558 0.963574
0.281114 0.394554 0.959512
0.400321 0.394812 0.955681
0.517761 0.395326 0.952080
0.633414 0.396090 0.948702
0.747273 0.397094 0.945545
0.859338 0.398333 0.942603
0.969617 0.399797 0.939872
0.045489 0.511688 0.954344
0.167004 0.511749 0.950824
0.286921 0.512064 0.947527
0.405164 0.512626 0.944449
0.521697 0.513429 0.941584
0.636503 0.514465 0.938929
0.749577 0.515724 0.936477
0.860923 0.517200 0.934224
0.970551 0.518883 0.932164
0.056239 0.626855 0.943381
0.176698 0.627237 0.940593
0.295605 0.627857 0.938013
0.412893 0.628709 0.935634
0.528531 0.629785 0.933452
0.642506 0.631076 0.931461
0.754816 0.632574 0.929654
0.865469 0.634268 0.928026
0.974479 0.636150 0.926570
0.069500 0.740396 0.934817
0.188911 0.741087 0.932705
0.306818 0.742000 0.930782
0.423165 0.743129 0.929041
0.537925 0.744463 0.927476
0.651091 0.745995 0.926081
0.762666 0.747713 0.924847
0.872663 0.749607 0.923767
0.981103 0.751665 0.922831
0.084863 0.852402 0.928452
0.203232 0.853392 0.926949
0.320149 0.854589 0.925613
0.435567 0.855983 0.924436
0.549469 0.857565 0.923410
0.661853 0.859324 0.922525
0.772730 0.861247 0.921773
0.882122 0.863322 0.921143
0.990062 0.865532 0.920622
0.101824 0.962996 0.924045
0.219145 0.964283 0.923072
0.335071 0.965760 0.922237
0.449565 0.967417 0.921530
0.562619 0.969241 0.920941
0.674240 0.971220 0.920457
0.784454 0.973339 0.920063
0.893300 0.975579 0.919740
1.000000 0.977913 0.919464
