source/experimental_legacy_banks/bank_b/looks/nostalgic/look.CUBE
#Created by: Infinite Arch Leica Look Builder
#Unique Leica Look ID: 0
#Based Filmstyle Mode: Standard
TITLE "IA Nostalgic"
LUT_3D_SIZE 17
DOMAIN_MIN 0.0 0.0 0.0
DOMAIN_MAX 1.0 1.0 1.0
0.039480 0.039480 0.039480
0.102932 0.038278 0.038237
0.165965 0.037167 0.037037
0.228550 0.036145 0.035885
0.290671 0.035208 0.034783
0.352318 0.034355 0.033734
0.413482 0.033584 0.032738
0.474157 0.032894 0.031794
0.534338 0.032284 0.030904
0.594022 0.031753 0.030068
0.653206 0.031300 0.029284
0.711890 0.030925 0.028554
0.770071 0.030625 0.027877
0.827750 0.030401 0.027252
0.884926 0.030251 0.026679
0.941600 0.030175 0.026158
0.997773 0.030171 0.025689
0.035919 0.100030 0.035478
0.099148 0.098955 0.034395
0.161951 0.097963 0.033365
0.224306 0.097054 0.032388
0.286199 0.096227 0.031464
0.347620 0.095480 0.030594
0.408563 0.094812 0.029776
0.469021 0.094223 0.029012
0.528991 0.093711 0.028301
0.588469 0.093276 0.027643
0.647453 0.092917 0.027037
0.705942 0.092633 0.026484
0.763935 0.092423 0.025982
0.821432 0.092286 0.025531
0.878433 0.092222 0.025131
0.934938 0.092229 0.024781
0.990948 0.092307 0.024481
0.033478 0.160231 0.032046
0.096456 0.159268 0.031141
0.159012 0.158385 0.030290
0.221123 0.157582 0.029492
0.282777 0.156858 0.028747
0.343965 0.156213 0.028056
0.404679 0.155644 0.027417
0.464914 0.155152 0.026830
0.524667 0.154735 0.026295
0.583934 0.154393 0.025812
0.642714 0.154124 0.025379
0.701004 0.153928 0.024998
0.758806 0.153805 0.024666
0.816118 0.153753 0.024384
0.872940 0.153771 0.024151
0.929273 0.153858 0.023966
0.985119 0.154015 0.023830
0.032069 0.220040 0.029215
0.094787 0.219184 0.028489
0.157088 0.218405 0.027817
0.218949 0.217705 0.027197
0.280359 0.217081 0.026629
0.341308 0.216533 0.026113
0.401789 0.216060 0.025648
0.461797 0.215661 0.025235
0.521329 0.215336 0.024871
0.580382 0.215083 0.024558
0.638954 0.214902 0.024294
0.697044 0.214793 0.024078
0.754652 0.214753 0.023911
0.811776 0.214783 0.023792
0.868418 0.214881 0.023719
0.924579 0.215046 0.023693
0.980258 0.215279 0.023712
0.031639 0.279442 0.026984
0.094093 0.278688 0.026435
0.156134 0.278011 0.025938
0.217742 0.277409 0.025492
0.278904 0.276881 0.025096
0.339611 0.276428 0.024751
0.399856 0.276048 0.024456
0.459635 0.275741 0.024210
0.518945 0.275504 0.024012
0.577781 0.275339 0.023862
0.636144 0.275243 0.023760
0.694032 0.275217 0.023704
0.751444 0.275259 0.023694
0.808380 0.275368 0.023730
0.864841 0.275544 0.023810
0.920827 0.275785 0.023934
0.976340 0.276091 0.024101
0.032144 0.338427 0.025342
0.094332 0.337773 0.024965
0.156111 0.337194 0.024638
0.217463 0.336688 0.024361
0.278375 0.336255 0.024132
0.338838 0.335894 0.023952
0.398846 0.335605 0.023819
0.458395 0.335385 0.023734
0.517480 0.335236 0.023695
0.576100 0.335156 0.023702
0.634252 0.335143 0.023754
0.691936 0.335198 0.023850
0.749152 0.335319 0.023990
0.805900 0.335505 0.024173
0.862179 0.335756 0.024397
0.917991 0.336071 0.024663
0.973338 0.336448 0.024970
0.033546 0.396992 0.024272
0.095465 0.396436 0.024061
0.156982 0.395952 0.023898
0.218076 0.395540 0.023783
0.278737 0.395199 0.023715
0.338956 0.394928 0.023692
0.398726 0.394727 0.023716
0.458042 0.394595 0.023784
0.516903 0.394530 0.023896
0.575305 0.394532 0.024052
0.633247 0.394600 0.024250
0.690727 0.394734 0.024489
0.747747 0.394932 0.024770
0.804306 0.395193 0.025091
0.860405 0.395518 0.025451
0.916044 0.395903 0.025849
0.971224 0.396350 0.026285
0.035805 0.455137 0.023753
0.097456 0.454676 0.023701
0.158709 0.454286 0.023696
0.219546 0.453966 0.023735
0.279955 0.453715 0.023820
0.339928 0.453532 0.023948
0.399460 0.453418 0.024119
0.458545 0.453370 0.024332
0.517180 0.453387 0.024587
0.575365 0.453470 0.024882
0.633096 0.453618 0.025217
0.690374 0.453828 0.025591
0.747199 0.454101 0.026003
0.803570 0.454435 0.026453
0.859488 0.454831 0.026938
0.914955 0.455285 0.027458
0.969972 0.455799 0.028012
0.038883 0.512864 0.023761
0.100266 0.512497 0.023861
0.161256 0.512198 0.024005
0.221835 0.511968 0.024192
0.281993 0.511806 0.024420
0.341721 0.511710 0.024690
0.401014 0.511679 0.025000
0.459867 0.511714 0.025349
0.518279 0.511812 0.025737
0.576246 0.511974 0.026163
0.633768 0.512198 0.026625
0.690844 0.512484 0.027123
0.747474 0.512830 0.027656
0.803659 0.513235 0.028222
0.859399 0.513699 0.028821
0.914696 0.514221 0.029452
0.969551 0.514799 0.030113
0.042744 0.570178 0.024270
0.103858 0.569903 0.024514
0.164585 0.569694 0.024798
0.224907 0.569552 0.025122
0.284813 0.569476 0.025486
0.344297 0.569465 0.025888
0.403352 0.569517 0.026327
0.461975 0.569633 0.026802
0.520163 0.569810 0.027313
0.577915 0.570049 0.027858
0.635228 0.570348 0.028437
0.692104 0.570707 0.029047
0.748542 0.571124 0.029689
0.804542 0.571598 0.030361
0.860107 0.572129 0.031062
0.915236 0.572716 0.031790
0.969932 0.573356 0.032545
0.047345 0.627085 0.025250
0.108192 0.626900 0.025628
0.168657 0.626780 0.026043
0.228722 0.626725 0.026496
0.288378 0.626734 0.026984
0.347618 0.626805 0.027508
0.406437 0.626939 0.028065
0.464830 0.627133 0.028655
0.522796 0.627388 0.029277
0.580334 0.627703 0.029930
0.637441 0.628075 0.030613
0.694118 0.628505 0.031324
0.750366 0.628991 0.032062
0.806185 0.629533 0.032826
0.861577 0.630129 0.033614
0.916542 0.630778 0.034426
0.971083 0.631480 0.035259
0.052648 0.683593 0.026669
0.113228 0.683497 0.027171
0.173431 0.683464 0.027707
0.233240 0.683494 0.028276
0.292647 0.683586 0.028878
0.351645 0.683739 0.029512
0.410228 0.683952 0.030175
0.468394 0.684225 0.030868
0.526140 0.684556 0.031589
0.583465 0.684944 0.032337
0.640368 0.685388 0.033110
0.696850 0.685888 0.033907
0.752910 0.686442 0.034727
0.808551 0.687049 0.035568
0.863773 0.687708 0.036428
0.918578 0.688418 0.037307
0.972969 0.689178 0.038202
0.058607 0.739711 0.028492
0.118922 0.739702 0.029105
0.178864 0.739755 0.029750
0.238419 0.739869 0.030424
0.297577 0.740044 0.031128
0.356334 0.740277 0.031858
0.414683 0.740569 0.032615
0.472623 0.740918 0.033397
0.530151 0.741323 0.034203
0.587266 0.741783 0.035031
0.643968 0.742298 0.035879
0.700258 0.742866 0.036746
0.756135 0.743486 0.037631
0.811601 0.744157 0.038532
0.866658 0.744877 0.039447
0.921308 0.745647 0.040374
0.975554 0.746463 0.041311
0.065176 0.795450 0.030677
0.125227 0.795528 0.031391
0.184909 0.795666 0.032131
0.244211 0.795863 0.032897
0.303123 0.796118 0.033688
0.361640 0.796431 0.034502
0.419757 0.796800 0.035337
0.477473 0.797224 0.036192
0.534786 0.797703 0.037066
0.591694 0.798234 0.037957
0.648198 0.798818 0.038863
0.704298 0.799453 0.039783
0.759995 0.800138 0.040714
0.815292 0.800871 0.041654
0.870189 0.801651 0.042602
0.924691 0.802478 0.043555
0.978798 0.803349 0.044511
0.072306 0.850823 0.033182
0.132093 0.850987 0.033982
0.191516 0.851209 0.034803
0.250566 0.851488 0.035646
0.309233 0.851824 0.036509
0.367512 0.852215 0.037389
0.425400 0.852660 0.038285
0.482894 0.853159 0.039197
0.539993 0.853710 0.040121
0.596698 0.854312 0.041055
0.653007 0.854964 0.041999
0.708922 0.855665 0.042949
0.764445 0.856413 0.043903
0.819577 0.857207 0.044859
0.874321 0.858046 0.045815
0.928680 0.858928 0.046767
0.982658 0.859853 0.047712
0.079941 0.905846 0.035958
0.139464 0.906095 0.036827
0.198630 0.906400 0.037713
0.257428 0.906761 0.038616
0.315851 0.907177 0.039532
0.373894 0.907646 0.040460
0.431554 0.908167 0.041398
0.488829 0.908740 0.042344
0.545718 0.909363 0.043296
0.602222 0.910035 0.044251
0.658340 0.910754 0.045208
0.714074 0.911520 0.046162
0.769427 0.912331 0.047112
0.824401 0.913185 0.048053
0.878999 0.914082 0.048983
0.933225 0.915019 0.049898
0.987083 0.915996 0.050793
0.088020 0.960534 0.038948
0.147280 0.960869 0.039868
0.206188 0.961258 0.040800
0.264735 0.961701 0.041742
0.322915 0.962196 0.042690
0.380723 0.962743 0.043643
0.438156 0.963341 0.044599
0.495214 0.963988 0.045555
0.551895 0.964683 0.046508
0.608200 0.965424 0.047455
0.664131 0.966211 0.048393
0.719690 0.967043 0.049318
0.774879 0.967917 0.050226
0.829701 0.968832 0.051113
0.884161 0.969786 0.051972
0.938264 0.970779 0.052798
0.992016 0.971807 0.053584
0.039063 0.039061 0.103806
0.102497 0.037891 0.102405
0.165508 0.036811 0.101050
0.228071 0.035817 0.099746
0.290171 0.034909 0.098494
0.351795 0.034084 0.097294
0.412937 0.033340 0.096149
0.473590 0.032678 0.095057
0.533750 0.032095 0.094020
0.593414 0.031591 0.093037
0.652578 0.031164 0.092108
0.711243 0.030815 0.091233
0.769405 0.030541 0.090411
0.827066 0.030342 0.089643
0.884224 0.030217 0.088928
0.940882 0.030166 0.088265
0.997038 0.030187 0.087655
0.035624 0.099655 0.099284
0.098828 0.098609 0.098051
0.161607 0.097645 0.096871
0.223937 0.096764 0.095745
0.285807 0.095964 0.094674
0.347205 0.095244 0.093656
0.408125 0.094603 0.092693
0.468560 0.094040 0.091783
0.528508 0.093555 0.090928
0.587965 0.093146 0.090125
0.646929 0.092813 0.089377
0.705398 0.092554 0.088681
0.763372 0.092369 0.088037
0.820851 0.092256 0.087446
0.877834 0.092216 0.086906
0.934321 0.092248 0.086417
0.990315 0.092349 0.085979
0.033290 0.159895 0.095349
0.096242 0.158959 0.094297
0.158772 0.158103 0.093299
0.220858 0.157328 0.092355
0.282488 0.156630 0.091465
0.343652 0.156011 0.090629
0.404343 0.155468 0.089847
0.464555 0.155002 0.089117
0.524286 0.154610 0.088440
0.583531 0.154293 0.087816
0.642290 0.154049 0.087243
0.700561 0.153878 0.086722
0.758343 0.153779 0.086251
0.815636 0.153751 0.085831
0.872440 0.153793 0.085461
0.928756 0.153904 0.085140
0.984585 0.154083 0.084868
0.031982 0.219741 0.092025
0.094674 0.218911 0.091155
0.156948 0.218159 0.090338
0.218784 0.217484 0.089575
0.280169 0.216886 0.088865
0.341093 0.216364 0.088207
0.401551 0.215916 0.087601
0.461536 0.215542 0.087047
0.521046 0.215242 0.086545
0.580077 0.215014 0.086093
0.638628 0.214857 0.085691
0.696698 0.214771 0.085339
0.754286 0.214755 0.085035
0.811391 0.214808 0.084780
0.868015 0.214929 0.084573
0.924158 0.215118 0.084413
0.979820 0.215373 0.084300
0.031648 0.279177 0.089310
0.094075 0.278449 0.088619
0.156090 0.277798 0.087980
0.217672 0.277221 0.087394
0.278809 0.276719 0.086859
0.339491 0.276291 0.086374
0.399713 0.275936 0.085941
0.459469 0.275652 0.085557
0.518755 0.275440 0.085223
0.577571 0.275299 0.084937
0.635912 0.275227 0.084700
0.693779 0.275224 0.084510
0.751171 0.275288 0.084367
0.808088 0.275420 0.084270
0.864531 0.275618 0.084218
0.920500 0.275882 0.084212
0.975996 0.276210 0.084249
0.032246 0.338196 0.087193
0.094406 0.337568 0.086676
0.156159 0.337014 0.086211
0.217485 0.336533 0.085795
0.278372 0.336124 0.085430
0.338810 0.335788 0.085113
0.398794 0.335522 0.084845
0.458319 0.335327 0.084625
0.517382 0.335201 0.084452
0.575980 0.335144 0.084326
0.634111 0.335154 0.084246
0.691775 0.335231 0.084211
0.748971 0.335375 0.084220
0.805699 0.335583 0.084273
0.861960 0.335856 0.084369
0.917755 0.336192 0.084507
0.973085 0.336590 0.084687
0.033735 0.396795 0.085656
0.095628 0.396263 0.085309
0.157118 0.395804 0.085010
0.218187 0.395416 0.084759
0.278822 0.395099 0.084557
0.339016 0.394852 0.084401
0.398761 0.394675 0.084292
0.458055 0.394565 0.084228
0.516893 0.394523 0.084209
0.575273 0.394548 0.084234
0.633193 0.394639 0.084303
0.690654 0.394794 0.084415
0.747654 0.395014 0.084568
0.804193 0.395297 0.084762
0.860274 0.395642 0.084997
0.915895 0.396048 0.085270
0.971059 0.396515 0.085583
0.036079 0.454972 0.084680
0.097703 0.454536 0.084495
0.158929 0.454169 0.084356
0.219740 0.453873 0.084263
0.280124 0.453645 0.084216
0.340073 0.453486 0.084213
0.399580 0.453394 0.084255
0.458642 0.453368 0.084339
0.517255 0.453408 0.084466
0.575417 0.453513 0.084634
0.633127 0.453682 0.084843
0.690385 0.453914 0.085092
0.747190 0.454208 0.085380
0.803542 0.454563 0.085705
0.859442 0.454978 0.086068
0.914892 0.455453 0.086467
0.969892 0.455986 0.086901
0.039238 0.512732 0.084241
0.100594 0.512388 0.084210
0.161557 0.512113 0.084223
0.222110 0.511906 0.084280
0.282243 0.511766 0.084380
0.341946 0.511692 0.084522
0.401215 0.511684 0.084706
0.460045 0.511740 0.084929
0.518434 0.511860 0.085192
0.576379 0.512043 0.085494
0.633880 0.512288 0.085833
0.690936 0.512594 0.086209
0.747547 0.512961 0.086621
0.803713 0.513386 0.087068
0.859435 0.513870 0.087548
0.914715 0.514411 0.088061
0.969554 0.515008 0.088605
0.043175 0.570077 0.084312
0.104263 0.569824 0.084427
0.164963 0.569639 0.084584
0.225259 0.569519 0.084782
0.285140 0.569465 0.085020
0.344599 0.569475 0.085298
0.403630 0.569549 0.085613
0.462230 0.569686 0.085966
0.520396 0.569885 0.086355
0.578125 0.570144 0.086780
0.635418 0.570463 0.087239
0.692274 0.570842 0.087731
0.748692 0.571279 0.088255
0.804674 0.571772 0.088811
0.860221 0.572322 0.089396
0.915334 0.572927 0.090011
0.970014 0.573586 0.090652
0.047850 0.627015 0.084864
0.108670 0.626852 0.085117
0.169107 0.626754 0.085408
0.229147 0.626721 0.085737
0.288778 0.626751 0.086104
0.347993 0.626844 0.086506
0.406788 0.626998 0.086943
0.465158 0.627213 0.087414
0.523102 0.627488 0.087918
0.580618 0.627823 0.088454
0.637705 0.628215 0.089021
0.694362 0.628664 0.089617
0.750591 0.629169 0.090241
0.806392 0.629729 0.090892
0.861766 0.630344 0.091569
0.916715 0.631011 0.092271
0.971240 0.631729 0.092995
0.053220 0.683553 0.085866
0.113774 0.683478 0.086246
0.173950 0.683467 0.086661
0.233734 0.683518 0.087111
0.293116 0.683631 0.087594
0.352089 0.683805 0.088110
0.410648 0.684038 0.088657
0.468791 0.684331 0.089234
0.526515 0.684681 0.089841
0.583819 0.685088 0.090475
0.640702 0.685552 0.091136
0.697164 0.686070 0.091822
0.753206 0.686642 0.092532
0.808829 0.687267 0.093264
0.864034 0.687943 0.094017
0.918823 0.688671 0.094790
0.973199 0.689447 0.095580
0.059243 0.739701 0.087283
0.119531 0.739713 0.087778
0.179447 0.739787 0.088305
0.238976 0.739922 0.088864
0.298110 0.740116 0.089452
0.356842 0.740370 0.090069
0.415168 0.740681 0.090713
0.473085 0.741049 0.091383
0.530592 0.741473 0.092078
0.587686 0.741952 0.092796
0.644368 0.742485 0.093536
0.700638 0.743071 0.094297
0.756496 0.743708 0.095076
0.811945 0.744396 0.095872
0.866986 0.745133 0.096684
0.921621 0.745919 0.097509
0.975852 0.746751 0.098346
0.065872 0.795470 0.089074
0.125895 0.795568 0.089673
0.185551 0.795726 0.090300
0.244827 0.795943 0.090954
0.303715 0.796218 0.091633
0.362208 0.796550 0.092337
0.420302 0.796938 0.093063
0.477996 0.797381 0.093811
0.535286 0.797877 0.094578
0.592174 0.798427 0.095364
0.648658 0.799028 0.096166
0.704739 0.799680 0.096983
0.760419 0.800381 0.097813
0.815698 0.801131 0.098654
0.870580 0.801927 0.099503
0.925067 0.802769 0.100359
0.979160 0.803655 0.101220
0.073055 0.850872 0.091198
0.132815 0.851056 0.091886
0.192213 0.851297 0.092598
0.251236 0.851596 0.093333
0.309879 0.851951 0.094088
0.368134 0.852360 0.094862
0.425999 0.852824 0.095654
0.483471 0.853340 0.096462
0.540549 0.853909 0.097284
0.597233 0.854528 0.098118
0.653522 0.855197 0.098962
0.709419 0.855913 0.099814
0.764924 0.856677 0.100672
0.820040 0.857487 0.101534
0.874769 0.858341 0.102396
0.929115 0.859238 0.103255
0.983080 0.860176 0.104110
0.080738 0.905924 0.093605
0.140234 0.906192 0.094368
0.199374 0.906517 0.095149
0.258147 0.906896 0.095946
0.316545 0.907330 0.096760
0.374564 0.907817 0.097586
0.432201 0.908356 0.098424
0.489454 0.908946 0.099271
0.546322 0.909586 0.100126
0.602806 0.910274 0.100986
0.658905 0.911009 0.101847
0.714622 0.911790 0.102709
0.769958 0.912616 0.103567
0.824916 0.913485 0.104419
0.879500 0.914396 0.105262
0.933713 0.915347 0.106090
0.987559 0.916336 0.106900
0.088858 0.960642 0.096241
0.148091 0.960995 0.097059
0.206973 0.961402 0.097890
0.265495 0.961863 0.098732
0.323650 0.962376 0.099582
0.381434 0.962941 0.100438
0.438845 0.963555 0.101299
0.495880 0.964218 0.102161
0.552541 0.964929 0.103022
0.608826 0.965687 0.103879
0.664739 0.966489 0.104727
0.720280 0.967335 0.105565
0.775452 0.968223 0.106387
0.830260 0.969152 0.107189
0.884707 0.970119 0.107966
0.938798 0.971124 0.108712
0.992539 0.972164 0.109418
0.038661 0.038653 0.167827
0.102075 0.037514 0.166272
0.165064 0.036464 0.164766
0.227604 0.035499 0.163312
0.289681 0.034619 0.161910
0.351283 0.033822 0.160563
0.412403 0.033106 0.159271
0.473035 0.032471 0.158033
0.533174 0.031915 0.156851
0.592817 0.031437 0.155723
0.651961 0.031037 0.154650
0.710606 0.030713 0.153632
0.768750 0.030465 0.152669
0.826392 0.030291 0.151759
0.883533 0.030192 0.150903
0.940173 0.030165 0.150100
0.996313 0.030210 0.149351
0.035340 0.099290 0.162795
0.098519 0.098272 0.161414
0.161273 0.097337 0.160086
0.223580 0.096483 0.158814
0.285425 0.095710 0.157596
0.346800 0.095017 0.156434
0.407697 0.094403 0.155326
0.468110 0.093867 0.154273
0.528036 0.093408 0.153275
0.587472 0.093024 0.152331
0.646416 0.092716 0.151441
0.704865 0.092483 0.150605
0.762820 0.092322 0.149821
0.820279 0.092235 0.149091
0.877244 0.092219 0.148413
0.933715 0.092274 0.147787
0.989692 0.092400 0.147212
0.033112 0.159568 0.158364
0.096039 0.158659 0.157167
0.158543 0.157831 0.156024
0.220604 0.157082 0.154937
0.282209 0.156411 0.153904
0.343349 0.155818 0.152925
0.404016 0.155301 0.152001
0.464206 0.154860 0.151130
0.523915 0.154494 0.150313
0.583139 0.154202 0.149549
0.641877 0.153983 0.148838
0.700127 0.153837 0.148179
0.757890 0.153762 0.147571
0.815164 0.153757 0.147015
0.871950 0.153823 0.146509
0.928248 0.153957 0.146053
0.984060 0.154160 0.145647
0.031905 0.219450 0.154554
0.094570 0.218647 0.153541
0.156818 0.217921 0.152582
0.218629 0.217273 0.151678
0.279989 0.216700 0.150827
0.340889 0.216203 0.150029
0.401322 0.215781 0.149284
0.461285 0.215432 0.148592
0.520772 0.215156 0.147952
0.579782 0.214953 0.147363
0.638312 0.214820 0.146825
0.696361 0.214758 0.146337
0.753929 0.214766 0.145899
0.811015 0.214842 0.145511
0.867621 0.214986 0.145171
0.923746 0.215197 0.144879
0.979392 0.215474 0.144634
0.031667 0.278922 0.151362
0.094067 0.278220 0.150530
0.156056 0.277594 0.149752
0.217612 0.277042 0.149026
0.278723 0.276566 0.148353
0.339381 0.276162 0.147731
0.399579 0.275831 0.147161
0.459312 0.275572 0.146642
0.518576 0.275384 0.146172
0.577369 0.275267 0.145752
0.635689 0.275218 0.145381
0.693536 0.275238 0.145059
0.750908 0.275326 0.144784
0.807806 0.275480 0.144556
0.864231 0.275700 0.144375
0.920182 0.275986 0.144239
0.975661 0.276336 0.144147
0.032356 0.337975 0.148775
0.094490 0.337371 0.148121
0.156216 0.336842 0.147518
0.217516 0.336386 0.146966
0.278378 0.336002 0.146465
0.338791 0.335690 0.146014
0.398751 0.335448 0.145612
0.458253 0.335276 0.145258
0.517293 0.335174 0.144953
0.575869 0.335140 0.144696
0.633979 0.335173 0.144485
0.691622 0.335273 0.144320
0.748798 0.335438 0.144200
0.805507 0.335669 0.144125
0.861750 0.335963 0.144094
0.917527 0.336320 0.144106
0.972840 0.336740 0.144160
0.033934 0.396606 0.146778
0.095799 0.396099 0.146295
0.157263 0.395664 0.145862
0.218305 0.395301 0.145477
0.278915 0.395008 0.145142
0.339084 0.394784 0.144854
0.398806 0.394630 0.144613
0.458076 0.394543 0.144419
0.516891 0.394524 0.144271
0.575249 0.394571 0.144168
0.633148 0.394684 0.144109
0.690588 0.394862 0.144093
0.747569 0.395103 0.144121
0.804089 0.395407 0.144190
0.860151 0.395773 0.144300
0.915755 0.396200 0.144450
0.970903 0.396687 0.144640
0.036361 0.454816 0.145350
0.097958 0.454403 0.145032
0.159158 0.454061 0.144761
0.219943 0.453788 0.144537
0.280302 0.453584 0.144360
0.340225 0.453447 0.144228
0.399709 0.453378 0.144141
0.458747 0.453375 0.144098
0.517337 0.453437 0.144098
0.575478 0.453563 0.144141
0.633167 0.453754 0.144225
0.690404 0.454007 0.144350
0.747189 0.454322 0.144515
0.803522 0.454697 0.144719
0.859405 0.455133 0.144961
0.914837 0.455628 0.145240
0.969821 0.456180 0.145555
0.039601 0.512607 0.144468
0.100929 0.512287 0.144307
0.161866 0.512035 0.144191
0.222393 0.511851 0.144121
0.282500 0.511733 0.144093
0.342179 0.511682 0.144109
0.401424 0.511696 0.144167
0.460231 0.511774 0.144266
0.518597 0.511915 0.144406
0.576521 0.512120 0.144585
0.634001 0.512386 0.144803
0.691036 0.512712 0.145058
0.747627 0.513099 0.145350
0.803775 0.513544 0.145678
0.859479 0.514047 0.146041
0.914742 0.514607 0.146437
0.969565 0.515223 0.146866
0.043614 0.569984 0.144106
0.104675 0.569754 0.144094
0.165348 0.569591 0.144125
0.225618 0.569494 0.144198
0.285474 0.569461 0.144312
0.344909 0.569493 0.144466
0.403916 0.569589 0.144660
0.462492 0.569747 0.144891
0.520636 0.569966 0.145160
0.578344 0.570246 0.145465
0.635616 0.570585 0.145806
0.692451 0.570984 0.146181
0.748850 0.571440 0.146589
0.804814 0.571953 0.147030
0.860343 0.572522 0.147501
0.915439 0.573145 0.148003
0.970104 0.573822 0.148532
0.048361 0.626952 0.144235
0.109154 0.626811 0.144364
0.169565 0.626736 0.144532
0.229579 0.626724 0.144740
0.289185 0.626775 0.144985
0.348375 0.626889 0.145267
0.407146 0.627064 0.145585
0.465494 0.627300 0.145939
0.523415 0.627595 0.146326
0.580910 0.627949 0.146746
0.637976 0.628361 0.147198
0.694613 0.628829 0.147680
0.750823 0.629353 0.148192
0.806606 0.629932 0.148732
0.861963 0.630564 0.149299
0.916895 0.631249 0.149891
0.971405 0.631985 0.150508
0.053799 0.683520 0.144825
0.114326 0.683467 0.145083
0.174476 0.683477 0.145379
0.234234 0.683550 0.145710
0.293591 0.683683 0.146076
0.352539 0.683877 0.146475
0.411075 0.684131 0.146907
0.469195 0.684443 0.147370
0.526897 0.684813 0.147863
0.584180 0.685239 0.148386
0.641042 0.685722 0.148935
0.697485 0.686258 0.149512
0.753508 0.686848 0.150113
0.809113 0.687491 0.150738
0.864301 0.688185 0.151385
0.919075 0.688929 0.152053
0.973436 0.689722 0.152740
0.059886 0.739698 0.145839
0.120147 0.739731 0.146217
0.180036 0.739826 0.146629
0.239540 0.739981 0.147072
0.298649 0.740196 0.147546
0.357357 0.740469 0.148050
0.415660 0.740800 0.148583
0.473554 0.741187 0.149142
0.531038 0.741630 0.149728
0.588111 0.742127 0.150338
0.644773 0.742678 0.150971
0.701024 0.743282 0.151626
0.756864 0.743936 0.152301
0.812296 0.744641 0.152994
0.867320 0.745395 0.153704
0.921940 0.746196 0.154429
0.976157 0.747044 0.155168
0.066573 0.795496 0.147241
0.126569 0.795615 0.147726
0.186199 0.795793 0.148241
0.245450 0.796030 0.148783
0.304313 0.796324 0.149353
0.362781 0.796675 0.149947
0.420853 0.797082 0.150566
0.478524 0.797543 0.151207
0.535793 0.798058 0.151870
0.592659 0.798625 0.152551
0.649124 0.799244 0.153251
0.705186 0.799913 0.153967
0.760848 0.800630 0.154697
0.816111 0.801396 0.155439
0.870977 0.802208 0.156192
0.925449 0.803065 0.156952
0.979529 0.803965 0.157719
0.073809 0.850928 0.148988
0.133542 0.851131 0.149566
0.192914 0.851392 0.150170
0.251912 0.851710 0.150797
0.310530 0.852084 0.151446
0.368761 0.852512 0.152116
0.426603 0.852993 0.152804
0.484053 0.853528 0.153510
0.541110 0.854113 0.154231
0.597773 0.854750 0.154966
0.654043 0.855435 0.155712
0.709922 0.856168 0.156468
0.765410 0.856947 0.157231
0.820509 0.857772 0.157999
0.875223 0.858641 0.158769
0.929555 0.859552 0.159539
0.983507 0.860503 0.160305
0.081539 0.906008 0.151031
0.141009 0.906296 0.151687
0.200123 0.906639 0.152364
0.258870 0.907038 0.153059
0.317244 0.907490 0.153771
0.375239 0.907994 0.154497
0.432853 0.908551 0.155236
0.490084 0.909158 0.155986
0.546931 0.909814 0.156745
0.603394 0.910518 0.157510
0.659475 0.911269 0.158279
0.715173 0.912066 0.159049
0.770493 0.912907 0.159818
0.825435 0.913790 0.160582
0.880005 0.914714 0.161338
0.934205 0.915678 0.162082
0.988040 0.916680 0.162809
0.089699 0.960755 0.153316
0.148905 0.961127 0.154034
0.207762 0.961553 0.154765
0.266258 0.962032 0.155508
0.324389 0.962562 0.156262
0.382149 0.963144 0.157023
0.439537 0.963775 0.157790
0.496551 0.964455 0.158560
0.553190 0.965181 0.159330
0.609456 0.965954 0.160097
0.665350 0.966771 0.160859
0.720873 0.967632 0.161610
0.776030 0.968534 0.162349
0.830822 0.969476 0.163069
0.885256 0.970456 0.163765
0.939335 0.971473 0.164432
0.993067 0.972524 0.165061
0.038272 0.038256 0.231521
0.101664 0.037147 0.229815
0.164631 0.036127 0.228160
0.227149 0.035191 0.226558
0.289203 0.034339 0.225010
0.350782 0.033570 0.223517
0.411880 0.032882 0.222080
0.472490 0.032273 0.220698
0.532608 0.031744 0.219372
0.592230 0.031293 0.218102
0.651355 0.030918 0.216888
0.709980 0.030620 0.215729
0.768105 0.030398 0.214624
0.825729 0.030249 0.213575
0.882852 0.030174 0.212580
