working/Infinite_Arch_Leica_Looks_v1.2/Kin_Comparisons/IA_Kin_Agfa.CUBE
#Created by: Infinite Arch
#Unique Leica Look ID: 1007
#Based Filmstyle Mode: Standard
TITLE "IA Kin Agfa"
#LUT size
LUT_3D_SIZE 5
#data domain
DOMAIN_MIN 0.0 0.0 0.0
DOMAIN_MAX 1.0 1.0 1.0
#LUT data points
0.004001 0.004000 0.003999
0.250623 0.011682 0.003975
0.525242 0.019203 0.003898
0.789897 0.026863 0.003722
0.994530 0.034460 0.003470
0.022643 0.231071 0.038632
0.233876 0.235900 0.012638
0.520453 0.243523 0.003083
0.787703 0.251029 0.002368
0.996371 0.258458 0.001629
0.044712 0.510789 0.075921
0.227160 0.510905 0.024823
0.512705 0.515186 0.018865
0.788318 0.519948 0.000000
0.998313 0.518987 0.000000
0.068533 0.782986 0.114242
0.229660 0.782915 0.045329
0.498025 0.783291 0.025420
0.781476 0.785144 0.027833
0.997648 0.791173 0.012524
0.089005 0.995433 0.157692
0.228717 0.995300 0.068594
0.489468 0.994948 0.049740
0.760647 0.994573 0.035433
0.988776 0.994295 0.041158
0.013579 0.020256 0.234405
0.246873 0.026835 0.224934
0.522066 0.028361 0.219493
0.787069 0.021983 0.205733
0.994523 0.014230 0.188555
0.005764 0.252796 0.238059
0.241855 0.241479 0.240726
0.520635 0.240483 0.233542
0.786892 0.235061 0.219147
0.995194 0.241254 0.211807
0.029611 0.517943 0.262720
0.266657 0.513905 0.271632
0.516583 0.516101 0.238348
0.790149 0.512821 0.221199
0.999095 0.500287 0.206260
0.059962 0.783073 0.319579
0.291736 0.784511 0.310202
0.515051 0.784467 0.251395
0.782258 0.783595 0.246922
0.997494 0.779818 0.236317
0.084087 0.995350 0.377726
0.309661 0.995058 0.351843
0.497789 0.994171 0.260935
0.774002 0.994455 0.266256
0.990908 0.994213 0.269116
0.023747 0.037708 0.512797
0.292666 0.047550 0.518735
0.523645 0.050288 0.477211
0.788810 0.056744 0.474096
0.994900 0.053485 0.464282
0.006615 0.270676 0.516996
0.256446 0.256454 0.514263
0.523801 0.273176 0.508842
0.795492 0.277416 0.505160
0.996901 0.254948 0.478784
0.009454 0.526230 0.493344
0.246834 0.520510 0.511031
0.520681 0.517777 0.511969
0.790965 0.512929 0.501583
0.999236 0.512401 0.493787
0.028340 0.787714 0.504587
0.278548 0.778890 0.520549
0.547406 0.783440 0.545572
0.786173 0.784806 0.513320
0.997290 0.769972 0.477019
0.055355 0.995308 0.561198
0.308243 0.992714 0.584114
0.568260 0.994580 0.588156
0.784634 0.994332 0.540632
0.991724 0.994135 0.519782
0.034121 0.055682 0.782873
0.302161 0.061761 0.785117
0.602478 0.076547 0.787337
0.790841 0.074725 0.727266
0.995329 0.083655 0.720066
0.011732 0.286557 0.782523
0.262496 0.264318 0.782873
0.560052 0.297198 0.781933
0.792217 0.299023 0.757500
0.997878 0.308667 0.746797
0.009070 0.565791 0.782962
0.247501 0.531977 0.779471
0.534849 0.531310 0.778730
0.790175 0.549893 0.772365
0.999177 0.551167 0.771551
0.013423 0.789803 0.743712
0.246567 0.779573 0.757287
0.523974 0.786522 0.779128
0.786245 0.783880 0.779149
0.996794 0.775012 0.767935
0.025087 0.995264 0.749017
0.270201 0.991368 0.767962
0.547787 0.988143 0.790350
0.807682 0.994212 0.811226
0.993579 0.994064 0.783030
0.044541 0.073883 0.993881
0.305558 0.073607 0.993715
0.619923 0.094013 0.993212
0.874315 0.103448 0.992572
0.995670 0.099201 0.932481
0.019203 0.305954 0.992990
0.273403 0.285204 0.992543
0.587478 0.308004 0.991302
0.845096 0.332932 0.990083
0.998235 0.319614 0.954191
0.012099 0.577233 0.990121
0.248835 0.538833 0.989765
0.552769 0.550551 0.988922
0.822845 0.573012 0.988794
0.998924 0.576820 0.974617
0.011232 0.836999 0.988882
0.248248 0.804536 0.985646
0.516045 0.790514 0.989772
0.795892 0.793956 0.990940
0.995980 0.809533 0.988258
0.013092 0.995187 0.953430
0.248180 0.989659 0.967152
0.518387 0.993613 0.985798
0.784772 0.994176 0.992087
0.994050 0.994017 0.993950
