working/Infinite_Arch_Leica_Looks_v1.2/Kin_Comparisons/IA_Kin.CUBE
#Created by: Infinite Arch
#Unique Leica Look ID: 1007
#Based Filmstyle Mode: Standard
TITLE "IA Kin"
#LUT size
LUT_3D_SIZE 9
#data domain
DOMAIN_MIN 0.0 0.0 0.0
DOMAIN_MAX 1.0 1.0 1.0
#LUT data points
0.004001 0.004000 0.003999
0.124456 0.016869 0.013287
0.251922 0.029113 0.022054
0.388415 0.041631 0.030940
0.528116 0.054418 0.039928
0.665209 0.067468 0.049000
0.793869 0.080777 0.058146
0.908263 0.094333 0.067366
0.994998 0.106864 0.075832
0.015921 0.103925 0.023820
0.109172 0.108961 0.011700
0.243548 0.119562 0.011775
0.382572 0.129947 0.018729
0.525773 0.145207 0.029238
0.665916 0.161838 0.040272
0.795956 0.177883 0.050646
0.911304 0.194393 0.061152
0.995882 0.207168 0.070260
0.029790 0.231506 0.046813
0.107120 0.231093 0.021967
0.237088 0.236413 0.019745
0.377361 0.245877 0.018141
0.517850 0.249599 0.018851
0.655781 0.258513 0.024216
0.787366 0.271983 0.032200
0.905352 0.288499 0.042371
0.996965 0.303190 0.052670
0.044424 0.369472 0.070243
0.112600 0.369155 0.037256
0.230379 0.369820 0.024961
0.375776 0.374057 0.027072
0.518214 0.383198 0.026254
0.656074 0.385696 0.022966
0.784916 0.389615 0.024628
0.900610 0.398114 0.029568
0.997752 0.410179 0.036625
0.060085 0.511785 0.093774
0.119032 0.511783 0.051022
0.233596 0.512218 0.039603
0.368213 0.512626 0.029041
0.519238 0.515883 0.033618
0.658812 0.523966 0.034440
0.787438 0.527512 0.029349
0.902289 0.528867 0.028368
0.997455 0.532827 0.030829
0.076472 0.652220 0.117636
0.125833 0.652489 0.064259
0.238931 0.652905 0.054937
0.367518 0.652878 0.041161
0.511604 0.653066 0.034489
0.659810 0.655327 0.040991
0.790334 0.661887 0.043762
0.903900 0.666328 0.038725
0.998648 0.667100 0.036065
0.092582 0.784315 0.142764
0.132280 0.784761 0.078411
0.244392 0.785079 0.070808
0.369825 0.785203 0.057842
0.505684 0.784520 0.045058
0.651955 0.784586 0.042936
0.789905 0.785851 0.050716
0.905635 0.790868 0.055516
0.997557 0.793996 0.050474
0.107717 0.901714 0.169783
0.137430 0.902254 0.093826
0.248844 0.902464 0.087463
0.372255 0.902575 0.076394
0.504672 0.902109 0.062498
0.642306 0.901171 0.052471
0.782385 0.901117 0.053438
0.904448 0.901750 0.061811
0.995999 0.901124 0.067217
0.121709 0.995379 0.197242
0.141176 0.995391 0.109693
0.251312 0.995255 0.103994
0.372632 0.995093 0.094604
0.501847 0.994914 0.081206
0.635355 0.994730 0.067991
0.769081 0.994551 0.060803
0.895424 0.994391 0.063778
0.994841 0.993280 0.072054
0.011902 0.014224 0.106789
0.119728 0.014702 0.109004
0.247698 0.024601 0.112092
0.384708 0.033645 0.117788
0.524386 0.041868 0.123118
0.661392 0.050347 0.128674
0.790228 0.059113 0.134388
0.904914 0.067982 0.140049
0.994841 0.076702 0.144843
0.007496 0.126436 0.120162
0.115111 0.115055 0.114943
0.245706 0.125441 0.122987
0.385431 0.132604 0.128614
0.525092 0.144084 0.136244
0.659817 0.157683 0.144483
0.788433 0.172837 0.155441
0.905056 0.191236 0.170169
0.996016 0.208332 0.183762
0.020715 0.241711 0.128744
0.127662 0.236002 0.131979
0.236479 0.237864 0.115368
0.379248 0.245325 0.119944
0.520949 0.252376 0.130315
0.658770 0.263574 0.140137
0.789587 0.278471 0.149307
0.907572 0.299322 0.163689
0.997308 0.318539 0.178534
0.038045 0.372603 0.157439
0.142660 0.372872 0.154283
0.235240 0.373064 0.125125
0.372082 0.373523 0.120811
0.518370 0.377947 0.126952
0.656581 0.380681 0.135998
0.784161 0.391786 0.153889
0.900676 0.403519 0.156087
0.998445 0.419789 0.163404
0.055291 0.512165 0.186482
0.157685 0.513702 0.176846
0.230951 0.514148 0.130734
0.367248 0.513852 0.132894
0.516711 0.513334 0.129375
0.657247 0.515040 0.137148
0.787461 0.516967 0.142735
0.901088 0.520858 0.149347
0.995873 0.528514 0.152603
0.072641 0.651411 0.214891
0.174508 0.653264 0.201157
0.239841 0.653542 0.149797
0.370228 0.655099 0.142879
0.499035 0.652906 0.137617
0.656394 0.650163 0.139814
0.788906 0.653419 0.151753
0.903649 0.651842 0.151290
0.997758 0.653343 0.153820
0.089359 0.783022 0.243826
0.191387 0.784718 0.227602
0.248369 0.785057 0.168757
0.371738 0.785915 0.157927
0.504029 0.786537 0.154632
0.633746 0.783275 0.145025
0.786689 0.782715 0.152639
0.905809 0.787250 0.169422
0.997593 0.779752 0.165652
0.104904 0.900296 0.274068
0.207328 0.901680 0.256102
0.255232 0.902125 0.188122
0.374797 0.902442 0.177506
0.509575 0.903388 0.170783
0.632813 0.902050 0.163782
0.768210 0.899203 0.156450
0.901975 0.900241 0.170712
0.995837 0.900716 0.187479
0.119430 0.995337 0.304333
0.221722 0.995212 0.284371
0.259399 0.995197 0.206155
0.377380 0.995037 0.197316
0.507447 0.994854 0.188739
0.637866 0.994673 0.180403
0.757051 0.994518 0.171024
0.887000 0.994359 0.169531
0.994331 0.994237 0.187841
0.020622 0.025554 0.233574
0.139610 0.025009 0.242366
0.247235 0.025276 0.223982
0.383684 0.035654 0.225747
0.523576 0.045540 0.231861
0.660742 0.055256 0.238361
0.789377 0.064336 0.244410
0.904001 0.072936 0.250226
0.994945 0.081240 0.254568
0.014715 0.131010 0.240200
0.123609 0.122763 0.237068
0.245903 0.128805 0.239235
0.388225 0.138847 0.242100
0.525358 0.143108 0.243841
0.659829 0.151764 0.248053
0.786746 0.161603 0.253749
0.901793 0.172997 0.261413
0.995853 0.184254 0.269107
0.010878 0.252135 0.238795
0.120252 0.244267 0.242166
0.241855 0.241479 0.240726
0.380165 0.250266 0.246487
0.521019 0.261749 0.255188
0.661929 0.269671 0.261011
0.792853 0.277957 0.267081
0.908979 0.290603 0.275788
0.997223 0.301236 0.281246
0.021379 0.382737 0.243263
0.136913 0.372223 0.245685
0.258366 0.374114 0.258895
0.375479 0.375506 0.239601
0.519583 0.376305 0.231966
0.658561 0.384175 0.240199
0.792520 0.395733 0.256191
0.910920 0.406570 0.266494
0.998520 0.416159 0.275129
0.039752 0.517353 0.269541
0.156325 0.511332 0.276591
0.275826 0.513785 0.280717
0.379671 0.514498 0.255785
0.514164 0.515136 0.241545
0.657762 0.519339 0.239538
0.788121 0.524289 0.248077
0.904334 0.533269 0.262398
0.999240 0.536951 0.270238
0.059399 0.653185 0.301724
0.174975 0.651005 0.308299
0.292901 0.653509 0.303591
0.384139 0.656853 0.268389
0.515353 0.652410 0.256660
0.650904 0.653081 0.247024
0.787443 0.655963 0.251550
0.903259 0.658696 0.258973
0.998786 0.660024 0.266066
0.078013 0.782837 0.335175
0.192718 0.782741 0.338974
0.309192 0.785753 0.329899
0.377059 0.787503 0.272227
0.513249 0.786865 0.265745
0.650090 0.782414 0.264033
0.780832 0.782676 0.255859
0.901694 0.779565 0.261306
0.997382 0.784470 0.269333
0.094972 0.899204 0.369416
0.209010 0.899936 0.370000
0.322871 0.901827 0.356833
0.379920 0.903326 0.289926
0.500692 0.903838 0.267919
0.648169 0.901890 0.278925
0.773704 0.898410 0.271686
0.899295 0.898206 0.268060
0.995813 0.893325 0.278187
0.110813 0.995305 0.403576
0.224146 0.995155 0.400583
0.334916 0.995007 0.382937
0.382549 0.994975 0.308054
0.493819 0.994828 0.281548
0.636230 0.994627 0.283649
0.765218 0.994457 0.288821
0.885470 0.994319 0.278660
0.994625 0.993238 0.282838
0.029487 0.037119 0.370338
0.146539 0.035158 0.375678
0.285091 0.036279 0.381264
0.384058 0.036065 0.347536
0.524048 0.046921 0.348674
0.660944 0.057017 0.353645
0.789824 0.067267 0.360354
0.904458 0.077387 0.367119
0.995068 0.086573 0.371143
0.022978 0.142278 0.371777
0.131625 0.130075 0.372206
0.262688 0.139472 0.376933
0.383910 0.138969 0.365366
0.529379 0.150811 0.365619
0.665622 0.159302 0.369151
0.791676 0.169056 0.375125
0.904155 0.179666 0.380937
0.996036 0.189758 0.385717
0.017460 0.268098 0.380670
0.126773 0.250601 0.374558
0.251247 0.249981 0.374011
0.380137 0.256368 0.373611
0.525110 0.268591 0.380920
0.663747 0.274863 0.383693
0.791588 0.278513 0.383345
0.905779 0.285084 0.385241
0.997255 0.293049 0.387967
0.014812 0.386737 0.365321
0.123317 0.377451 0.368365
0.247457 0.377626 0.375545
0.379063 0.377681 0.374917
0.520383 0.385655 0.379670
0.658389 0.396546 0.386706
0.788731 0.408286 0.395435
0.907642 0.417029 0.401796
0.998688 0.421467 0.404759
0.023998 0.523039 0.366761
0.138450 0.515307 0.371353
0.264761 0.509041 0.379268
0.398258 0.515359 0.393507
0.518211 0.516446 0.373709
0.658594 0.518085 0.366380
0.788483 0.520444 0.368564
0.904640 0.529173 0.378088
0.999254 0.536555 0.390325
0.040950 0.656927 0.387986
0.159515 0.650941 0.397042
0.289400 0.646959 0.404036
0.416742 0.652955 0.415819
0.523595 0.652954 0.392214
0.654346 0.653774 0.374682
0.787725 0.656204 0.367408
0.903330 0.654161 0.363028
0.998713 0.662891 0.376596
0.059973 0.784533 0.419697
0.179917 0.781287 0.431689
0.308673 0.778940 0.433759
0.433347 0.783047 0.440957
0.532328 0.785328 0.413219
0.654326 0.782680 0.393001
0.780818 0.782948 0.380875
0.901527 0.787143 0.377898
0.997196 0.786372 0.380022
0.078373 0.899474 0.455755
0.198500 0.898157 0.467496
0.324978 0.897075 0.468459
0.448267 0.900010 0.467107
0.536369 0.903892 0.430421
0.657042 0.901594 0.413298
0.779520 0.898250 0.400332
0.893525 0.898254 0.389726
0.995545 0.901990 0.391437
0.095840 0.995285 0.492899
0.215906 0.995110 0.502631
0.340401 0.994879 0.502191
0.460913 0.994773 0.493105
0.529060 0.994703 0.437121
0.648351 0.994549 0.420098
0.777756 0.994389 0.416139
0.892677 0.994264 0.410218
0.988641 0.994174 0.398984
0.038496 0.048910 0.511094
0.153387 0.044766 0.515004
0.295329 0.046815 0.518026
0.437575 0.047411 0.522025
0.524325 0.047071 0.475138
0.662084 0.058287 0.475912
0.790659 0.068819 0.479835
0.905129 0.079216 0.485752
0.995180 0.089107 0.488821
0.031528 0.156127 0.511015
0.140966 0.142607 0.511969
0.279638 0.147688 0.514743
0.418452 0.154120 0.522665
0.525049 0.147985 0.492812
0.665603 0.164289 0.493701
0.795102 0.174094 0.496601
0.908408 0.184568 0.502350
0.996225 0.194849 0.505298
0.026104 0.277481 0.515053
0.135273 0.259863 0.512419
0.263695 0.261395 0.512230
0.399487 0.266921 0.515242
0.524863 0.270853 0.508525
0.669618 0.291343 0.514753
0.800780 0.292876 0.513151
0.912297 0.296609 0.513910
0.997479 0.299042 0.510775
0.021062 0.412832 0.519834
0.131983 0.391502 0.511998
0.251926 0.384602 0.513693
0.389047 0.387114 0.512570
0.519914 0.392764 0.510726
0.660873 0.404238 0.517956
0.792581 0.412414 0.522756
0.908514 0.419640 0.525975
0.998805 0.423475 0.524797
0.019505 0.524741 0.494712
0.129642 0.516177 0.499030
0.251625 0.515919 0.508158
0.385351 0.517070 0.511482
0.520681 0.517777 0.511969
0.659018 0.525174 0.516648
0.788633 0.533751 0.521408
0.903851 0.546031 0.531071
0.999230 0.556353 0.539248
0.027685 0.659663 0.494403
0.140939 0.653849 0.501516
0.267616 0.646643 0.503157
0.402966 0.649341 0.520314
0.540087 0.654132 0.531854
0.657274 0.654508 0.512883
0.788044 0.656182 0.504375
0.903312 0.659138 0.510020
0.998528 0.667561 0.519797
0.042084 0.786358 0.511638
0.159566 0.781902 0.522062
0.292460 0.775893 0.523457
0.427087 0.778420 0.545223
0.557178 0.782769 0.555477
0.662035 0.782894 0.533714
0.783560 0.783252 0.515110
0.901506 0.785410 0.506061
0.997118 0.779924 0.497608
0.058877 0.900176 0.540992
0.179231 0.897341 0.554441
0.313099 0.893270 0.558442
0.446479 0.894678 0.572330
0.572544 0.898582 0.581171
0.670821 0.899435 0.557100
0.783317 0.898262 0.534728
0.895787 0.898321 0.520675
0.995390 0.901669 0.514307
0.076465 0.995274 0.576076
0.198484 0.993946 0.590913
0.331171 0.991452 0.595973
0.463363 0.992229 0.601237
0.587227 0.994546 0.607119
0.675174 0.994448 0.574196
0.786129 0.994325 0.556368
0.895056 0.994217 0.539239
0.989943 0.994135 0.527483
0.047645 0.060921 0.649852
0.160753 0.054392 0.652957
0.304276 0.057584 0.654124
0.450454 0.058470 0.656950
0.590669 0.058616 0.659813
0.662163 0.058296 0.602261
0.791698 0.069816 0.602739
0.906255 0.080795 0.605848
0.995290 0.090655 0.605706
0.040327 0.170413 0.649253
0.153967 0.159748 0.651187
0.291201 0.159877 0.651443
0.433803 0.165093 0.655763
0.575194 0.166218 0.663705
0.663599 0.156468 0.619361
0.793916 0.176409 0.619623
0.909639 0.188222 0.622546
0.996377 0.196517 0.620303
0.034866 0.290491 0.650661
0.149344 0.274773 0.649687
0.270861 0.269093 0.648980
0.414064 0.276875 0.648523
0.547494 0.279805 0.654152
0.664054 0.281873 0.637143
0.800726 0.307235 0.641303
0.917467 0.307211 0.637992
0.997716 0.306879 0.627961
0.029563 0.422047 0.653015
0.143170 0.405278 0.650710
0.262412 0.395438 0.649441
0.402506 0.398400 0.649123
0.540600 0.404310 0.650298
0.662100 0.408878 0.644060
0.796091 0.425100 0.650518
0.914521 0.434422 0.654863
0.998957 0.432073 0.646571
0.025646 0.558992 0.654404
0.139518 0.537536 0.646833
0.257415 0.524096 0.643319
0.390822 0.525755 0.649102
0.530992 0.527798 0.648074
0.658785 0.532898 0.646327
0.789151 0.542462 0.652634
0.905781 0.550037 0.657337
0.999202 0.555147 0.659295
0.024424 0.660402 0.622677
0.135573 0.652960 0.628160
0.254203 0.647596 0.632386
0.389852 0.653495 0.645841
0.526947 0.655307 0.647708
0.658702 0.655230 0.648286
0.787594 0.661586 0.653112
0.903099 0.668808 0.657546
0.998243 0.678660 0.665056
0.031097 0.787504 0.622484
0.143348 0.782781 0.630457
0.269307 0.776732 0.632040
0.401286 0.773166 0.642092
0.542060 0.779951 0.658595
0.676041 0.783507 0.669585
0.785500 0.783567 0.652226
0.901189 0.785277 0.642223
0.996795 0.787125 0.646822
0.042607 0.900770 0.636646
0.158741 0.897371 0.647645
0.290179 0.891883 0.648326
0.426601 0.888695 0.659893
0.565608 0.897011 0.685983
0.691561 0.897912 0.692861
0.790186 0.898349 0.673401
0.897623 0.898395 0.654879
0.995253 0.899523 0.644587
0.057387 0.995260 0.662201
0.176892 0.993171 0.675846
0.311299 0.989318 0.679794
0.450473 0.987393 0.687932
0.584974 0.993033 0.712576
0.706751 0.994353 0.716802
0.799079 0.994260 0.695497
0.898540 0.994171 0.673280
0.991684 0.994097 0.658343
0.056933 0.073145 0.780624
0.168334 0.063944 0.782948
0.312538 0.068382 0.783562
0.461420 0.069435 0.784535
0.604824 0.070227 0.786920
0.737105 0.070052 0.788941
0.791686 0.069739 0.724393
0.907066 0.081505 0.724648
0.995402 0.091985 0.720446
0.049422 0.184743 0.779852
0.166770 0.173075 0.782407
0.300711 0.171977 0.781098
0.447787 0.174998 0.782203
0.589707 0.181835 0.789299
0.724250 0.174929 0.792824
0.793728 0.168013 0.740593
0.908705 0.188070 0.739917
0.996543 0.199203 0.734632
0.043686 0.304972 0.779976
0.161385 0.291623 0.780093
0.281544 0.277495 0.779722
0.428830 0.284367 0.780184
0.562595 0.295717 0.780622
0.698461 0.291130 0.788082
0.794515 0.293674 0.756748
0.914637 0.313436 0.757872
0.997929 0.313434 0.743269
0.038701 0.434473 0.780347
0.156165 0.419686 0.779302
0.269447 0.403669 0.778655
0.415340 0.410598 0.777770
0.555865 0.415358 0.777759
0.684191 0.418742 0.780517
0.795382 0.423385 0.768873
0.914870 0.446920 0.773989
0.999110 0.447214 0.762622
0.033735 0.568379 0.780565
0.149681 0.551999 0.778634
0.270604 0.537783 0.776351
0.402009 0.535634 0.777308
0.543186 0.538267 0.777040
0.677595 0.544364 0.777612
0.790419 0.547931 0.771800
0.910105 0.563042 0.780337
0.999111 0.566076 0.777338
0.030155 0.700250 0.780567
0.144982 0.680513 0.774625
0.261259 0.663511 0.769139
0.390619 0.661169 0.774296
0.532339 0.663342 0.777361
0.668619 0.665227 0.777180
0.787716 0.669592 0.776128
0.902843 0.677800 0.782476
0.998039 0.683282 0.785639
0.028447 0.787777 0.745519
0.139988 0.781821 0.752103
0.258456 0.775519 0.755562
0.390861 0.778941 0.768116
0.526972 0.779929 0.774118
0.663325 0.784458 0.778500
0.786245 0.783880 0.779149
0.899833 0.788650 0.783157
0.996469 0.795400 0.787797
0.033348 0.901101 0.746101
0.145105 0.897258 0.754289
0.269972 0.892285 0.757441
0.402111 0.888572 0.763807
0.537992 0.888296 0.775218
0.676758 0.896158 0.790204
0.801813 0.898526 0.799596
0.899035 0.898477 0.784071
0.994778 0.899944 0.774024
0.042869 0.995237 0.757456
0.158006 0.992752 0.768135
0.287752 0.988770 0.770859
0.425034 0.985078 0.774260
0.560420 0.984366 0.790921
0.699231 0.993491 0.814276
0.816508 0.993834 0.820170
0.904298 0.994128 0.803223
0.992947 0.994064 0.785813
0.066357 0.085574 0.897422
0.176002 0.073656 0.899148
0.320223 0.078639 0.899600
0.471264 0.080645 0.899301
0.617007 0.081485 0.900483
0.751286 0.082029 0.902242
0.869510 0.081651 0.903654
0.906983 0.081389 0.837046
0.995506 0.092422 0.829680
0.058649 0.199140 0.896611
0.178489 0.186278 0.901171
0.309839 0.182861 0.897822
0.459334 0.186452 0.896967
0.603561 0.190842 0.899875
0.738648 0.194902 0.905099
0.859068 0.185568 0.906619
0.909494 0.181541 0.851922
0.996658 0.198014 0.842765
0.052733 0.320242 0.896104
0.172069 0.308099 0.897613
0.290283 0.288118 0.896000
0.438196 0.291323 0.896037
0.583122 0.304462 0.895624
0.710348 0.309947 0.897379
0.841394 0.306044 0.904273
0.910391 0.304799 0.864800
0.998100 0.317355 0.854307
0.047892 0.448497 0.895333
0.167846 0.434543 0.894837
0.281936 0.414558 0.894581
0.421899 0.418688 0.892887
0.568045 0.424219 0.888504
0.696447 0.432127 0.892578
0.822033 0.429593 0.899320
0.911364 0.434831 0.878798
0.999188 0.455543 0.870258
0.042828 0.580105 0.894427
0.161887 0.565872 0.893807
0.276990 0.547285 0.893383
0.412389 0.549590 0.892845
0.557429 0.550453 0.892412
0.692170 0.555575 0.892665
0.811905 0.558655 0.893619
0.909282 0.563632 0.885564
0.999006 0.574066 0.882244
0.037683 0.709461 0.893904
0.153743 0.693361 0.892191
0.272343 0.675412 0.887952
0.407404 0.672386 0.891437
0.542766 0.671973 0.892600
0.679232 0.674863 0.892868
0.803750 0.680445 0.893544
0.903389 0.682954 0.888845
0.997784 0.692222 0.892569
0.033409 0.829970 0.894230
0.148087 0.812768 0.890040
0.268531 0.795514 0.884258
0.390738 0.785406 0.883036
0.530481 0.792184 0.893170
0.668482 0.791548 0.894332
0.795463 0.793387 0.894770
0.900899 0.796995 0.894126
0.996179 0.804267 0.900168
0.031122 0.901145 0.858865
0.142760 0.896510 0.865784
0.262793 0.890458 0.869060
0.390173 0.888732 0.875532
0.529264 0.895371 0.889891
0.661171 0.894638 0.891695
0.789749 0.898853 0.896047
0.899435 0.898567 0.896830
0.992998 0.901859 0.899419
0.034991 0.995201 0.859854
0.146499 0.992324 0.867632
0.270823 0.988317 0.871385
0.402883 0.985216 0.875463
0.536652 0.983837 0.884663
0.671721 0.985216 0.894146
0.803215 0.992710 0.906722
0.913583 0.994091 0.914088
0.993830 0.994037 0.900829
0.075863 0.098137 0.993822
0.183246 0.083235 0.993785
0.326978 0.088619 0.993647
0.479114 0.091709 0.993451
0.626078 0.092575 0.993210
0.760215 0.093260 0.992934
0.877365 0.093278 0.992653
0.974265 0.092643 0.992396
0.995600 0.092301 0.928718
0.068074 0.213519 0.993453
0.188504 0.197719 0.993352
0.318906 0.193430 0.993150
0.468429 0.197941 0.992795
0.615242 0.201173 0.992379
0.747169 0.204430 0.991944
0.864143 0.203265 0.991567
0.963241 0.194802 0.991320
0.996713 0.192810 0.939917
0.061956 0.335724 0.992653
0.182361 0.323082 0.992443
0.302283 0.305098 0.992272
0.449068 0.306661 0.991794
0.599451 0.314850 0.991177
0.729941 0.321881 0.990621
0.847334 0.324049 0.990178
0.951349 0.313102 0.989950
0.998126 0.310004 0.950675
0.057098 0.463341 0.991330
0.178811 0.450228 0.991052
0.296647 0.429105 0.990883
0.432408 0.426882 0.989667
0.585948 0.437426 0.988206
0.713749 0.444416 0.988368
0.830393 0.448026 0.989040
0.934148 0.432136 0.988950
0.999169 0.440759 0.963576
0.052191 0.593333 0.989807
0.173421 0.580091 0.989570
0.291008 0.559798 0.989429
0.421258 0.559538 0.989110
0.569468 0.562448 0.988245
0.705953 0.566657 0.987134
0.824897 0.570607 0.988788
0.926971 0.569294 0.988905
0.998967 0.570954 0.972820
0.046341 0.720211 0.988836
0.165611 0.706472 0.988688
0.284462 0.688942 0.987844
0.415983 0.682165 0.988669
0.553690 0.684472 0.988927
0.692006 0.685717 0.989229
0.816323 0.690743 0.989650
0.921642 0.693588 0.990066
0.997636 0.694326 0.980939
0.040356 0.838484 0.988935
0.156500 0.823986 0.987893
0.278701 0.805685 0.982992
0.411789 0.799142 0.983600
0.539233 0.796997 0.989578
0.678072 0.798879 0.990510
0.804561 0.802003 0.991095
0.914067 0.806888 0.991641
0.995996 0.808438 0.987865
0.035439 0.941940 0.989875
0.149975 0.927950 0.987278
0.274317 0.911956 0.981990
0.392020 0.901443 0.980501
0.527777 0.902246 0.986165
0.666058 0.905930 0.991815
0.795057 0.905240 0.992474
0.907671 0.907057 0.992945
0.994741 0.909998 0.992339
0.033102 0.995158 0.957242
0.144959 0.991849 0.963718
0.266614 0.986558 0.966459
0.391220 0.983526 0.970476
0.528473 0.987997 0.982095
0.663159 0.990084 0.988561
0.788640 0.991230 0.990039
0.902977 0.994078 0.993362
0.994050 0.994017 0.993950
