working/Infinite_Arch_Leica_Looks_v1.2/Kin_Comparisons/IA_Kin_Agfa.CUBE
#Created by: Infinite Arch
#Unique Leica Look ID: 1007
#Based Filmstyle Mode: Standard
TITLE "IA Kin Agfa"
#LUT size
LUT_3D_SIZE 9
#data domain
DOMAIN_MIN 0.0 0.0 0.0
DOMAIN_MAX 1.0 1.0 1.0
#LUT data points
0.004001 0.004000 0.003999
0.123914 0.007968 0.003991
0.250623 0.011682 0.003975
0.386310 0.015426 0.003946
0.525242 0.019203 0.003898
0.661683 0.023016 0.003824
0.789897 0.026863 0.003722
0.904139 0.030745 0.003598
0.994530 0.034460 0.003470
0.012631 0.103751 0.020101
0.107596 0.108561 0.008295
0.244750 0.116765 0.003878
0.382847 0.120380 0.003793
0.524177 0.124288 0.003666
0.662751 0.128557 0.003490
0.791927 0.132807 0.003272
0.906774 0.137179 0.003025
0.995197 0.140205 0.002803
0.022643 0.231071 0.038632
0.104328 0.230524 0.014983
0.233876 0.235900 0.012638
0.377962 0.242228 0.003348
0.520453 0.243523 0.003083
0.657947 0.246871 0.002751
0.787703 0.251029 0.002368
0.903950 0.255399 0.001969
0.996371 0.258458 0.001629
0.033248 0.368752 0.057341
0.106056 0.367986 0.025386
0.226815 0.369129 0.015662
0.370840 0.373440 0.016187
0.517945 0.381396 0.007884
0.658281 0.378840 0.001398
0.788350 0.380099 0.000917
0.903438 0.383238 0.000464
0.997906 0.386478 0.000094
0.044712 0.510789 0.075921
0.108451 0.510187 0.034584
0.227160 0.510905 0.024823
0.362885 0.511720 0.016991
0.512705 0.515186 0.018865
0.657907 0.524019 0.012244
0.788318 0.519948 0.000000
0.904675 0.519138 0.000000
0.998313 0.518987 0.000000
0.056786 0.651002 0.094588
0.111266 0.650608 0.043288
0.228473 0.651031 0.034725
0.360733 0.651587 0.024042
0.504395 0.651967 0.019230
0.652054 0.654600 0.022230
0.789093 0.663502 0.017472
0.904372 0.661024 0.004403
0.998563 0.655348 0.000000
0.068533 0.782986 0.114242
0.113747 0.782786 0.052769
0.229660 0.782915 0.045329
0.359635 0.783448 0.034753
0.498025 0.783291 0.025420
0.643132 0.783342 0.024033
0.781476 0.785144 0.027833
0.904202 0.793704 0.024898
0.997648 0.791173 0.012524
0.079251 0.900411 0.135548
0.115038 0.900361 0.063402
0.229758 0.900309 0.056760
0.357955 0.900606 0.047376
0.494561 0.900606 0.036917
0.633561 0.900021 0.029989
0.772549 0.899851 0.030733
0.896014 0.901098 0.034772
0.995977 0.906183 0.032577
0.089005 0.995433 0.157692
0.115321 0.995435 0.074839
0.228717 0.995300 0.068594
0.355102 0.995134 0.060288
0.489468 0.994948 0.049740
0.626269 0.994756 0.040218
0.760647 0.994573 0.035433
0.886695 0.994412 0.037368
0.988776 0.994295 0.041158
0.008571 0.011733 0.107191
0.119531 0.015476 0.109417
0.246967 0.016163 0.106391
0.383478 0.012969 0.099983
0.522558 0.009091 0.092229
0.658986 0.005713 0.084675
0.787340 0.004078 0.078774
0.901783 0.004111 0.074514
0.994429 0.004143 0.070051
0.004817 0.126690 0.119749
0.115111 0.115055 0.114943
0.245559 0.115707 0.112989
0.382268 0.113037 0.106491
0.519753 0.115637 0.103191
0.654486 0.117700 0.099368
0.783349 0.119463 0.097257
0.900007 0.123419 0.098372
0.995170 0.127190 0.099421
0.015777 0.241927 0.125606
0.123607 0.236096 0.127933
0.237653 0.238361 0.113959
0.380380 0.239853 0.107699
0.521449 0.235139 0.101300
0.657255 0.234828 0.097066
0.786672 0.236384 0.092956
0.903722 0.241189 0.093217
0.996332 0.245709 0.094774
0.029507 0.372691 0.150426
0.134841 0.372212 0.145526
0.236114 0.371823 0.118782
0.372897 0.374054 0.116798
0.519637 0.376271 0.112362
0.659944 0.368833 0.104577
0.788399 0.368106 0.104769
0.902927 0.366459 0.093789
0.997781 0.366993 0.087472
0.042736 0.512039 0.174839
0.145775 0.512252 0.162450
0.231116 0.510010 0.120691
0.371509 0.513081 0.122571
0.514147 0.514620 0.123331
0.657728 0.516569 0.119302
0.789410 0.508984 0.109935
0.904986 0.503804 0.102021
0.999031 0.500088 0.091138
0.055850 0.651063 0.198193
0.158186 0.651367 0.181006
0.236205 0.648942 0.134140
0.370880 0.651742 0.127649
0.502614 0.652254 0.125552
0.653933 0.652630 0.129006
0.788315 0.655429 0.128745
0.904302 0.646390 0.114879
0.999085 0.639154 0.104622
0.068234 0.782501 0.221737
0.170550 0.782648 0.201579
0.240178 0.780756 0.147666
0.369717 0.781280 0.137544
0.505196 0.784372 0.135634
0.634338 0.782549 0.130436
0.781631 0.782512 0.135301
0.904250 0.788558 0.139802
0.997693 0.776536 0.124573
0.079369 0.899691 0.246370
0.181887 0.899701 0.224176
0.242262 0.898460 0.161717
0.368855 0.897946 0.151636
0.507603 0.900154 0.146115
0.633479 0.900578 0.142469
0.765621 0.898237 0.137798
0.895300 0.898489 0.146263
0.995851 0.903410 0.150987
0.089522 0.995387 0.271311
0.192205 0.995268 0.247403
0.243024 0.995233 0.175579
0.368870 0.995063 0.167030
0.504613 0.994872 0.159398
0.638055 0.994686 0.153484
0.757144 0.994528 0.147710
0.882981 0.994058 0.146285
0.989822 0.994252 0.156831
0.013579 0.020256 0.234405
0.138368 0.025358 0.242641
0.246873 0.026835 0.224934
0.382636 0.029862 0.223006
0.522066 0.028361 0.219493
0.658809 0.025581 0.213432
0.787069 0.021983 0.205733
0.901444 0.017974 0.197390
0.994523 0.014230 0.188555
0.005128 0.128029 0.241265
0.120397 0.120575 0.238044
0.245371 0.129850 0.239376
0.385240 0.131810 0.238190
0.522671 0.122259 0.227188
0.656665 0.116805 0.216318
0.783107 0.112945 0.207165
0.897871 0.110693 0.200269
0.993697 0.108655 0.194187
0.005764 0.252796 0.238059
0.118013 0.246424 0.243513
0.241855 0.241479 0.240726
0.381450 0.240302 0.237028
0.520635 0.240483 0.233542
0.658877 0.236976 0.225951
0.786892 0.235061 0.219147
0.901479 0.238219 0.215905
0.995194 0.241254 0.211807
0.014586 0.383408 0.239832
0.130656 0.374009 0.244384
0.253693 0.374493 0.254201
0.377002 0.376420 0.238752
0.521823 0.372380 0.223412
0.659147 0.367791 0.215189
0.789845 0.365424 0.213176
0.905354 0.365124 0.208860
0.996868 0.368019 0.206855
0.029611 0.517943 0.262720
0.145938 0.512404 0.270941
0.266657 0.513905 0.271632
0.378517 0.514108 0.248114
0.516583 0.516101 0.238348
0.659540 0.517806 0.228878
0.790149 0.512821 0.221199
0.906259 0.509633 0.216828
0.999095 0.500287 0.206260
0.045432 0.653613 0.290798
0.160528 0.651365 0.297290
0.279537 0.652974 0.289625
0.380645 0.654569 0.256326
0.520043 0.652369 0.246552
0.653836 0.654018 0.240767
0.789095 0.657354 0.237824
0.905693 0.651370 0.229260
0.999019 0.639217 0.216306
0.059962 0.783073 0.319579
0.173972 0.782582 0.322212
0.291736 0.784511 0.310202
0.372688 0.783646 0.256378
0.515051 0.784467 0.251395
0.658550 0.782541 0.250632
0.782258 0.783595 0.246922
0.903133 0.784890 0.244883
0.997494 0.779818 0.236317
0.072659 0.899270 0.348753
0.185801 0.899461 0.347328
0.301146 0.900160 0.330885
0.373586 0.898958 0.269280
0.502004 0.899134 0.250023
0.653672 0.900291 0.259710
0.782939 0.898386 0.256012
0.897380 0.899102 0.257134
0.995749 0.900008 0.258679
0.084087 0.995350 0.377726
0.196588 0.995206 0.372477
0.309661 0.995058 0.351843
0.375434 0.994997 0.284358
0.497789 0.994171 0.260935
0.642273 0.994629 0.261980
0.774002 0.994455 0.266256
0.891073 0.994319 0.261720
0.990908 0.994213 0.269116
0.018638 0.028916 0.371620
0.141848 0.032017 0.376486
0.283875 0.039280 0.381451
0.383528 0.038439 0.349060
0.522771 0.042861 0.347576
0.659200 0.042702 0.345118
0.787769 0.040880 0.340974
0.902218 0.038191 0.334907
0.994699 0.034757 0.326318
0.007555 0.134104 0.373273
0.123144 0.124193 0.373919
0.261421 0.140123 0.377622
0.382554 0.141387 0.365781
0.525612 0.147559 0.364906
0.662101 0.143670 0.359980
0.788417 0.138808 0.352672
0.900902 0.134553 0.343581
0.995037 0.130579 0.334341
0.005229 0.266918 0.382085
0.116403 0.247935 0.376382
0.247315 0.246699 0.374963
0.379992 0.257305 0.373912
0.523045 0.260257 0.376286
0.660798 0.253017 0.367573
0.787902 0.242147 0.352299
0.901452 0.234256 0.338242
0.995943 0.229879 0.327375
0.007240 0.387825 0.364257
0.117846 0.379684 0.369261
0.246071 0.381342 0.378271
0.379063 0.377681 0.374917
0.522593 0.375771 0.370520
0.659517 0.375089 0.365960
0.788059 0.374975 0.361680
0.905017 0.371588 0.353901
0.998084 0.367278 0.345347
0.015176 0.524149 0.362950
0.130423 0.517403 0.369751
0.258745 0.512164 0.378990
0.393264 0.515832 0.388487
0.519881 0.517586 0.372977
0.662788 0.514869 0.359529
0.791026 0.505720 0.346129
0.904845 0.500483 0.337920
0.999134 0.495763 0.333632
0.029055 0.657954 0.381061
0.147332 0.652589 0.391803
0.277592 0.649349 0.400456
0.406969 0.653446 0.406063
0.521567 0.652985 0.384177
0.656936 0.655116 0.372331
0.790225 0.654955 0.359209
0.905739 0.645456 0.341981
0.998926 0.641094 0.335862
0.044441 0.785392 0.409042
0.163592 0.782421 0.422030
0.292330 0.780445 0.425090
0.419030 0.783207 0.426625
0.526382 0.784329 0.399303
0.656342 0.782821 0.383370
0.783968 0.784177 0.375850
0.903409 0.787181 0.367024
0.997340 0.778832 0.354545
0.058895 0.900124 0.440909
0.177916 0.898829 0.452926
0.304437 0.897736 0.453930
0.429662 0.899691 0.447851
0.527816 0.901920 0.412079
0.656558 0.900421 0.397390
0.785944 0.898583 0.387982
0.896912 0.899321 0.381478
0.995564 0.902060 0.376545
0.072129 0.995324 0.473244
0.190832 0.995163 0.482611
0.315558 0.994918 0.481484
0.438741 0.994816 0.469196
0.520884 0.994725 0.416752
0.648672 0.994557 0.402171
0.783328 0.994390 0.397875
0.901302 0.994260 0.394023
0.990495 0.994176 0.386955
0.023747 0.037708 0.512797
0.144078 0.037783 0.516323
0.292666 0.047550 0.518735
0.435648 0.052226 0.522083
0.523645 0.050288 0.477211
0.660663 0.055595 0.475985
0.788810 0.056744 0.474096
0.903093 0.055717 0.470994
0.994900 0.053485 0.464282
0.011142 0.143309 0.512901
0.128629 0.134267 0.514209
0.274700 0.145043 0.516339
0.417251 0.158275 0.522898
0.523364 0.151916 0.493890
0.662147 0.162750 0.493995
0.791476 0.161955 0.491314
0.905110 0.158769 0.486707
0.995773 0.155279 0.478812
0.006615 0.270676 0.516996
0.116861 0.250994 0.514704
0.256446 0.256454 0.514263
0.399002 0.268562 0.516121
0.523801 0.273176 0.508842
0.665047 0.287117 0.512892
0.795492 0.277416 0.505160
0.907950 0.266509 0.494157
0.996901 0.254948 0.478784
0.006537 0.413313 0.521603
0.118062 0.390875 0.514360
0.241776 0.382462 0.516138
0.384569 0.383090 0.513423
0.519949 0.393423 0.511051
0.659832 0.395720 0.513763
0.790626 0.390113 0.507406
0.905840 0.382946 0.496694
0.998308 0.374158 0.482296
0.009454 0.526230 0.493344
0.121166 0.518635 0.499531
0.246834 0.520510 0.511031
0.383953 0.520512 0.514103
0.520681 0.517777 0.511969
0.661892 0.515723 0.507861
0.790965 0.512929 0.501583
0.904891 0.513638 0.498838
0.999236 0.512401 0.493787
0.016692 0.661146 0.490270
0.130705 0.656195 0.499514
0.259387 0.650593 0.503521
0.397766 0.653070 0.520107
0.534983 0.654601 0.526709
0.658843 0.655668 0.512099
0.793722 0.654080 0.499973
0.907567 0.645862 0.489749
0.998820 0.639982 0.481332
0.028340 0.787714 0.504587
0.145587 0.783853 0.516890
0.278548 0.778890 0.520549
0.415402 0.781242 0.541704
0.547406 0.783440 0.545572
0.659752 0.783185 0.525745
0.786173 0.784806 0.513320
0.904594 0.784613 0.499596
0.997290 0.769972 0.477019
0.041672 0.901307 0.530559
0.161136 0.898816 0.545433
0.294454 0.895375 0.551385
0.429472 0.896760 0.564976
0.558109 0.899061 0.566670
0.664138 0.899071 0.542863
0.784145 0.898600 0.525601
0.898713 0.899719 0.516727
0.995433 0.899315 0.504023
0.055355 0.995308 0.561198
0.176141 0.994924 0.577701
0.308243 0.992714 0.584114
0.441692 0.993482 0.589108
0.568260 0.994580 0.588156
0.665784 0.994467 0.555892
0.784634 0.994332 0.540632
0.898017 0.994218 0.527912
0.991724 0.994135 0.519782
0.028909 0.046632 0.651894
0.146407 0.043465 0.654696
0.298295 0.054862 0.655311
0.448285 0.062297 0.657530
0.587954 0.064925 0.659724
0.661371 0.062385 0.604804
0.790243 0.068319 0.603709
0.904469 0.070567 0.602237
0.995115 0.069983 0.596347
0.015312 0.153310 0.651464
0.136761 0.147819 0.653818
0.281174 0.152938 0.653625
0.431294 0.167111 0.656912
0.573154 0.173397 0.663583
0.661839 0.161869 0.621108
0.790829 0.176237 0.620625
0.906348 0.178513 0.619532
0.996127 0.175245 0.611967
0.008842 0.277747 0.652976
0.123845 0.260020 0.652396
0.259737 0.262143 0.651715
0.409746 0.274747 0.650432
0.546508 0.283767 0.654414
0.662153 0.285651 0.637564
0.795685 0.306070 0.640969
0.911929 0.296901 0.634651
0.997445 0.285201 0.620071
0.007288 0.417355 0.655265
0.119799 0.398341 0.653455
0.246127 0.388700 0.652170
0.394453 0.392166 0.651092
0.540651 0.406334 0.651218
0.661538 0.411108 0.644541
0.793064 0.419961 0.648401
0.910432 0.417480 0.646114
0.998734 0.403985 0.631161
0.008830 0.560924 0.656464
0.122825 0.538736 0.649525
0.243423 0.524363 0.646566
0.380457 0.523666 0.651770
0.526258 0.523379 0.648772
0.658884 0.533256 0.646625
0.788871 0.534218 0.648942
0.905055 0.528445 0.643206
0.999257 0.520827 0.633522
0.011886 0.662219 0.621055
0.124131 0.655630 0.628294
0.245768 0.651927 0.634658
0.386152 0.659657 0.650149
0.525133 0.658122 0.649980
0.658702 0.655230 0.648286
0.790894 0.652937 0.644902
0.906190 0.649419 0.638905
0.998624 0.646560 0.633136
0.017847 0.789243 0.618142
0.130648 0.785267 0.628099
0.258512 0.780594 0.632081
0.394139 0.778602 0.643843
0.537419 0.783651 0.658377
0.671073 0.783928 0.664554
0.786860 0.784631 0.651369
0.907051 0.784149 0.639360
0.997064 0.770739 0.625501
0.026911 0.902292 0.629586
0.142763 0.899426 0.642505
0.274575 0.894841 0.645422
0.412695 0.892487 0.658694
0.554660 0.899735 0.682043
0.682183 0.898595 0.683317
0.787913 0.898746 0.665811
0.900019 0.899942 0.653392
0.995310 0.895715 0.636588
0.038360 0.995290 0.650954
0.156965 0.994672 0.667395
0.290933 0.991356 0.673298
0.430746 0.990001 0.683422
0.568084 0.994528 0.704866
0.692366 0.994375 0.702321
0.792546 0.994272 0.681910
0.898375 0.994174 0.664420
0.992844 0.994098 0.653874
0.034121 0.055682 0.782873
0.148756 0.048995 0.784955
0.302161 0.061761 0.785117
0.457335 0.070580 0.785532
0.602478 0.076547 0.787337
0.733777 0.077662 0.788710
0.790841 0.074725 0.727266
0.905687 0.081122 0.726281
0.995329 0.083655 0.720066
0.019967 0.163595 0.782264
0.145128 0.157830 0.785249
0.285139 0.160603 0.783630
0.441894 0.173260 0.783928
0.587962 0.188212 0.790069
0.721294 0.184539 0.792435
0.792028 0.174750 0.742829
0.906079 0.189191 0.741491
0.996463 0.192299 0.735881
0.011732 0.286557 0.782523
0.129627 0.271670 0.783070
0.262496 0.264318 0.782873
0.419218 0.278005 0.782829
0.560052 0.297198 0.781933
0.696498 0.297419 0.787756
0.792217 0.299023 0.757500
0.910272 0.314460 0.758511
0.997878 0.308667 0.746797
0.009002 0.423714 0.782899
0.123854 0.405843 0.782322
0.246229 0.391898 0.781720
0.403856 0.402785 0.780515
0.552578 0.413889 0.779602
0.683860 0.423772 0.780962
0.794005 0.427016 0.769309
0.910839 0.444652 0.772878
0.999071 0.439427 0.763547
0.009070 0.565791 0.782962
0.123310 0.547743 0.781540
0.247501 0.531977 0.779471
0.386608 0.529661 0.780139
0.534849 0.531310 0.778730
0.677692 0.545882 0.778469
0.790175 0.549893 0.772365
0.908386 0.557825 0.778549
0.999177 0.551167 0.771551
0.011002 0.703338 0.782781
0.125561 0.683135 0.777449
0.243934 0.665624 0.772657
0.376731 0.662268 0.778154
0.521884 0.661093 0.779838
0.663911 0.660692 0.777652
0.787834 0.669713 0.776384
0.903059 0.670066 0.779224
0.998295 0.663277 0.773184
0.013423 0.789803 0.743712
0.125599 0.784589 0.751903
0.246567 0.779573 0.757287
0.383292 0.785040 0.772071
0.523974 0.786522 0.779128
0.661143 0.786592 0.780300
0.786245 0.783880 0.779149
0.903011 0.780938 0.775723
0.996794 0.775012 0.767935
0.017778 0.902935 0.741726
0.129805 0.899713 0.751708
0.256422 0.895815 0.757036
0.391962 0.893709 0.765549
0.532383 0.894256 0.777695
0.672476 0.899351 0.789909
0.797205 0.898867 0.794937
0.900119 0.899356 0.783137
0.995169 0.894216 0.766495
0.025087 0.995264 0.749017
0.139843 0.994652 0.763102
0.270201 0.991368 0.767962
0.409103 0.988593 0.773411
0.547787 0.988143 0.790350
0.687783 0.994339 0.808650
0.807682 0.994212 0.811226
0.901795 0.994132 0.795887
0.993579 0.994064 0.783030
0.039383 0.064856 0.899693
0.151046 0.054608 0.901237
0.304868 0.067944 0.901341
0.463983 0.078319 0.900571
0.613784 0.085950 0.901248
0.748595 0.090432 0.902477
0.865911 0.090513 0.903313
0.906162 0.087298 0.840056
0.995517 0.093273 0.833050
0.024746 0.174024 0.899047
0.152424 0.167763 0.904004
0.288660 0.167113 0.900435
0.448916 0.180366 0.898986
0.599981 0.194038 0.901113
0.736763 0.204815 0.905518
0.855546 0.196916 0.906046
0.907971 0.189477 0.854394
0.996699 0.201025 0.847026
0.015296 0.296537 0.898701
0.135216 0.283909 0.900621
0.267299 0.272590 0.899194
0.422504 0.280094 0.898948
0.577333 0.302729 0.897564
0.708474 0.315233 0.898086
0.838604 0.314853 0.903593
0.908144 0.311775 0.865950
0.998155 0.321840 0.859290
0.011261 0.431541 0.897982
0.127640 0.414113 0.897926
0.251487 0.397274 0.897767
0.407741 0.410189 0.895920
0.559992 0.418871 0.890957
0.694703 0.434386 0.893848
0.820547 0.436176 0.899151
0.909444 0.439921 0.879244
0.999199 0.458659 0.874239
0.010310 0.571903 0.896932
0.126084 0.555177 0.896736
0.244681 0.535029 0.896462
0.392069 0.540507 0.895773
0.545494 0.541460 0.894724
0.689598 0.554262 0.894235
0.811995 0.564133 0.894219
0.908429 0.567047 0.886133
0.999008 0.573580 0.884011
0.010775 0.708745 0.896211
0.124818 0.691465 0.894946
0.245038 0.672013 0.891021
0.385333 0.667749 0.894521
0.527598 0.666009 0.895085
0.671013 0.667599 0.894103
0.803726 0.681232 0.894265
0.903313 0.684508 0.889382
0.997837 0.688249 0.892231
0.011886 0.833811 0.896420
0.125895 0.816329 0.892768
0.248106 0.798812 0.887654
0.373606 0.788397 0.887082
0.517150 0.793736 0.897032
0.658202 0.789135 0.896358
0.790986 0.788989 0.895067
0.901008 0.796947 0.894323
0.996288 0.796947 0.897131
0.013608 0.903214 0.856982
0.125444 0.899203 0.865315
0.247602 0.894137 0.870247
0.378797 0.893976 0.878579
0.523034 0.902159 0.894679
0.658460 0.900285 0.896128
0.787466 0.900431 0.897406
0.899435 0.898567 0.896830
0.995016 0.894611 0.892397
0.017043 0.995228 0.853754
0.128511 0.994514 0.865007
0.254399 0.991282 0.870623
0.389593 0.989402 0.876670
0.528098 0.989397 0.887459
0.667538 0.990623 0.896789
0.798246 0.994191 0.905252
0.909308 0.994095 0.909788
0.993970 0.994037 0.899171
0.044541 0.073883 0.993881
0.152435 0.059892 0.993852
0.305558 0.073607 0.993715
0.466802 0.085337 0.993497
0.619923 0.094013 0.993212
0.756728 0.100477 0.992887
0.874315 0.103448 0.992572
0.971169 0.102663 0.992308
0.995670 0.099201 0.932481
0.029628 0.183877 0.993623
0.157651 0.175416 0.993505
0.291108 0.172806 0.993322
0.451522 0.186806 0.992921
0.607214 0.199915 0.992414
0.743755 0.211778 0.991875
0.861595 0.215788 0.991429
0.960217 0.207738 0.991176
0.996832 0.202261 0.943834
0.019203 0.305954 0.992990
0.140112 0.293723 0.992809
0.273403 0.285204 0.992543
0.425213 0.289016 0.992063
0.587478 0.308004 0.991302
0.725109 0.324144 0.990611
0.845096 0.332932 0.990083
0.948907 0.324544 0.989831
0.998235 0.319614 0.954191
0.013937 0.438872 0.991762
0.131119 0.422172 0.991555
0.258203 0.404797 0.991315
0.409197 0.411208 0.990694
0.571534 0.427085 0.989937
0.708026 0.442493 0.989368
0.828109 0.452615 0.989015
0.932404 0.440851 0.988906
0.999197 0.448824 0.966240
0.012099 0.577233 0.990121
0.128181 0.560592 0.989918
0.248835 0.538833 0.989765
0.393159 0.544200 0.989297
0.552769 0.550551 0.988922
0.699066 0.561707 0.988749
0.822845 0.573012 0.988794
0.925941 0.576243 0.988941
0.998924 0.576820 0.974617
0.011439 0.712481 0.988917
0.126622 0.696628 0.988835
0.246364 0.677690 0.988782
0.384692 0.669871 0.988743
0.533049 0.673986 0.988847
0.678864 0.674764 0.989108
0.812893 0.688045 0.989609
0.921281 0.698005 0.990122
0.997587 0.697795 0.981965
0.011232 0.836999 0.988882
0.124818 0.822596 0.988990
0.248248 0.804536 0.985646
0.385381 0.796898 0.986438
0.516045 0.790514 0.989772
0.661371 0.790747 0.990329
0.795892 0.793956 0.990940
0.913364 0.806472 0.991632
0.995980 0.809533 0.988258
0.011518 0.943873 0.989812
0.124992 0.931886 0.989651
0.250796 0.915776 0.984922
0.371507 0.905314 0.984100
0.511430 0.905796 0.990172
0.650457 0.903966 0.991909
0.783673 0.901139 0.992413
0.903372 0.902803 0.992880
0.994743 0.909757 0.992389
0.013092 0.995187 0.953430
0.124716 0.994222 0.963080
0.248180 0.989659 0.967152
0.376190 0.987733 0.972634
0.518387 0.993613 0.985798
0.656344 0.994305 0.991078
0.784772 0.994176 0.992087
0.899625 0.994081 0.993211
0.994050 0.994017 0.993950
