working/Infinite_Arch_Leica_Looks_v1.2/Kin_Comparisons/IA_Kin_Agfa.CUBE
#Created by: Infinite Arch
#Unique Leica Look ID: 1007
#Based Filmstyle Mode: Standard
TITLE "IA Kin Agfa"
#LUT size
LUT_3D_SIZE 17
#data domain
DOMAIN_MIN 0.0 0.0 0.0
DOMAIN_MAX 1.0 1.0 1.0
#LUT data points
0.004001 0.004000 0.003999
0.065717 0.006123 0.003996
0.123914 0.007968 0.003991
0.185788 0.009821 0.003984
0.250623 0.011682 0.003975
0.317703 0.013550 0.003963
0.386310 0.015426 0.003946
0.455729 0.017310 0.003925
0.525242 0.019203 0.003898
0.594132 0.021105 0.003864
0.661683 0.023016 0.003824
0.727177 0.024935 0.003777
0.789897 0.026863 0.003722
0.849124 0.028800 0.003662
0.904139 0.030745 0.003598
0.954223 0.032696 0.003530
0.994530 0.034460 0.003470
0.007759 0.045852 0.011002
0.050114 0.050538 0.006004
0.118214 0.058811 0.003971
0.182676 0.060754 0.003958
0.249152 0.062466 0.003941
0.317519 0.064317 0.003918
0.386823 0.066169 0.003890
0.456830 0.068092 0.003854
0.526691 0.070031 0.003810
0.595707 0.071981 0.003757
0.663343 0.073969 0.003694
0.728889 0.075987 0.003623
0.791628 0.078031 0.003543
0.850844 0.080095 0.003456
0.905816 0.082177 0.003364
0.955825 0.084273 0.003271
0.994807 0.085645 0.003193
0.012631 0.103751 0.020101
0.049049 0.103020 0.009205
0.107596 0.108561 0.008295
0.176493 0.115155 0.003908
0.244750 0.116765 0.003878
0.313131 0.118502 0.003840
0.382847 0.120380 0.003793
0.453513 0.122282 0.003735
0.524177 0.124288 0.003666
0.594192 0.126408 0.003584
0.662751 0.128557 0.003490
0.728769 0.130664 0.003386
0.791927 0.132807 0.003272
0.851504 0.134980 0.003150
0.906774 0.137179 0.003025
0.957008 0.139398 0.002899
0.995197 0.140205 0.002803
0.017583 0.165742 0.029322
0.050628 0.164712 0.014470
0.103868 0.165947 0.010019
0.169072 0.170592 0.010527
0.239786 0.177297 0.006753
0.310281 0.177472 0.003699
0.380712 0.178563 0.003626
0.450967 0.180180 0.003539
0.521231 0.182061 0.003437
0.590905 0.184046 0.003320
0.659590 0.186106 0.003188
0.726082 0.188185 0.003044
0.789836 0.190427 0.002889
0.850015 0.192734 0.002726
0.905832 0.195058 0.002562
0.956552 0.197399 0.002401
0.995718 0.197919 0.002282
0.022643 0.231071 0.038632
0.051788 0.230109 0.019435
0.104328 0.230524 0.014983
0.164409 0.231986 0.011467
0.233876 0.235900 0.012638
0.306738 0.242725 0.009652
0.377962 0.242228 0.003348
0.449735 0.242591 0.003224
0.520453 0.243523 0.003083
0.589955 0.245045 0.002925
0.657947 0.246871 0.002751
0.724272 0.248934 0.002563
0.787703 0.251029 0.002368
0.847998 0.253206 0.002167
0.903950 0.255399 0.001969
0.954839 0.257609 0.001779
0.996371 0.258458 0.001629
0.027850 0.298990 0.047988
0.052859 0.298158 0.024215
0.105065 0.298249 0.020285
0.163551 0.298969 0.015322
0.229079 0.300391 0.013093
0.301355 0.303760 0.014546
0.376090 0.310696 0.012117
0.447453 0.310934 0.005504
0.519296 0.309805 0.002564
0.589863 0.310026 0.002366
0.658287 0.310953 0.002153
0.724280 0.312382 0.001931
0.787444 0.314222 0.001702
0.847275 0.316218 0.001473
0.903050 0.318349 0.001252
0.953818 0.320511 0.001044
0.997127 0.321662 0.000873
0.033248 0.368752 0.057341
0.054061 0.368069 0.028935
0.106056 0.367986 0.025386
0.163821 0.368498 0.020284
0.226815 0.369129 0.015662
0.296936 0.370519 0.014723
0.370840 0.373440 0.016187
0.446913 0.380554 0.014282
0.517945 0.381396 0.007884
0.588777 0.379177 0.001634
0.658281 0.378840 0.001398
0.724989 0.379130 0.001157
0.788350 0.380099 0.000917
0.847991 0.381418 0.000685
0.903438 0.383238 0.000464
0.953921 0.385110 0.000263
0.997906 0.386478 0.000094
0.038869 0.439606 0.066653
0.055356 0.439055 0.033452
0.107156 0.438906 0.030101
0.164460 0.439263 0.025373
0.226789 0.439766 0.020037
0.293619 0.440302 0.016290
0.366806 0.441600 0.016146
0.441584 0.444183 0.017577
0.518279 0.451512 0.016039
0.588502 0.452646 0.010063
0.657538 0.450874 0.003043
0.724786 0.449256 0.000310
0.788931 0.448948 0.000090
0.849012 0.449128 0.000000
0.904310 0.450164 0.000000
0.954563 0.451374 0.000000
0.998082 0.452310 0.000000
0.044712 0.510789 0.075921
0.056842 0.510355 0.037873
0.108451 0.510187 0.034584
0.165422 0.510428 0.030268
0.227160 0.510905 0.024823
0.292911 0.511241 0.019790
0.362885 0.511720 0.016991
0.437884 0.512920 0.017436
0.512705 0.515186 0.018865
0.589198 0.522732 0.017589
0.657907 0.524019 0.012244
0.724402 0.522930 0.005298
0.788318 0.519948 0.000000
0.848842 0.519312 0.000000
0.904675 0.519138 0.000000
0.955301 0.519227 0.000000
0.998313 0.518987 0.000000
0.050722 0.581520 0.085197
0.058488 0.581189 0.042264
0.109873 0.581029 0.038958
0.166620 0.581170 0.034999
0.227781 0.581595 0.029776
0.292958 0.581965 0.024221
0.361115 0.582145 0.019676
0.433631 0.582564 0.017909
0.509196 0.583667 0.018827
0.583201 0.585608 0.020321
0.658643 0.593316 0.019401
0.725127 0.594540 0.014583
0.788519 0.593913 0.007965
0.848834 0.591087 0.001055
0.904417 0.589285 0.000000
0.955419 0.588494 0.000000
0.998528 0.586801 0.000000
0.056786 0.651002 0.094588
0.060130 0.650758 0.046662
0.111266 0.650608 0.043288
0.167751 0.650700 0.039636
0.228473 0.651031 0.034725
0.293102 0.651416 0.029192
0.360733 0.651587 0.024042
0.430858 0.651649 0.020270
0.504395 0.651967 0.019230
0.579670 0.652964 0.020615
0.652054 0.654600 0.022230
0.725582 0.662396 0.021741
0.789093 0.663502 0.017472
0.848730 0.663176 0.011213
0.904372 0.661024 0.004403
0.954898 0.657821 0.000000
0.998563 0.655348 0.000000
0.062765 0.718425 0.104230
0.061642 0.718260 0.051201
0.112638 0.718135 0.047907
0.168747 0.718159 0.044331
0.229148 0.718405 0.039940
0.293215 0.718761 0.034579
0.360270 0.718990 0.029017
0.429392 0.718947 0.024345
0.500525 0.718910 0.021523
0.574647 0.719169 0.021303
0.648370 0.720000 0.022999
0.718373 0.721357 0.024751
0.789157 0.729163 0.024703
0.848988 0.730128 0.020961
0.904182 0.730045 0.015026
0.954498 0.728495 0.008279
0.998487 0.723811 0.001494
0.068533 0.782986 0.114242
0.066080 0.782897 0.059166
0.113747 0.782786 0.052769
0.169559 0.782770 0.049357
0.229660 0.782915 0.045329
0.293098 0.783205 0.040237
0.359635 0.783448 0.034753
0.428255 0.783455 0.029635
0.498025 0.783291 0.025420
0.569890 0.783176 0.023598
0.643132 0.783342 0.024033
0.714561 0.784028 0.025984
0.781476 0.785144 0.027833
0.848725 0.792880 0.028172
0.904202 0.793704 0.024898
0.954291 0.793823 0.019225
0.997648 0.791173 0.012524
0.074026 0.843901 0.124686
0.071627 0.843878 0.068946
0.114541 0.843780 0.057937
0.170092 0.843734 0.054689
0.229820 0.843812 0.050950
0.292857 0.844013 0.046231
0.358906 0.844241 0.040958
0.427001 0.844326 0.035505
0.496329 0.844134 0.030892
0.566458 0.843876 0.027466
0.637865 0.843706 0.026317
0.709259 0.843790 0.027263
0.777694 0.844362 0.029383
0.840847 0.845279 0.031260
0.903776 0.852858 0.031897
0.954229 0.853549 0.029025
0.996772 0.851664 0.023295
0.079251 0.900411 0.135548
0.076900 0.900443 0.079159
0.115038 0.900361 0.063402
0.170347 0.900288 0.060270
0.229758 0.900309 0.056760
0.292505 0.900432 0.052485
0.357955 0.900606 0.047376
0.425629 0.900709 0.041984
0.494561 0.900606 0.036917
0.563878 0.900331 0.032620
0.633561 0.900021 0.029989
0.703734 0.899819 0.029390
0.772549 0.899851 0.030733
0.837298 0.900340 0.032932
0.896014 0.901098 0.034772
0.953807 0.908405 0.035625
0.995977 0.906183 0.032577
0.084281 0.951778 0.146752
0.081969 0.951852 0.089734
0.115315 0.951788 0.069096
0.170403 0.951697 0.066031
0.229547 0.951673 0.062686
0.292106 0.951733 0.058807
0.357076 0.951866 0.053879
0.424406 0.951977 0.048693
0.492916 0.951969 0.043270
0.561885 0.951724 0.038670
0.630400 0.951394 0.034648
0.698847 0.951062 0.032711
0.767017 0.950852 0.032553
0.832512 0.950859 0.034197
0.892864 0.951288 0.036410
0.946444 0.951915 0.038168
0.995314 0.955728 0.038749
0.089005 0.995433 0.157692
0.086728 0.995457 0.100254
0.115321 0.995435 0.074839
0.170036 0.995372 0.071826
0.228717 0.995300 0.068594
0.290704 0.995220 0.064886
0.355102 0.995134 0.060288
0.421583 0.995042 0.055141
0.489468 0.994948 0.049740
0.557970 0.994852 0.044626
0.626269 0.994756 0.040218
0.693863 0.994663 0.036884
0.760647 0.994573 0.035433
0.825698 0.994489 0.035653
0.886695 0.994412 0.037368
0.941429 0.994348 0.039496
0.988776 0.994295 0.041158
0.006087 0.007524 0.049222
0.061183 0.009888 0.056317
0.120312 0.010178 0.054364
0.183372 0.008548 0.051185
0.248660 0.006573 0.047349
0.315883 0.004853 0.043646
0.384569 0.004016 0.040770
0.453987 0.004022 0.038702
0.523499 0.004029 0.036659
0.592414 0.004038 0.034631
0.659986 0.004048 0.032614
0.725508 0.004061 0.030607
0.788267 0.004074 0.028608
0.847548 0.004089 0.026615
0.902636 0.004105 0.024631
0.952815 0.004122 0.022655
0.994410 0.004137 0.020622
0.004434 0.068703 0.065156
0.057268 0.057254 0.057225
0.119281 0.058632 0.057386
0.182320 0.057250 0.054221
0.246710 0.058317 0.052556
0.312921 0.059153 0.050694
0.381586 0.059863 0.049681
0.451972 0.061614 0.050223
0.522447 0.063429 0.050845
0.592047 0.065807 0.050813
0.660284 0.068236 0.050801
0.726428 0.070705 0.050800
0.789749 0.073207 0.050807
0.849174 0.074592 0.049977
0.904359 0.075986 0.049148
0.954580 0.077388 0.048322
0.994789 0.078285 0.047218
0.009776 0.115428 0.062304
0.059426 0.109320 0.061573
0.111112 0.111523 0.055906
0.179028 0.114976 0.054357
0.246084 0.113310 0.051648
0.313243 0.113147 0.049758
0.382496 0.113740 0.047902
0.453436 0.115798 0.048119
0.524705 0.118545 0.049224
0.594563 0.121644 0.049605
0.662865 0.124553 0.049895
0.729081 0.127543 0.050258
0.792462 0.130598 0.050671
0.851864 0.132005 0.049945
0.906973 0.133476 0.049233
0.957066 0.134998 0.048535
0.995193 0.135228 0.047445
0.016041 0.171049 0.072531
0.064398 0.169581 0.069933
0.109005 0.168937 0.057854
0.171227 0.172137 0.057787
0.241779 0.175834 0.056730
0.312127 0.173437 0.053524
0.381445 0.173370 0.053845
0.451133 0.172651 0.048801
0.521666 0.173246 0.045969
0.591848 0.175237 0.044875
0.660934 0.178335 0.044902
0.727948 0.182196 0.045560
0.791748 0.185637 0.045929
0.851714 0.187605 0.045568
0.907298 0.189679 0.045280
0.957773 0.191841 0.045055
0.995701 0.191989 0.044489
0.021837 0.233911 0.083888
0.069072 0.233467 0.078304
0.106696 0.231638 0.059419
0.169079 0.233871 0.060652
0.235533 0.236654 0.061648
0.307661 0.240003 0.060484
0.379379 0.237658 0.056457
0.450348 0.235759 0.052875
0.520144 0.234464 0.047799
0.589279 0.234109 0.043736
0.657466 0.234274 0.040555
0.724234 0.236068 0.039018
0.788275 0.238491 0.038092
0.848964 0.240961 0.037917
0.905264 0.243586 0.037955
0.956381 0.246225 0.038031
0.996279 0.246741 0.037893
0.027499 0.300656 0.095031
0.074379 0.300562 0.087381
0.108950 0.298652 0.066225
0.168690 0.300229 0.063408
0.228940 0.301432 0.062647
0.303191 0.303665 0.064521
0.376550 0.307346 0.064643
0.448277 0.304148 0.058306
0.519644 0.301843 0.053539
0.589076 0.299687 0.047801
0.656594 0.298251 0.042657
0.722230 0.297892 0.038442
0.785847 0.298116 0.035208
0.846252 0.298648 0.032774
0.902744 0.300454 0.031770
0.954122 0.302189 0.030848
0.996929 0.302535 0.029915
0.033214 0.369768 0.105879
0.080125 0.369786 0.096820
0.111126 0.368136 0.072483
0.168843 0.368413 0.067773
0.230809 0.370725 0.066759
0.293193 0.370765 0.064281
0.371743 0.372739 0.066360
0.447777 0.378321 0.068225
0.518726 0.373761 0.061281
0.589003 0.370808 0.054449
0.657420 0.367979 0.048089
0.722921 0.365394 0.042183
0.785491 0.363680 0.037060
0.845448 0.363855 0.033716
0.901444 0.364083 0.030774
0.952713 0.364455 0.028229
0.997678 0.364510 0.025817
0.039074 0.440207 0.116477
0.086136 0.440290 0.106371
0.113115 0.438970 0.078195
0.169813 0.438606 0.073312
0.233458 0.440459 0.070415
0.294236 0.441478 0.068413
0.363596 0.441160 0.065970
0.441885 0.443168 0.069497
0.519835 0.451045 0.071718
0.589416 0.446470 0.064103
0.657642 0.441637 0.055898
0.724200 0.438228 0.048810
0.787109 0.434789 0.042268
0.846542 0.432770 0.037311
0.901808 0.431377 0.033101
0.952617 0.431342 0.029758
0.997760 0.431192 0.026568
0.045100 0.511108 0.126875
0.092333 0.511201 0.115882
0.114997 0.510125 0.083381
0.171499 0.509623 0.079030
0.234263 0.510682 0.075238
0.299555 0.512326 0.072268
0.361582 0.512376 0.069200
0.434825 0.511722 0.068025
0.512420 0.513912 0.072598
0.591016 0.523036 0.075105
0.659277 0.519931 0.067558
0.724875 0.514477 0.058726
0.788191 0.509920 0.050605
0.848109 0.506221 0.043881
0.903433 0.502898 0.038101
0.953697 0.501043 0.033589
0.998377 0.499380 0.029528
0.051251 0.581640 0.137165
0.098676 0.581736 0.125477
0.116794 0.580859 0.088313
0.172919 0.580317 0.084110
0.234664 0.580827 0.080048
0.300770 0.582299 0.076201
0.366158 0.583142 0.073044
0.431657 0.582639 0.069928
0.506468 0.581869 0.069958
0.583028 0.584226 0.075009
0.660508 0.593875 0.078403
0.726922 0.592449 0.071599
0.789188 0.586730 0.062224
0.848612 0.581316 0.053180
0.904383 0.577512 0.046205
0.954859 0.573925 0.040096
0.999252 0.570144 0.034569
0.057425 0.650977 0.147490
0.105024 0.651055 0.135208
0.118566 0.650347 0.093267
0.174414 0.649845 0.089257
0.235443 0.649974 0.085161
0.300789 0.651074 0.080855
0.368521 0.652243 0.077238
0.433875 0.652355 0.073727
0.502622 0.651438 0.071149
0.577360 0.650800 0.072512
0.652005 0.653147 0.077881
0.727462 0.663092 0.082259
0.791163 0.662772 0.076490
0.849652 0.657675 0.066532
0.904565 0.652427 0.057339
0.955049 0.647796 0.049444
0.999099 0.642563 0.042507
0.063488 0.718295 0.158005
0.111233 0.718341 0.145211
0.120120 0.717777 0.098321
0.175693 0.717304 0.094441
0.236288 0.717312 0.090685
0.300682 0.717957 0.086162
0.368481 0.719050 0.082007
0.436937 0.719725 0.078659
0.502959 0.719175 0.074888
0.572496 0.718006 0.073030
0.646399 0.717553 0.075663
0.718455 0.719868 0.081367
0.791024 0.729908 0.086752
0.850998 0.730052 0.081206
0.905304 0.726060 0.071486
0.954973 0.720989 0.061999
0.998528 0.714690 0.053057
0.069320 0.782780 0.168841
0.117189 0.782788 0.155599
0.121361 0.782350 0.103607
0.176826 0.781946 0.100050
0.236950 0.781813 0.096408
0.300726 0.782217 0.092203
0.367695 0.783044 0.087559
0.436796 0.783809 0.083686
0.504641 0.783816 0.079976
0.571431 0.783024 0.076832
0.641378 0.781656 0.076021
0.712872 0.781382 0.079411
0.781691 0.783654 0.085411
0.850308 0.793367 0.090543
0.906108 0.794089 0.086244
0.955503 0.791054 0.076784
0.997665 0.784500 0.066753
0.074863 0.843645 0.180062
0.122985 0.843617 0.166559
0.122275 0.843289 0.109212
0.177494 0.842927 0.105788
0.237223 0.842738 0.102322
0.300532 0.842890 0.098319
0.366684 0.843485 0.093706
0.435381 0.844193 0.089400
0.504529 0.844565 0.085784
0.571401 0.844199 0.081820
0.638439 0.843156 0.079361
0.707359 0.841858 0.079413
0.776046 0.841775 0.083105
0.841027 0.843883 0.088973
0.905119 0.853146 0.094572
0.955999 0.854244 0.091360
0.996732 0.848574 0.081706
0.080131 0.900126 0.191657
0.128508 0.900065 0.177924
0.125265 0.899838 0.117506
0.177876 0.899515 0.111784
0.237270 0.899304 0.108482
0.300176 0.899341 0.104761
0.365753 0.899695 0.100255
0.433800 0.900269 0.095611
0.503193 0.900738 0.091655
0.571322 0.900706 0.087927
0.637393 0.900057 0.084199
0.703702 0.898952 0.082283
0.770534 0.897789 0.082987
0.835701 0.897876 0.086898
0.896174 0.899823 0.092590
0.954943 0.908548 0.098590
0.995905 0.905083 0.095603
0.085203 0.951485 0.203550
0.133842 0.951398 0.189602
0.130597 0.951253 0.128666
0.178061 0.950976 0.117964
0.237157 0.950754 0.114757
0.299761 0.950709 0.111269
0.364940 0.950905 0.107037
0.432294 0.951308 0.102314
0.501294 0.951731 0.097906
0.570167 0.951911 0.094014
0.636807 0.951619 0.089952
0.701797 0.950888 0.086778
0.766474 0.949779 0.085323
0.830424 0.948776 0.086506
0.891335 0.949007 0.090576
0.946594 0.950784 0.096069
0.995250 0.954612 0.101737
0.089980 0.995409 0.215035
0.138794 0.995356 0.200952
0.135554 0.995386 0.139693
0.177824 0.995340 0.123964
0.236584 0.995266 0.120828
0.298862 0.995184 0.117535
0.363537 0.995097 0.113510
0.429948 0.995004 0.108704
0.497952 0.994909 0.103930
0.566572 0.994812 0.099773
0.633955 0.994719 0.095949
0.698733 0.994631 0.091677
0.762475 0.994547 0.089121
0.825671 0.994466 0.088217
0.886456 0.994118 0.089828
0.942202 0.994326 0.094006
0.989870 0.994272 0.099027
0.008571 0.011733 0.107191
0.068145 0.014584 0.115804
0.119531 0.015476 0.109417
0.181406 0.016916 0.108028
0.246967 0.016163 0.106391
0.314612 0.014772 0.103573
0.383478 0.012969 0.099983
0.453011 0.010958 0.096096
0.522558 0.009091 0.092229
0.591460 0.007371 0.088462
0.658986 0.005713 0.084675
0.724548 0.004187 0.081036
0.787340 0.004078 0.078774
0.846655 0.004094 0.076640
0.901783 0.004111 0.074514
0.952013 0.004127 0.072396
0.994429 0.004143 0.070051
0.004543 0.063036 0.114571
0.058575 0.058672 0.111270
0.117822 0.064621 0.115175
0.182251 0.065643 0.114891
0.247196 0.061234 0.110021
0.313437 0.058628 0.105021
0.381048 0.056743 0.100774
0.450318 0.055612 0.097569
0.519871 0.054592 0.094742
0.589196 0.053650 0.091588
0.657326 0.053035 0.088688
0.723416 0.052528 0.085858
0.786737 0.052102 0.083086
0.846352 0.051294 0.080012
0.901745 0.050491 0.076945
0.952199 0.049691 0.073888
0.994634 0.048730 0.070599
0.004817 0.126690 0.119749
0.060012 0.120542 0.119353
0.115111 0.115055 0.114943
0.180081 0.115537 0.114370
0.245559 0.115707 0.112989
0.313764 0.114028 0.109575
0.382268 0.113037 0.106491
0.451598 0.114356 0.105045
0.519753 0.115637 0.103191
0.587493 0.116673 0.101053
0.654486 0.117700 0.099368
0.720277 0.118567 0.098296
0.783349 0.119463 0.097257
0.843807 0.121424 0.097792
0.900007 0.123419 0.098372
0.951205 0.125441 0.098989
0.995170 0.127190 0.099421
0.008996 0.183321 0.117089
0.064001 0.174868 0.116663
0.118578 0.172974 0.119826
0.174453 0.174622 0.113569
0.243908 0.174840 0.108056
0.312312 0.173290 0.104792
0.382595 0.172292 0.104082
0.452880 0.172101 0.102201
0.519738 0.173349 0.101314
0.588138 0.174134 0.099123
0.655727 0.174824 0.096879
0.722031 0.175349 0.095049
0.785508 0.175943 0.093260
0.846224 0.178801 0.094424
0.902605 0.181775 0.095695
0.953894 0.184845 0.097055
0.995704 0.186901 0.097964
0.015777 0.241927 0.125606
0.069851 0.236297 0.127916
0.123607 0.236096 0.127933
0.173225 0.235824 0.117417
0.237653 0.238361 0.113959
0.309378 0.241224 0.110721
0.380380 0.239853 0.107699
0.451603 0.238754 0.105863
0.521449 0.235139 0.101300
0.589918 0.234688 0.099315
0.657255 0.234828 0.097066
0.723191 0.235645 0.095204
0.786672 0.236384 0.092956
0.847285 0.238564 0.092795
0.903722 0.241189 0.093217
0.955152 0.244181 0.094110
0.996332 0.245709 0.094774
0.022754 0.305542 0.137768
0.075857 0.302518 0.139953
0.129012 0.302908 0.136432
0.173900 0.303163 0.121409
0.237937 0.302658 0.117255
0.303953 0.305148 0.115159
0.377722 0.308885 0.114330
0.449877 0.307086 0.110646
0.521782 0.303140 0.105277
0.591540 0.300966 0.102803
0.659050 0.300092 0.101507
0.724263 0.300089 0.100206
0.787122 0.300691 0.098055
0.847046 0.300960 0.094142
0.903170 0.302182 0.091956
0.954566 0.304193 0.091070
0.997037 0.305213 0.090734
0.029507 0.372691 0.150426
0.082004 0.371248 0.151079
0.134841 0.372212 0.145526
0.170849 0.371076 0.121201
0.236114 0.371823 0.118782
0.306204 0.371846 0.118403
0.372897 0.374054 0.116798
0.447735 0.376800 0.115964
0.519637 0.376271 0.112362
0.590884 0.372207 0.107117
0.659944 0.368833 0.104577
0.725797 0.367907 0.104612
0.788399 0.368106 0.104769
0.847635 0.367079 0.098724
0.902927 0.366459 0.093789
0.953828 0.366849 0.090129
0.997781 0.366993 0.087472
0.036132 0.441915 0.162815
0.088228 0.441355 0.161640
0.140182 0.441883 0.153952
0.172545 0.440527 0.126091
0.231384 0.440661 0.117085
0.305060 0.442252 0.121017
0.374034 0.442163 0.119148
0.444011 0.444223 0.119521
0.518349 0.447515 0.120380
0.589183 0.446452 0.115397
0.658882 0.442625 0.109757
0.726145 0.438953 0.107328
0.789709 0.437073 0.107239
0.848947 0.435324 0.102909
0.903897 0.434222 0.097681
0.954163 0.433317 0.092369
0.998494 0.432382 0.087701
0.042736 0.512039 0.174839
0.094608 0.512017 0.172071
0.145775 0.512252 0.162450
0.175005 0.510785 0.131621
0.231116 0.510010 0.120691
0.301741 0.512246 0.120975
0.371509 0.513081 0.122571
0.440990 0.512965 0.120060
0.514147 0.514620 0.123331
0.588311 0.517133 0.125020
0.657728 0.516569 0.119302
0.724963 0.512602 0.113138
0.789410 0.508984 0.109935
0.849744 0.506120 0.106423
0.904986 0.503804 0.102021
0.955062 0.501639 0.096758
0.999031 0.500088 0.091138
0.049331 0.582079 0.186578
0.101060 0.582308 0.182458
0.151925 0.582378 0.171543
0.177585 0.581025 0.137313
0.233690 0.579917 0.127489
0.299926 0.581245 0.123091
0.371305 0.583532 0.125370
0.436776 0.583345 0.123769
0.509599 0.583197 0.122119
0.585133 0.584253 0.126106
0.657215 0.586669 0.129493
0.724514 0.586320 0.123705
0.788430 0.582220 0.117490
0.849056 0.578451 0.111936
0.905089 0.575273 0.107315
0.955752 0.572383 0.102719
0.999256 0.569117 0.097193
0.055850 0.651063 0.198193
0.107459 0.651431 0.192897
0.158186 0.651367 0.181006
0.179829 0.650160 0.142846
0.236205 0.648942 0.134140
0.300018 0.649418 0.127977
0.370880 0.651742 0.127649
0.437361 0.652959 0.128148
0.502614 0.652254 0.125552
0.578150 0.651908 0.124374
0.653933 0.652630 0.129006
0.724215 0.656095 0.133410
0.788315 0.655429 0.128745
0.848400 0.651084 0.121524
0.904302 0.646390 0.114879
0.955268 0.643249 0.109846
0.999085 0.639154 0.104622
0.062185 0.718165 0.209860
0.113707 0.718569 0.203582
0.164510 0.718413 0.191084
0.181805 0.717393 0.148616
0.238494 0.716280 0.141003
0.300810 0.716095 0.134191
0.370131 0.717819 0.131694
0.439494 0.719761 0.131805
0.501578 0.719870 0.130954
0.569196 0.718887 0.127697
0.645261 0.718295 0.126937
0.719355 0.719009 0.131887
0.787879 0.723367 0.137914
0.848605 0.723365 0.133996
0.904039 0.718765 0.126642
0.954561 0.713545 0.119666
0.998531 0.708317 0.113414
0.068234 0.782501 0.221737
0.119690 0.782904 0.214624
0.170550 0.782648 0.201579
0.183378 0.781792 0.154559
0.240178 0.780756 0.147666
0.302227 0.780394 0.141640
0.369717 0.781280 0.137544
0.439759 0.783200 0.136152
0.505196 0.784372 0.135634
0.565599 0.783653 0.133562
0.634338 0.782549 0.130436
0.710233 0.781805 0.130114
0.781631 0.782512 0.135301
0.847877 0.788477 0.142939
0.904250 0.788558 0.139802
0.954498 0.784174 0.132414
0.997693 0.776536 0.124573
0.073953 0.843267 0.233908
0.125433 0.843643 0.226146
0.176354 0.843348 0.212682
0.184478 0.842672 0.160788
0.241424 0.841807 0.154672
0.302847 0.841264 0.148734
0.369235 0.841720 0.144483
0.439083 0.843096 0.141706
0.507729 0.844500 0.140430
0.569750 0.844656 0.139000
0.631182 0.843759 0.136359
0.701479 0.842555 0.133833
0.773696 0.841838 0.135139
0.840523 0.842620 0.140729
0.903308 0.849782 0.148289
0.954698 0.850173 0.145869
0.996723 0.843468 0.137810
0.079369 0.899691 0.246370
0.130909 0.900029 0.238043
0.181887 0.899701 0.224176
0.185228 0.899182 0.167237
0.242262 0.898460 0.161717
0.303471 0.897915 0.156280
0.368855 0.897946 0.151636
0.437791 0.898882 0.148375
0.507603 0.900154 0.146115
0.573719 0.900911 0.144528
0.633479 0.900578 0.142469
0.696768 0.899520 0.139398
0.765621 0.898237 0.137798
0.833605 0.897634 0.140420
0.895300 0.898489 0.146263
0.953670 0.906551 0.153686
0.995851 0.903410 0.150987
0.084570 0.951029 0.259056
0.136208 0.951320 0.250222
0.187245 0.950972 0.235956
0.185734 0.950591 0.173833
0.242810 0.949992 0.168755
0.303937 0.949496 0.163827
0.368869 0.949397 0.159459
0.436855 0.949891 0.155689
0.506778 0.950872 0.152511
0.575199 0.951793 0.150392
0.638161 0.951953 0.148205
0.697271 0.951305 0.145319
0.760445 0.950276 0.142682
0.826304 0.948961 0.142015
0.889469 0.948524 0.145712
0.945438 0.949435 0.151703
0.995181 0.954590 0.158080
0.089522 0.995387 0.271311
0.141142 0.995328 0.261910
0.192205 0.995268 0.247403
0.188036 0.995302 0.182403
0.243024 0.995233 0.175579
0.304206 0.995152 0.171132
0.368870 0.995063 0.167030
0.436065 0.994969 0.163202
0.504613 0.994872 0.159398
0.572867 0.994776 0.156131
0.638055 0.994686 0.153484
0.697923 0.994605 0.150703
0.757144 0.994528 0.147710
0.820047 0.994449 0.145827
0.882981 0.994058 0.146285
0.940690 0.993805 0.150887
0.989822 0.994252 0.156831
0.011069 0.015978 0.169170
0.069011 0.017692 0.174624
0.135390 0.021486 0.180156
0.181672 0.021125 0.165813
0.246452 0.023227 0.164674
0.313729 0.023128 0.163500
0.382807 0.022223 0.161618
0.452543 0.020891 0.158844
0.522212 0.019246 0.155443
0.591141 0.017445 0.151658
0.658724 0.015431 0.147662
0.724208 0.013461 0.143542
0.786977 0.011654 0.139593
0.846282 0.009933 0.135684
