working/Infinite_Arch_Leica_Looks_v1.2/Kin_Comparisons/IA_Kin.CUBE
#Created by: Infinite Arch
#Unique Leica Look ID: 1007
#Based Filmstyle Mode: Standard
TITLE "IA Kin"
#LUT size
LUT_3D_SIZE 17
#data domain
DOMAIN_MIN 0.0 0.0 0.0
DOMAIN_MAX 1.0 1.0 1.0
#LUT data points
0.004001 0.004000 0.003999
0.065926 0.010851 0.008953
0.124456 0.016869 0.013287
0.186697 0.022957 0.017655
0.251922 0.029113 0.022054
0.319404 0.035339 0.026483
0.388415 0.041631 0.030940
0.458228 0.047991 0.035422
0.528116 0.054418 0.039928
0.597352 0.060910 0.044454
0.665209 0.067468 0.049000
0.730957 0.074091 0.053564
0.793869 0.080777 0.058146
0.853215 0.087525 0.062746
0.908263 0.094333 0.067366
0.958281 0.101198 0.072008
0.994998 0.106864 0.075832
0.009183 0.045912 0.012599
0.050964 0.050881 0.007589
0.117714 0.060155 0.007961
0.182563 0.065279 0.011515
0.249863 0.072278 0.016806
0.319016 0.079835 0.022320
0.388904 0.087086 0.027484
0.459498 0.094530 0.032684
0.529856 0.101777 0.037643
0.599264 0.108795 0.042352
0.667249 0.115913 0.047080
0.733087 0.123121 0.051827
0.796051 0.130411 0.056592
0.855409 0.137776 0.061377
0.910428 0.145211 0.066185
0.960374 0.152709 0.071020
0.995406 0.157645 0.074652
0.015921 0.103925 0.023820
0.050254 0.103238 0.012430
0.109172 0.108961 0.011700
0.176286 0.116851 0.011250
0.243548 0.119562 0.011775
0.312033 0.123837 0.014603
0.382572 0.129947 0.018729
0.454208 0.137368 0.023896
0.525773 0.145207 0.029238
0.596592 0.153428 0.034731
0.665916 0.161838 0.040272
0.732402 0.169794 0.045443
0.795956 0.177883 0.050646
0.855839 0.186087 0.055882
0.911304 0.194393 0.061152
0.961603 0.202788 0.066462
0.995882 0.207168 0.070260
0.022781 0.166042 0.035237
0.053525 0.165192 0.020017
0.105412 0.166250 0.014427
0.171443 0.171049 0.015774
0.240024 0.178202 0.015776
0.309182 0.180635 0.014428
0.378778 0.182953 0.015452
0.449067 0.187039 0.018045
0.519964 0.192644 0.021600
0.590534 0.199152 0.025686
0.660212 0.206997 0.030780
0.727654 0.215058 0.035943
0.792165 0.223555 0.041304
0.852966 0.232300 0.046769
0.909284 0.241185 0.052291
0.960352 0.250192 0.057875
0.996402 0.255034 0.062359
0.029790 0.231506 0.046813
0.056522 0.230805 0.027142
0.107120 0.231093 0.021967
0.166780 0.232437 0.017231
0.237088 0.236413 0.019745
0.307349 0.242825 0.020456
0.377361 0.245877 0.018141
0.447848 0.247290 0.017701
0.517850 0.249599 0.018851
0.587341 0.253504 0.021215
0.655781 0.258513 0.024216
0.723041 0.265153 0.028164
0.787366 0.271983 0.032200
0.848587 0.280154 0.037243
0.905352 0.288499 0.042371
0.956904 0.296992 0.047581
0.996965 0.303190 0.052670
0.036990 0.299567 0.058500
0.059428 0.299049 0.034024
0.109653 0.299138 0.029784
0.166546 0.299588 0.023443
0.232458 0.301006 0.020389
0.305430 0.304326 0.023533
0.376974 0.310031 0.024816
0.447317 0.313726 0.022227
0.517838 0.315071 0.020712
0.587279 0.316308 0.020616
0.655161 0.318757 0.021876
0.721133 0.322457 0.024034
0.784820 0.327517 0.026947
0.845391 0.333495 0.030394
0.902062 0.340377 0.034370
0.953622 0.347407 0.038445
0.997579 0.354515 0.043439
0.044424 0.369472 0.070243
0.062493 0.369132 0.040845
0.112600 0.369155 0.037256
0.168375 0.369448 0.031120
0.230379 0.369820 0.024961
0.301427 0.371319 0.023705
0.375776 0.374057 0.027072
0.448056 0.379128 0.028986
0.518214 0.383198 0.026254
0.587849 0.384880 0.023945
0.656074 0.385696 0.022966
0.721879 0.386995 0.023214
0.784916 0.389615 0.024628
0.844564 0.393063 0.026654
0.900610 0.398114 0.029568
0.951680 0.403327 0.032611
0.997752 0.410179 0.036625
0.052124 0.440468 0.082001
0.065632 0.440284 0.047463
0.115724 0.440305 0.044274
0.170923 0.440542 0.038848
0.231523 0.440748 0.032022
0.298016 0.441098 0.026904
0.372401 0.442569 0.026883
0.447350 0.444844 0.030382
0.519625 0.449359 0.032747
0.589106 0.453494 0.030283
0.657057 0.455686 0.027611
0.723121 0.456557 0.026007
0.786241 0.457329 0.025469
0.845690 0.458506 0.025810
0.901057 0.461279 0.027468
0.951551 0.464419 0.029453
0.997055 0.469394 0.032463
0.060085 0.511785 0.093774
0.068968 0.511731 0.054003
0.119032 0.511783 0.051022
0.173935 0.511994 0.046279
0.233596 0.512218 0.039603
0.298066 0.512258 0.032923
0.368213 0.512626 0.029041
0.444531 0.514047 0.029998
0.519238 0.515883 0.033618
0.590692 0.519907 0.036274
0.658812 0.523966 0.034440
0.724319 0.526596 0.031497
0.787438 0.527512 0.029349
0.847042 0.528039 0.028408
0.902289 0.528867 0.028368
0.952585 0.529931 0.028863
0.997455 0.532827 0.030829
0.068241 0.582638 0.105614
0.072473 0.582687 0.060548
0.122473 0.582783 0.057660
0.177197 0.582978 0.053472
0.236185 0.583213 0.047306
0.299512 0.583278 0.040180
0.366831 0.583191 0.034020
0.439934 0.583580 0.031522
0.516805 0.584936 0.033285
0.590406 0.586327 0.037059
0.660266 0.589868 0.040105
0.726216 0.593671 0.038790
0.788726 0.596478 0.035997
0.848033 0.597721 0.033691
0.903255 0.598226 0.032269
0.953571 0.598512 0.031553
0.998202 0.599448 0.032019
0.076472 0.652220 0.117636
0.075959 0.652354 0.067136
0.125833 0.652489 0.064259
0.180475 0.652671 0.060564
0.238931 0.652905 0.054937
0.301446 0.653017 0.048046
0.367518 0.652878 0.041161
0.437326 0.652744 0.035972
0.511604 0.653066 0.034489
0.588119 0.654345 0.037027
0.659810 0.655327 0.040991
0.727312 0.658396 0.044497
0.790334 0.661887 0.043762
0.849168 0.664714 0.041204
0.903900 0.666328 0.038725
0.954033 0.666828 0.036822
0.998648 0.667100 0.036065
0.084628 0.719715 0.129980
0.083153 0.719926 0.077756
0.129208 0.720083 0.071198
0.183542 0.720253 0.067695
0.241783 0.720449 0.062808
0.303530 0.720602 0.056307
0.368617 0.720536 0.049101
0.436628 0.720219 0.042705
0.507705 0.720027 0.038658
0.582728 0.720356 0.038355
0.657512 0.721461 0.041414
0.726541 0.722079 0.045564
0.790963 0.724699 0.049543
0.850347 0.727851 0.049391
0.904814 0.730652 0.047057
0.954321 0.732592 0.044383
0.998345 0.732698 0.042387
0.092582 0.784315 0.142764
0.091187 0.784590 0.089861
0.132280 0.784761 0.078411
0.186453 0.784913 0.075184
0.244392 0.785079 0.070808
0.305515 0.785216 0.064802
0.369825 0.785203 0.057842
0.436736 0.784923 0.050933
0.505684 0.784520 0.045058
0.577813 0.784320 0.042297
0.651955 0.784586 0.042936
0.724234 0.785536 0.046434
0.789905 0.785851 0.050716
0.850567 0.788059 0.055126
0.905635 0.790868 0.055516
0.955074 0.793610 0.053360
0.997557 0.793996 0.050474
0.100272 0.845235 0.156040
0.098950 0.845557 0.102474
0.135010 0.845737 0.085959
0.189067 0.845869 0.082994
0.246754 0.845999 0.079054
0.307424 0.846117 0.073594
0.371054 0.846146 0.067026
0.437069 0.845965 0.059854
0.505030 0.845515 0.053421
0.574695 0.845077 0.048508
0.646466 0.844860 0.046655
0.718674 0.845060 0.048055
0.787720 0.845887 0.051884
0.849371 0.845963 0.056220
0.905605 0.847805 0.061000
0.955682 0.850276 0.061878
0.996746 0.849806 0.059322
0.107717 0.901714 0.169783
0.106457 0.902067 0.115575
0.137430 0.902254 0.093826
0.191370 0.902365 0.091054
0.248844 0.902464 0.087463
0.309273 0.902548 0.082609
0.372255 0.902575 0.076394
0.437597 0.902457 0.069419
0.504672 0.902109 0.062498
0.572884 0.901616 0.056416
0.642306 0.901171 0.052471
0.712889 0.900955 0.051407
0.782385 0.901117 0.053438
0.847479 0.901850 0.057491
0.904448 0.901750 0.061811
0.955566 0.903267 0.066910
0.995999 0.901124 0.067217
0.114998 0.953014 0.183900
0.113789 0.953379 0.129077
0.139625 0.953571 0.101936
0.193456 0.953662 0.099292
0.250749 0.953736 0.095961
0.311029 0.953795 0.091640
0.373498 0.953830 0.085775
0.438334 0.953765 0.079168
0.504646 0.953537 0.071954
0.571997 0.953073 0.065443
0.639661 0.952565 0.059723
0.708005 0.952137 0.056667
0.776573 0.951944 0.056279
0.842568 0.952089 0.058835
0.902969 0.952745 0.063035
0.954572 0.952525 0.067294
0.995357 0.948974 0.071768
0.121709 0.995379 0.197242
0.120505 0.995402 0.142059
0.141176 0.995391 0.109693
0.194576 0.995327 0.107137
0.251312 0.995255 0.103994
0.310893 0.995176 0.099967
0.372632 0.995093 0.094604
0.436424 0.995005 0.088231
0.501847 0.994914 0.081206
0.568369 0.994822 0.074234
0.635355 0.994730 0.067991
0.702342 0.994639 0.063143
0.769081 0.994551 0.060803
0.834345 0.994467 0.061015
0.895424 0.994391 0.063778
0.949712 0.994327 0.067908
0.994841 0.993280 0.072054
0.007597 0.008648 0.049011
0.061305 0.009495 0.056143
0.120665 0.014426 0.057093
0.183933 0.018903 0.059667
0.249503 0.022908 0.062029
0.317048 0.026996 0.064526
0.386092 0.031189 0.067131
0.455866 0.035403 0.069736
0.525733 0.039791 0.072469
0.594988 0.044361 0.075334
0.662869 0.048966 0.078206
0.728655 0.053606 0.081084
0.791623 0.058282 0.083966
0.851046 0.062993 0.086852
0.906197 0.067738 0.089743
0.956348 0.072515 0.092643
0.994809 0.076665 0.094720
0.005904 0.068628 0.065421
0.057268 0.057254 0.057225
0.119372 0.063257 0.062148
0.183780 0.066492 0.064715
0.249238 0.071675 0.068188
0.315555 0.077831 0.071990
0.384267 0.084684 0.077092
0.454938 0.093004 0.083960
0.525684 0.101531 0.090996
0.595687 0.110322 0.097214
0.664289 0.119259 0.103495
0.730747 0.128327 0.109829
0.794316 0.137514 0.116210
0.853890 0.145144 0.121447
0.909130 0.152836 0.126705
0.959298 0.160588 0.131988
0.995541 0.166220 0.135585
0.012218 0.115391 0.063792
0.061230 0.109249 0.063372
0.110550 0.111261 0.056528
0.178527 0.117488 0.060112
0.245859 0.121226 0.065352
0.313967 0.126313 0.070101
0.383964 0.132965 0.074501
0.455587 0.142302 0.081303
0.527465 0.152728 0.089238
0.598043 0.163244 0.096281
0.666892 0.173508 0.103201
0.733579 0.183896 0.110210
0.797343 0.194397 0.117297
0.856988 0.202657 0.122865
0.912221 0.210995 0.128450
0.962302 0.219403 0.134059
0.996137 0.224055 0.137482
0.020116 0.171044 0.075708
0.067881 0.169832 0.073842
0.108561 0.169394 0.060682
0.170846 0.171883 0.059612
0.241247 0.176651 0.063520
0.310434 0.178904 0.068244
0.379008 0.184280 0.076841
0.449484 0.189712 0.078022
0.521213 0.197386 0.081544
0.592608 0.207004 0.087092
0.662851 0.218130 0.093988
0.730945 0.230288 0.101721
0.795464 0.241900 0.109098
0.856000 0.251665 0.115554
0.911996 0.261506 0.122058
0.962706 0.271415 0.128617
0.996740 0.276510 0.133051
0.027750 0.233987 0.089116
0.074387 0.234097 0.084749
0.106564 0.233443 0.063942
0.167115 0.234133 0.065296
0.236794 0.236120 0.064421
0.307553 0.239386 0.068730
0.378360 0.241500 0.071684
0.447865 0.243914 0.074878
0.517150 0.247833 0.076359
0.586608 0.253795 0.078871
0.655706 0.261187 0.082477
0.723763 0.271057 0.087892
0.789053 0.281906 0.094158
0.850817 0.292947 0.101351
0.907993 0.304120 0.108693
0.959781 0.315293 0.116060
0.997282 0.322140 0.121958
0.035355 0.300836 0.102497
0.081684 0.301469 0.096388
0.110527 0.300860 0.073275
0.168356 0.301816 0.070271
0.227226 0.301672 0.068098
0.304515 0.302528 0.069469
0.377036 0.306458 0.075213
0.448033 0.307001 0.075067
0.517869 0.308548 0.076112
0.585763 0.310401 0.075927
0.652663 0.313904 0.076650
0.718489 0.319485 0.078665
0.783176 0.327279 0.082422
0.844750 0.336043 0.087609
0.902503 0.346645 0.094269
0.954959 0.357197 0.100968
0.997788 0.365585 0.107152
0.043078 0.370069 0.115710
0.089506 0.370917 0.108395
0.114783 0.370470 0.081930
0.169755 0.370917 0.076914
0.230253 0.371862 0.075303
0.292884 0.371128 0.070879
0.374702 0.372981 0.074240
0.448989 0.377733 0.081752
0.519134 0.375860 0.080153
0.587939 0.376589 0.078545
0.654559 0.377329 0.077180
0.718784 0.378630 0.076327
0.780834 0.381547 0.076512
0.841368 0.388342 0.080100
0.898299 0.396049 0.084462
0.950741 0.404699 0.089590
0.997269 0.413361 0.094753
0.050999 0.440635 0.128751
0.097658 0.441593 0.120505
0.118975 0.441336 0.089958
0.172550 0.441494 0.084852
0.234417 0.442524 0.081456
0.293911 0.442386 0.078000
0.365061 0.441808 0.074394
0.446447 0.444479 0.080547
0.521888 0.451064 0.088735
0.590357 0.448044 0.085161
0.657299 0.446654 0.081965
0.722135 0.446852 0.079708
0.783390 0.446675 0.077700
0.842053 0.448984 0.078098
0.897114 0.452614 0.079685
0.948640 0.459182 0.083277
0.994526 0.465745 0.086940
0.059129 0.511663 0.141662
0.106040 0.512665 0.132635
0.122978 0.512547 0.097441
0.176441 0.512652 0.093067
0.236909 0.513393 0.088843
0.300514 0.514020 0.084682
0.362200 0.513259 0.079878
0.438031 0.512688 0.078621
0.518233 0.515976 0.086935
0.593577 0.522943 0.095128
0.660766 0.521215 0.091209
0.725050 0.518578 0.086825
0.786861 0.517563 0.083502
0.845269 0.517536 0.081563
0.899413 0.517966 0.080707
0.949353 0.520603 0.081752
0.994038 0.523774 0.083401
0.067417 0.582316 0.154533
0.114597 0.583320 0.144864
0.126864 0.583318 0.104654
0.180069 0.583418 0.100553
0.239241 0.583918 0.096185
0.303350 0.584666 0.091430
0.367405 0.584593 0.086640
0.433451 0.583574 0.082021
0.511179 0.583117 0.082874
0.589808 0.586473 0.092140
0.663439 0.593527 0.101407
0.728931 0.593508 0.098162
0.789865 0.590086 0.092672
0.847933 0.588207 0.088277
0.902272 0.587974 0.086053
0.951665 0.588076 0.084899
0.995673 0.588502 0.084522
0.075751 0.651760 0.167503
0.123177 0.652733 0.157293
0.130708 0.652819 0.111927
0.183820 0.652947 0.108140
0.242059 0.653283 0.103826
0.305199 0.653922 0.098844
0.371124 0.654285 0.093820
0.435663 0.653650 0.088513
0.505786 0.652482 0.084928
0.583455 0.652331 0.087952
0.659305 0.655218 0.097877
0.730690 0.662457 0.108344
0.793583 0.663697 0.106192
0.850671 0.660382 0.099359
0.904288 0.658207 0.094473
0.953564 0.657167 0.091390
0.997580 0.656753 0.089597
0.083986 0.719162 0.180730
0.131628 0.720079 0.170063
0.134295 0.720237 0.119335
0.187276 0.720382 0.115767
0.245188 0.720646 0.111952
0.307037 0.721111 0.106877
0.372785 0.721566 0.101568
0.439699 0.721498 0.096464
0.505705 0.720426 0.091009
0.576974 0.719143 0.088665
0.653712 0.719323 0.093740
0.726136 0.721730 0.104278
0.794470 0.728978 0.115996
0.853565 0.730503 0.113612
0.906577 0.728142 0.106818
0.955042 0.725738 0.101276
0.998382 0.723882 0.097213
0.092001 0.783707 0.194339
0.139834 0.784547 0.183282
0.137535 0.784766 0.127012
0.190653 0.784923 0.123881
0.248058 0.785122 0.120257
0.309270 0.785462 0.115672
0.373882 0.785873 0.110068
0.441067 0.786005 0.104607
0.507916 0.785406 0.099000
0.575161 0.784233 0.094417
0.647225 0.782949 0.093870
0.721209 0.783341 0.100205
0.789608 0.785289 0.111269
0.853680 0.791832 0.122228
0.908734 0.794046 0.121377
0.956946 0.792513 0.114691
0.997563 0.787787 0.108052
0.099739 0.844601 0.208389
0.147883 0.845353 0.197103
0.145505 0.845623 0.140149
0.193473 0.845777 0.132105
0.250578 0.845933 0.128751
0.311152 0.846164 0.124450
0.374872 0.846480 0.119090
0.441394 0.846683 0.113428
0.508906 0.846478 0.107970
0.575173 0.845619 0.102138
0.643207 0.844362 0.098646
0.714237 0.843233 0.099445
0.785016 0.843788 0.106335
0.849094 0.845363 0.117185
0.908358 0.851095 0.128718
0.958591 0.853721 0.129236
0.996686 0.847644 0.121686
0.107225 0.901082 0.222853
0.155682 0.901739 0.211366
0.153357 0.902043 0.153889
0.195980 0.902195 0.140597
0.252880 0.902318 0.137496
0.313096 0.902482 0.133594
0.376046 0.902707 0.128469
0.441682 0.902921 0.122677
0.509076 0.902893 0.117046
0.575970 0.902376 0.111368
0.641965 0.901372 0.105964
0.709452 0.900148 0.103376
0.778243 0.899198 0.105226
0.845082 0.899888 0.112554
0.904211 0.901140 0.123154
0.957979 0.906094 0.135215
0.995901 0.901333 0.135349
0.114546 0.952410 0.237643
0.163325 0.952968 0.225968
0.161025 0.953288 0.167977
0.198275 0.953439 0.149277
0.254989 0.953535 0.146340
0.314938 0.953647 0.142765
0.377439 0.953800 0.138046
0.442256 0.953960 0.132357
0.508993 0.954000 0.126460
0.576116 0.953748 0.120678
0.641872 0.953071 0.114674
0.707100 0.952086 0.110043
0.773046 0.950934 0.108272
0.838733 0.950172 0.110971
0.900874 0.950959 0.118651
0.954389 0.951930 0.128987
0.995273 0.948891 0.139929
0.121374 0.995357 0.251545
0.170166 0.995300 0.239536
0.167807 0.995329 0.181261
0.199417 0.995299 0.157094
0.255571 0.995226 0.154223
0.314881 0.995147 0.150885
0.376543 0.995062 0.146486
0.440139 0.994974 0.140920
0.505675 0.994883 0.134929
0.572321 0.994790 0.129119
0.638435 0.994699 0.123396
0.702874 0.994614 0.117357
0.767224 0.994530 0.113662
0.831654 0.994448 0.112833
0.893916 0.994372 0.116322
0.949645 0.994306 0.124105
0.994781 0.992790 0.133651
0.011902 0.014224 0.106789
0.068750 0.014417 0.115734
0.119728 0.014702 0.109004
0.181914 0.019773 0.109305
0.247698 0.024601 0.112092
0.315576 0.029299 0.115051
0.384708 0.033645 0.117788
0.454536 0.037724 0.120419
0.524386 0.041868 0.123118
0.593589 0.046101 0.125913
0.661392 0.050347 0.128674
0.727220 0.054718 0.131540
0.790228 0.059113 0.134388
0.849700 0.063534 0.137223
0.904914 0.067982 0.140049
0.955150 0.072456 0.142870
0.994841 0.076702 0.144843
0.009282 0.064327 0.113940
0.060013 0.059647 0.110801
0.118082 0.064141 0.115127
0.183673 0.068943 0.116722
0.248478 0.070986 0.117711
0.314977 0.074948 0.119660
0.382931 0.079408 0.122262
0.452579 0.084560 0.125771
0.522473 0.089864 0.129625
0.592156 0.095237 0.133127
0.660621 0.100983 0.136848
0.727006 0.106881 0.140627
0.790567 0.112904 0.144453
0.850350 0.118382 0.147858
0.905827 0.123879 0.151248
0.956266 0.129396 0.154630
0.995271 0.133738 0.156612
0.007496 0.126436 0.120162
0.061104 0.119578 0.118764
0.115111 0.115055 0.114943
0.179497 0.120110 0.118744
0.245706 0.125441 0.122987
0.315209 0.128965 0.125762
0.385431 0.132604 0.128614
0.456208 0.138222 0.132663
0.525092 0.144084 0.136244
0.592858 0.150661 0.140015
0.659817 0.157683 0.144483
0.725504 0.165187 0.149914
0.788433 0.172837 0.155441
0.848913 0.181967 0.162751
0.905056 0.191236 0.170169
0.956108 0.200626 0.177689
0.996016 0.208332 0.183762
0.012418 0.183094 0.118739
0.066850 0.173946 0.117182
0.120651 0.172788 0.121918
0.173738 0.174178 0.113926
0.242835 0.176641 0.111971
0.311974 0.180829 0.116311
0.383991 0.186236 0.123891
0.456372 0.191182 0.128707
0.524527 0.196937 0.133560
0.593351 0.203067 0.137476
0.661046 0.209833 0.141577
0.727199 0.217415 0.146524
0.790500 0.225222 0.151561
0.851325 0.235978 0.159803
0.907722 0.246947 0.168225
0.958922 0.258098 0.176813
0.996677 0.266130 0.183384
0.020715 0.241711 0.128744
0.074541 0.235716 0.130413
0.127662 0.236002 0.131979
0.173702 0.235955 0.120814
0.236479 0.237864 0.115368
0.308488 0.241960 0.115558
0.379248 0.245325 0.119944
0.450378 0.250062 0.126617
0.520949 0.252376 0.130315
0.590472 0.257540 0.135603
0.658770 0.263574 0.140137
0.725501 0.270904 0.144901
0.789587 0.278471 0.149307
0.850745 0.288548 0.156115
0.907572 0.299322 0.163689
0.959229 0.310677 0.171904
0.997308 0.318539 0.178534
0.029422 0.305373 0.142717
0.082368 0.302301 0.144870
0.134946 0.303129 0.142651
0.175427 0.304229 0.126751
0.235682 0.302590 0.121732
0.302438 0.304631 0.117954
0.376849 0.308226 0.120550
0.448401 0.310856 0.124068
0.519357 0.312265 0.127226
0.588575 0.315506 0.133583
0.656216 0.320591 0.140720
0.722030 0.326984 0.147151
0.785923 0.334217 0.152029
0.847098 0.341600 0.154420
0.904233 0.350480 0.158917
0.956399 0.360550 0.165033
0.997900 0.368689 0.171140
0.038045 0.372603 0.157439
0.090471 0.371329 0.158561
0.142660 0.372872 0.154283
0.172811 0.373143 0.128198
0.235240 0.373064 0.125125
0.301878 0.371660 0.124372
0.372082 0.373523 0.120811
0.446844 0.373899 0.123455
0.518370 0.377947 0.126952
0.588628 0.378928 0.129807
0.656581 0.380681 0.135998
0.721806 0.385386 0.144802
0.784161 0.391786 0.153889
0.844428 0.397241 0.154289
0.900676 0.403519 0.156087
0.952766 0.411397 0.159063
0.998445 0.419789 0.163404
0.046640 0.441929 0.172079
0.098750 0.441688 0.171755
0.149993 0.442970 0.165482
0.175458 0.443323 0.135194
0.230796 0.443632 0.124966
0.302278 0.443204 0.129551
0.368821 0.442054 0.126153
0.445294 0.443676 0.124430
0.517490 0.442432 0.129077
0.588274 0.446192 0.131398
0.657228 0.447394 0.133476
0.723358 0.448581 0.139146
0.785889 0.451756 0.147695
0.844626 0.455345 0.150824
0.899813 0.460208 0.152915
0.950775 0.465806 0.154601
0.996623 0.472355 0.157027
0.055291 0.512165 0.186482
0.107250 0.512573 0.184864
0.157685 0.513702 0.176846
0.179388 0.513960 0.143000
0.230951 0.514148 0.130734
0.300362 0.514934 0.131326
0.367248 0.513852 0.132894
0.437415 0.512962 0.127664
0.516711 0.513334 0.129375
0.587814 0.511411 0.135759
0.657247 0.515040 0.137148
0.724018 0.516018 0.138474
0.787461 0.516967 0.142735
0.846584 0.518495 0.146579
0.901088 0.520858 0.149347
0.950870 0.523686 0.150922
0.995873 0.528514 0.152603
0.063986 0.582319 0.200708
0.115870 0.583045 0.197942
0.166027 0.584082 0.188799
0.183890 0.584328 0.151133
0.235308 0.584411 0.140394
0.299378 0.585226 0.135615
0.369263 0.585641 0.138289
0.432377 0.584030 0.134984
0.507919 0.583329 0.130806
0.587288 0.581886 0.134328
0.657230 0.581088 0.142788
0.724553 0.584315 0.143933
0.788012 0.584433 0.144835
0.847762 0.584959 0.146256
0.902743 0.585974 0.148396
0.952454 0.587138 0.150301
0.996589 0.589176 0.151551
0.072641 0.651411 0.214891
0.124465 0.652323 0.211136
0.174508 0.653264 0.201157
0.188100 0.653512 0.159096
0.239841 0.653542 0.149797
0.300662 0.654126 0.143094
0.370228 0.655099 0.142879
0.434705 0.654644 0.142756
0.499035 0.652906 0.137617
0.578360 0.652228 0.134605
0.656394 0.650163 0.139814
0.724886 0.651464 0.149930
0.788906 0.653419 0.151753
0.848466 0.652464 0.151162
0.903649 0.651842 0.151290
0.953636 0.652551 0.152612
0.997758 0.653343 0.153820
0.081135 0.718609 0.229219
0.132925 0.719583 0.224627
0.183085 0.720419 0.214138
0.192161 0.720690 0.167333
0.244465 0.720741 0.159407
0.303127 0.721063 0.152021
0.370748 0.721984 0.149381
0.438577 0.722447 0.149159
0.498829 0.721227 0.146750
0.567072 0.719569 0.140900
0.647147 0.718886 0.139360
0.723197 0.717913 0.145909
0.789135 0.719714 0.157853
0.849704 0.721620 0.160127
0.904539 0.719672 0.158904
0.954341 0.717896 0.158343
0.998386 0.717271 0.158566
0.089359 0.783022 0.243826
0.141134 0.784001 0.238527
0.191387 0.784718 0.227602
0.195762 0.785006 0.175764
0.248369 0.785057 0.168757
0.306772 0.785267 0.162403
0.371738 0.785915 0.157927
0.440281 0.786686 0.156197
0.504029 0.786537 0.154632
0.563520 0.784858 0.150301
0.633746 0.783275 0.145025
0.713545 0.782673 0.144991
0.786689 0.782715 0.152639
0.849659 0.785503 0.166631
0.905809 0.787250 0.169422
0.955385 0.784901 0.167639
0.997593 0.779752 0.165652
0.097271 0.843842 0.258781
0.149118 0.844779 0.252923
0.199481 0.845396 0.241640
0.198960 0.845721 0.184493
0.252034 0.845802 0.178427
0.309611 0.845912 0.172205
0.373211 0.846347 0.167629
0.441130 0.847026 0.164402
0.508133 0.847324 0.162264
0.568719 0.846441 0.159143
0.629959 0.844825 0.154231
0.702561 0.843407 0.150335
0.778233 0.842968 0.152808
0.846510 0.843662 0.161592
0.905496 0.847448 0.175878
0.956623 0.849394 0.179278
0.996678 0.842790 0.175751
0.104904 0.900296 0.274068
0.156859 0.901166 0.267723
0.207328 0.901680 0.256102
0.203158 0.902028 0.194837
0.255232 0.902125 0.188122
0.312675 0.902200 0.182523
0.374797 0.902442 0.177506
0.441542 0.902952 0.173825
0.509575 0.903388 0.170783
0.574058 0.903192 0.167809
0.632813 0.902050 0.163782
0.696817 0.900536 0.158634
0.768210 0.899203 0.156450
0.839122 0.898985 0.161035
0.901975 0.900241 0.170712
0.956129 0.904807 0.185285
0.995837 0.900716 0.187479
0.112354 0.951638 0.289604
0.164454 0.952422 0.282819
0.215035 0.952836 0.270868
0.211218 0.953187 0.209523
0.258099 0.953296 0.197793
0.315612 0.953353 0.192831
0.377223 0.953509 0.188200
0.442552 0.953845 0.183979
0.510394 0.954268 0.180057
0.577057 0.954406 0.176723
0.638658 0.953806 0.172731
0.697453 0.952584 0.167767
0.761833 0.951261 0.163504
0.830178 0.950012 0.163002
0.895692 0.950035 0.169399
0.952402 0.951617 0.179785
0.995188 0.950570 0.192720
0.119430 0.995337 0.304333
0.171373 0.995274 0.296788
0.221722 0.995212 0.284371
0.218103 0.995245 0.223104
0.259399 0.995197 0.206155
0.316584 0.995120 0.201653
0.377380 0.995037 0.197316
0.441338 0.994947 0.193122
0.507447 0.994854 0.188739
0.573916 0.994761 0.184505
0.637866 0.994673 0.180403
0.697268 0.994594 0.175832
0.757051 0.994518 0.171024
0.821612 0.994438 0.168102
0.887000 0.994359 0.169531
0.946134 0.994291 0.177419
0.994331 0.994237 0.187841
0.016244 0.019859 0.168560
0.071168 0.019211 0.174309
0.135988 0.020023 0.180125
0.181949 0.019962 0.165138
0.247087 0.025205 0.165198
0.314629 0.030067 0.167443
0.383937 0.034972 0.170564
0.453910 0.039777 0.173710
0.523827 0.044364 0.176731
0.593002 0.048790 0.179628
0.660839 0.052983 0.182444
0.726547 0.057164 0.185194
0.789522 0.061483 0.188120
0.848989 0.065857 0.191085
