working/Infinite_Arch_Leica_Looks_v1.2/Kin_Comparisons/IA_Kin.CUBE
#Created by: Infinite Arch
#Unique Leica Look ID: 1007
#Based Filmstyle Mode: Standard
TITLE "IA Kin"
#LUT size
LUT_3D_SIZE 5
#data domain
DOMAIN_MIN 0.0 0.0 0.0
DOMAIN_MAX 1.0 1.0 1.0
#LUT data points
0.004001 0.004000 0.003999
0.251922 0.029113 0.022054
0.528116 0.054418 0.039928
0.793869 0.080777 0.058146
0.994998 0.106864 0.075832
0.029790 0.231506 0.046813
0.237088 0.236413 0.019745
0.517850 0.249599 0.018851
0.787366 0.271983 0.032200
0.996965 0.303190 0.052670
0.060085 0.511785 0.093774
0.233596 0.512218 0.039603
0.519238 0.515883 0.033618
0.787438 0.527512 0.029349
0.997455 0.532827 0.030829
0.092582 0.784315 0.142764
0.244392 0.785079 0.070808
0.505684 0.784520 0.045058
0.789905 0.785851 0.050716
0.997557 0.793996 0.050474
0.121709 0.995379 0.197242
0.251312 0.995255 0.103994
0.501847 0.994914 0.081206
0.769081 0.994551 0.060803
0.994841 0.993280 0.072054
0.020622 0.025554 0.233574
0.247235 0.025276 0.223982
0.523576 0.045540 0.231861
0.789377 0.064336 0.244410
0.994945 0.081240 0.254568
0.010878 0.252135 0.238795
0.241855 0.241479 0.240726
0.521019 0.261749 0.255188
0.792853 0.277957 0.267081
0.997223 0.301236 0.281246
0.039752 0.517353 0.269541
0.275826 0.513785 0.280717
0.514164 0.515136 0.241545
0.788121 0.524289 0.248077
0.999240 0.536951 0.270238
0.078013 0.782837 0.335175
0.309192 0.785753 0.329899
0.513249 0.786865 0.265745
0.780832 0.782676 0.255859
0.997382 0.784470 0.269333
0.110813 0.995305 0.403576
0.334916 0.995007 0.382937
0.493819 0.994828 0.281548
0.765218 0.994457 0.288821
0.994625 0.993238 0.282838
0.038496 0.048910 0.511094
0.295329 0.046815 0.518026
0.524325 0.047071 0.475138
0.790659 0.068819 0.479835
0.995180 0.089107 0.488821
0.026104 0.277481 0.515053
0.263695 0.261395 0.512230
0.524863 0.270853 0.508525
0.800780 0.292876 0.513151
0.997479 0.299042 0.510775
0.019505 0.524741 0.494712
0.251625 0.515919 0.508158
0.520681 0.517777 0.511969
0.788633 0.533751 0.521408
0.999230 0.556353 0.539248
0.042084 0.786358 0.511638
0.292460 0.775893 0.523457
0.557178 0.782769 0.555477
0.783560 0.783252 0.515110
0.997118 0.779924 0.497608
0.076465 0.995274 0.576076
0.331171 0.991452 0.595973
0.587227 0.994546 0.607119
0.786129 0.994325 0.556368
0.989943 0.994135 0.527483
0.056933 0.073145 0.780624
0.312538 0.068382 0.783562
0.604824 0.070227 0.786920
0.791686 0.069739 0.724393
0.995402 0.091985 0.720446
0.043686 0.304972 0.779976
0.281544 0.277495 0.779722
0.562595 0.295717 0.780622
0.794515 0.293674 0.756748
0.997929 0.313434 0.743269
0.033735 0.568379 0.780565
0.270604 0.537783 0.776351
0.543186 0.538267 0.777040
0.790419 0.547931 0.771800
0.999111 0.566076 0.777338
0.028447 0.787777 0.745519
0.258456 0.775519 0.755562
0.526972 0.779929 0.774118
0.786245 0.783880 0.779149
0.996469 0.795400 0.787797
0.042869 0.995237 0.757456
0.287752 0.988770 0.770859
0.560420 0.984366 0.790921
0.816508 0.993834 0.820170
0.992947 0.994064 0.785813
0.075863 0.098137 0.993822
0.326978 0.088619 0.993647
0.626078 0.092575 0.993210
0.877365 0.093278 0.992653
0.995600 0.092301 0.928718
0.061956 0.335724 0.992653
0.302283 0.305098 0.992272
0.599451 0.314850 0.991177
0.847334 0.324049 0.990178
0.998126 0.310004 0.950675
0.052191 0.593333 0.989807
0.291008 0.559798 0.989429
0.569468 0.562448 0.988245
0.824897 0.570607 0.988788
0.998967 0.570954 0.972820
0.040356 0.838484 0.988935
0.278701 0.805685 0.982992
0.539233 0.796997 0.989578
0.804561 0.802003 0.991095
0.995996 0.808438 0.987865
0.033102 0.995158 0.957242
0.266614 0.986558 0.966459
0.528473 0.987997 0.982095
0.788640 0.991230 0.990039
0.994050 0.994017 0.993950
