source/confirmed_python/first_custom_test/InfiniteArchTest.CUBE
#Created by: Infinite Arch Leica Look Builder
#Unique Leica Look ID: 27
#Based Filmstyle Mode: Standard
TITLE "Infinite Arch Test"
LUT_3D_SIZE 5
DOMAIN_MIN 0.0 0.0 0.0
DOMAIN_MAX 1.0 1.0 1.0
0.000000 0.150000 0.000000
0.250000 0.150000 0.000000
0.500000 0.150000 0.000000
0.750000 0.150000 0.000000
1.000000 0.150000 0.000000
0.000000 0.325000 0.000000
0.250000 0.325000 0.000000
0.500000 0.325000 0.000000
0.750000 0.325000 0.000000
1.000000 0.325000 0.000000
0.000000 0.500000 0.000000
0.250000 0.500000 0.000000
0.500000 0.500000 0.000000
0.750000 0.500000 0.000000
1.000000 0.500000 0.000000
0.000000 0.675000 0.000000
0.250000 0.675000 0.000000
0.500000 0.675000 0.000000
0.750000 0.675000 0.000000
1.000000 0.675000 0.000000
0.000000 0.850000 0.000000
0.250000 0.850000 0.000000
0.500000 0.850000 0.000000
0.750000 0.850000 0.000000
1.000000 0.850000 0.000000
0.000000 0.150000 0.250000
0.250000 0.150000 0.250000
0.500000 0.150000 0.250000
0.750000 0.150000 0.250000
1.000000 0.150000 0.250000
0.000000 0.325000 0.250000
0.250000 0.325000 0.250000
0.500000 0.325000 0.250000
0.750000 0.325000 0.250000
1.000000 0.325000 0.250000
0.000000 0.500000 0.250000
0.250000 0.500000 0.250000
0.500000 0.500000 0.250000
0.750000 0.500000 0.250000
1.000000 0.500000 0.250000
0.000000 0.675000 0.250000
0.250000 0.675000 0.250000
0.500000 0.675000 0.250000
0.750000 0.675000 0.250000
1.000000 0.675000 0.250000
0.000000 0.850000 0.250000
0.250000 0.850000 0.250000
0.500000 0.850000 0.250000
0.750000 0.850000 0.250000
1.000000 0.850000 0.250000
0.000000 0.150000 0.500000
0.250000 0.150000 0.500000
0.500000 0.150000 0.500000
0.750000 0.150000 0.500000
1.000000 0.150000 0.500000
0.000000 0.325000 0.500000
0.250000 0.325000 0.500000
0.500000 0.325000 0.500000
0.750000 0.325000 0.500000
1.000000 0.325000 0.500000
0.000000 0.500000 0.500000
0.250000 0.500000 0.500000
0.500000 0.500000 0.500000
0.750000 0.500000 0.500000
1.000000 0.500000 0.500000
0.000000 0.675000 0.500000
0.250000 0.675000 0.500000
0.500000 0.675000 0.500000
0.750000 0.675000 0.500000
1.000000 0.675000 0.500000
0.000000 0.850000 0.500000
0.250000 0.850000 0.500000
0.500000 0.850000 0.500000
0.750000 0.850000 0.500000
1.000000 0.850000 0.500000
0.000000 0.150000 0.750000
0.250000 0.150000 0.750000
0.500000 0.150000 0.750000
0.750000 0.150000 0.750000
1.000000 0.150000 0.750000
0.000000 0.325000 0.750000
0.250000 0.325000 0.750000
0.500000 0.325000 0.750000
0.750000 0.325000 0.750000
1.000000 0.325000 0.750000
0.000000 0.500000 0.750000
0.250000 0.500000 0.750000
0.500000 0.500000 0.750000
0.750000 0.500000 0.750000
1.000000 0.500000 0.750000
0.000000 0.675000 0.750000
0.250000 0.675000 0.750000
0.500000 0.675000 0.750000
0.750000 0.675000 0.750000
1.000000 0.675000 0.750000
0.000000 0.850000 0.750000
0.250000 0.850000 0.750000
0.500000 0.850000 0.750000
0.750000 0.850000 0.750000
1.000000 0.850000 0.750000
0.000000 0.150000 1.000000
0.250000 0.150000 1.000000
0.500000 0.150000 1.000000
0.750000 0.150000 1.000000
1.000000 0.150000 1.000000
0.000000 0.325000 1.000000
0.250000 0.325000 1.000000
0.500000 0.325000 1.000000
0.750000 0.325000 1.000000
1.000000 0.325000 1.000000
0.000000 0.500000 1.000000
0.250000 0.500000 1.000000
0.500000 0.500000 1.000000
0.750000 0.500000 1.000000
1.000000 0.500000 1.000000
0.000000 0.675000 1.000000
0.250000 0.675000 1.000000
0.500000 0.675000 1.000000
0.750000 0.675000 1.000000
1.000000 0.675000 1.000000
0.000000 0.850000 1.000000
0.250000 0.850000 1.000000
0.500000 0.850000 1.000000
0.750000 0.850000 1.000000
1.000000 0.850000 1.000000
