source/confirmed_python/first_custom_test/InfiniteArchTest.CUBE
#Created by: Infinite Arch Leica Look Builder
#Unique Leica Look ID: 27
#Based Filmstyle Mode: Standard
TITLE "Infinite Arch Test"
LUT_3D_SIZE 17
DOMAIN_MIN 0.0 0.0 0.0
DOMAIN_MAX 1.0 1.0 1.0
0.000000 0.150000 0.000000
0.062500 0.150000 0.000000
0.125000 0.150000 0.000000
0.187500 0.150000 0.000000
0.250000 0.150000 0.000000
0.312500 0.150000 0.000000
0.375000 0.150000 0.000000
0.437500 0.150000 0.000000
0.500000 0.150000 0.000000
0.562500 0.150000 0.000000
0.625000 0.150000 0.000000
0.687500 0.150000 0.000000
0.750000 0.150000 0.000000
0.812500 0.150000 0.000000
0.875000 0.150000 0.000000
0.937500 0.150000 0.000000
1.000000 0.150000 0.000000
0.000000 0.193750 0.000000
0.062500 0.193750 0.000000
0.125000 0.193750 0.000000
0.187500 0.193750 0.000000
0.250000 0.193750 0.000000
0.312500 0.193750 0.000000
0.375000 0.193750 0.000000
0.437500 0.193750 0.000000
0.500000 0.193750 0.000000
0.562500 0.193750 0.000000
0.625000 0.193750 0.000000
0.687500 0.193750 0.000000
0.750000 0.193750 0.000000
0.812500 0.193750 0.000000
0.875000 0.193750 0.000000
0.937500 0.193750 0.000000
1.000000 0.193750 0.000000
0.000000 0.237500 0.000000
0.062500 0.237500 0.000000
0.125000 0.237500 0.000000
0.187500 0.237500 0.000000
0.250000 0.237500 0.000000
0.312500 0.237500 0.000000
0.375000 0.237500 0.000000
0.437500 0.237500 0.000000
0.500000 0.237500 0.000000
0.562500 0.237500 0.000000
0.625000 0.237500 0.000000
0.687500 0.237500 0.000000
0.750000 0.237500 0.000000
0.812500 0.237500 0.000000
0.875000 0.237500 0.000000
0.937500 0.237500 0.000000
1.000000 0.237500 0.000000
0.000000 0.281250 0.000000
0.062500 0.281250 0.000000
0.125000 0.281250 0.000000
0.187500 0.281250 0.000000
0.250000 0.281250 0.000000
0.312500 0.281250 0.000000
0.375000 0.281250 0.000000
0.437500 0.281250 0.000000
0.500000 0.281250 0.000000
0.562500 0.281250 0.000000
0.625000 0.281250 0.000000
0.687500 0.281250 0.000000
0.750000 0.281250 0.000000
0.812500 0.281250 0.000000
0.875000 0.281250 0.000000
0.937500 0.281250 0.000000
1.000000 0.281250 0.000000
0.000000 0.325000 0.000000
0.062500 0.325000 0.000000
0.125000 0.325000 0.000000
0.187500 0.325000 0.000000
0.250000 0.325000 0.000000
0.312500 0.325000 0.000000
0.375000 0.325000 0.000000
0.437500 0.325000 0.000000
0.500000 0.325000 0.000000
0.562500 0.325000 0.000000
0.625000 0.325000 0.000000
0.687500 0.325000 0.000000
0.750000 0.325000 0.000000
0.812500 0.325000 0.000000
0.875000 0.325000 0.000000
0.937500 0.325000 0.000000
1.000000 0.325000 0.000000
0.000000 0.368750 0.000000
0.062500 0.368750 0.000000
0.125000 0.368750 0.000000
0.187500 0.368750 0.000000
0.250000 0.368750 0.000000
0.312500 0.368750 0.000000
0.375000 0.368750 0.000000
0.437500 0.368750 0.000000
0.500000 0.368750 0.000000
0.562500 0.368750 0.000000
0.625000 0.368750 0.000000
0.687500 0.368750 0.000000
0.750000 0.368750 0.000000
0.812500 0.368750 0.000000
0.875000 0.368750 0.000000
0.937500 0.368750 0.000000
1.000000 0.368750 0.000000
0.000000 0.412500 0.000000
0.062500 0.412500 0.000000
0.125000 0.412500 0.000000
0.187500 0.412500 0.000000
0.250000 0.412500 0.000000
0.312500 0.412500 0.000000
0.375000 0.412500 0.000000
0.437500 0.412500 0.000000
0.500000 0.412500 0.000000
0.562500 0.412500 0.000000
0.625000 0.412500 0.000000
0.687500 0.412500 0.000000
0.750000 0.412500 0.000000
0.812500 0.412500 0.000000
0.875000 0.412500 0.000000
0.937500 0.412500 0.000000
1.000000 0.412500 0.000000
0.000000 0.456250 0.000000
0.062500 0.456250 0.000000
0.125000 0.456250 0.000000
0.187500 0.456250 0.000000
0.250000 0.456250 0.000000
0.312500 0.456250 0.000000
0.375000 0.456250 0.000000
0.437500 0.456250 0.000000
0.500000 0.456250 0.000000
0.562500 0.456250 0.000000
0.625000 0.456250 0.000000
0.687500 0.456250 0.000000
0.750000 0.456250 0.000000
0.812500 0.456250 0.000000
0.875000 0.456250 0.000000
0.937500 0.456250 0.000000
1.000000 0.456250 0.000000
0.000000 0.500000 0.000000
0.062500 0.500000 0.000000
0.125000 0.500000 0.000000
0.187500 0.500000 0.000000
0.250000 0.500000 0.000000
0.312500 0.500000 0.000000
0.375000 0.500000 0.000000
0.437500 0.500000 0.000000
0.500000 0.500000 0.000000
0.562500 0.500000 0.000000
0.625000 0.500000 0.000000
0.687500 0.500000 0.000000
0.750000 0.500000 0.000000
0.812500 0.500000 0.000000
0.875000 0.500000 0.000000
0.937500 0.500000 0.000000
1.000000 0.500000 0.000000
0.000000 0.543750 0.000000
0.062500 0.543750 0.000000
0.125000 0.543750 0.000000
0.187500 0.543750 0.000000
0.250000 0.543750 0.000000
0.312500 0.543750 0.000000
0.375000 0.543750 0.000000
0.437500 0.543750 0.000000
0.500000 0.543750 0.000000
0.562500 0.543750 0.000000
0.625000 0.543750 0.000000
0.687500 0.543750 0.000000
0.750000 0.543750 0.000000
0.812500 0.543750 0.000000
0.875000 0.543750 0.000000
0.937500 0.543750 0.000000
1.000000 0.543750 0.000000
0.000000 0.587500 0.000000
0.062500 0.587500 0.000000
0.125000 0.587500 0.000000
0.187500 0.587500 0.000000
0.250000 0.587500 0.000000
0.312500 0.587500 0.000000
0.375000 0.587500 0.000000
0.437500 0.587500 0.000000
0.500000 0.587500 0.000000
0.562500 0.587500 0.000000
0.625000 0.587500 0.000000
0.687500 0.587500 0.000000
0.750000 0.587500 0.000000
0.812500 0.587500 0.000000
0.875000 0.587500 0.000000
0.937500 0.587500 0.000000
1.000000 0.587500 0.000000
0.000000 0.631250 0.000000
0.062500 0.631250 0.000000
0.125000 0.631250 0.000000
0.187500 0.631250 0.000000
0.250000 0.631250 0.000000
0.312500 0.631250 0.000000
0.375000 0.631250 0.000000
0.437500 0.631250 0.000000
0.500000 0.631250 0.000000
0.562500 0.631250 0.000000
0.625000 0.631250 0.000000
0.687500 0.631250 0.000000
0.750000 0.631250 0.000000
0.812500 0.631250 0.000000
0.875000 0.631250 0.000000
0.937500 0.631250 0.000000
1.000000 0.631250 0.000000
0.000000 0.675000 0.000000
0.062500 0.675000 0.000000
0.125000 0.675000 0.000000
0.187500 0.675000 0.000000
0.250000 0.675000 0.000000
0.312500 0.675000 0.000000
0.375000 0.675000 0.000000
0.437500 0.675000 0.000000
0.500000 0.675000 0.000000
0.562500 0.675000 0.000000
0.625000 0.675000 0.000000
0.687500 0.675000 0.000000
0.750000 0.675000 0.000000
0.812500 0.675000 0.000000
0.875000 0.675000 0.000000
0.937500 0.675000 0.000000
1.000000 0.675000 0.000000
0.000000 0.718750 0.000000
0.062500 0.718750 0.000000
0.125000 0.718750 0.000000
0.187500 0.718750 0.000000
0.250000 0.718750 0.000000
0.312500 0.718750 0.000000
0.375000 0.718750 0.000000
0.437500 0.718750 0.000000
0.500000 0.718750 0.000000
0.562500 0.718750 0.000000
0.625000 0.718750 0.000000
0.687500 0.718750 0.000000
0.750000 0.718750 0.000000
0.812500 0.718750 0.000000
0.875000 0.718750 0.000000
0.937500 0.718750 0.000000
1.000000 0.718750 0.000000
0.000000 0.762500 0.000000
0.062500 0.762500 0.000000
0.125000 0.762500 0.000000
0.187500 0.762500 0.000000
0.250000 0.762500 0.000000
0.312500 0.762500 0.000000
0.375000 0.762500 0.000000
0.437500 0.762500 0.000000
0.500000 0.762500 0.000000
0.562500 0.762500 0.000000
0.625000 0.762500 0.000000
0.687500 0.762500 0.000000
0.750000 0.762500 0.000000
0.812500 0.762500 0.000000
0.875000 0.762500 0.000000
0.937500 0.762500 0.000000
1.000000 0.762500 0.000000
0.000000 0.806250 0.000000
0.062500 0.806250 0.000000
0.125000 0.806250 0.000000
0.187500 0.806250 0.000000
0.250000 0.806250 0.000000
0.312500 0.806250 0.000000
0.375000 0.806250 0.000000
0.437500 0.806250 0.000000
0.500000 0.806250 0.000000
0.562500 0.806250 0.000000
0.625000 0.806250 0.000000
0.687500 0.806250 0.000000
0.750000 0.806250 0.000000
0.812500 0.806250 0.000000
0.875000 0.806250 0.000000
0.937500 0.806250 0.000000
1.000000 0.806250 0.000000
0.000000 0.850000 0.000000
0.062500 0.850000 0.000000
0.125000 0.850000 0.000000
0.187500 0.850000 0.000000
0.250000 0.850000 0.000000
0.312500 0.850000 0.000000
0.375000 0.850000 0.000000
0.437500 0.850000 0.000000
0.500000 0.850000 0.000000
0.562500 0.850000 0.000000
0.625000 0.850000 0.000000
0.687500 0.850000 0.000000
0.750000 0.850000 0.000000
0.812500 0.850000 0.000000
0.875000 0.850000 0.000000
0.937500 0.850000 0.000000
1.000000 0.850000 0.000000
0.000000 0.150000 0.062500
0.062500 0.150000 0.062500
0.125000 0.150000 0.062500
0.187500 0.150000 0.062500
0.250000 0.150000 0.062500
0.312500 0.150000 0.062500
0.375000 0.150000 0.062500
0.437500 0.150000 0.062500
0.500000 0.150000 0.062500
0.562500 0.150000 0.062500
0.625000 0.150000 0.062500
0.687500 0.150000 0.062500
0.750000 0.150000 0.062500
0.812500 0.150000 0.062500
0.875000 0.150000 0.062500
0.937500 0.150000 0.062500
1.000000 0.150000 0.062500
0.000000 0.193750 0.062500
0.062500 0.193750 0.062500
0.125000 0.193750 0.062500
0.187500 0.193750 0.062500
0.250000 0.193750 0.062500
0.312500 0.193750 0.062500
0.375000 0.193750 0.062500
0.437500 0.193750 0.062500
0.500000 0.193750 0.062500
0.562500 0.193750 0.062500
0.625000 0.193750 0.062500
0.687500 0.193750 0.062500
0.750000 0.193750 0.062500
0.812500 0.193750 0.062500
0.875000 0.193750 0.062500
0.937500 0.193750 0.062500
1.000000 0.193750 0.062500
0.000000 0.237500 0.062500
0.062500 0.237500 0.062500
0.125000 0.237500 0.062500
0.187500 0.237500 0.062500
0.250000 0.237500 0.062500
0.312500 0.237500 0.062500
0.375000 0.237500 0.062500
0.437500 0.237500 0.062500
0.500000 0.237500 0.062500
0.562500 0.237500 0.062500
0.625000 0.237500 0.062500
0.687500 0.237500 0.062500
0.750000 0.237500 0.062500
0.812500 0.237500 0.062500
0.875000 0.237500 0.062500
0.937500 0.237500 0.062500
1.000000 0.237500 0.062500
0.000000 0.281250 0.062500
0.062500 0.281250 0.062500
0.125000 0.281250 0.062500
0.187500 0.281250 0.062500
0.250000 0.281250 0.062500
0.312500 0.281250 0.062500
0.375000 0.281250 0.062500
0.437500 0.281250 0.062500
0.500000 0.281250 0.062500
0.562500 0.281250 0.062500
0.625000 0.281250 0.062500
0.687500 0.281250 0.062500
0.750000 0.281250 0.062500
0.812500 0.281250 0.062500
0.875000 0.281250 0.062500
0.937500 0.281250 0.062500
1.000000 0.281250 0.062500
0.000000 0.325000 0.062500
0.062500 0.325000 0.062500
0.125000 0.325000 0.062500
0.187500 0.325000 0.062500
0.250000 0.325000 0.062500
0.312500 0.325000 0.062500
0.375000 0.325000 0.062500
0.437500 0.325000 0.062500
0.500000 0.325000 0.062500
0.562500 0.325000 0.062500
0.625000 0.325000 0.062500
0.687500 0.325000 0.062500
0.750000 0.325000 0.062500
0.812500 0.325000 0.062500
0.875000 0.325000 0.062500
0.937500 0.325000 0.062500
1.000000 0.325000 0.062500
0.000000 0.368750 0.062500
0.062500 0.368750 0.062500
0.125000 0.368750 0.062500
0.187500 0.368750 0.062500
0.250000 0.368750 0.062500
0.312500 0.368750 0.062500
0.375000 0.368750 0.062500
0.437500 0.368750 0.062500
0.500000 0.368750 0.062500
0.562500 0.368750 0.062500
0.625000 0.368750 0.062500
0.687500 0.368750 0.062500
0.750000 0.368750 0.062500
0.812500 0.368750 0.062500
0.875000 0.368750 0.062500
0.937500 0.368750 0.062500
1.000000 0.368750 0.062500
0.000000 0.412500 0.062500
0.062500 0.412500 0.062500
0.125000 0.412500 0.062500
0.187500 0.412500 0.062500
0.250000 0.412500 0.062500
0.312500 0.412500 0.062500
0.375000 0.412500 0.062500
0.437500 0.412500 0.062500
0.500000 0.412500 0.062500
0.562500 0.412500 0.062500
0.625000 0.412500 0.062500
0.687500 0.412500 0.062500
0.750000 0.412500 0.062500
0.812500 0.412500 0.062500
0.875000 0.412500 0.062500
0.937500 0.412500 0.062500
1.000000 0.412500 0.062500
0.000000 0.456250 0.062500
0.062500 0.456250 0.062500
0.125000 0.456250 0.062500
0.187500 0.456250 0.062500
0.250000 0.456250 0.062500
0.312500 0.456250 0.062500
0.375000 0.456250 0.062500
0.437500 0.456250 0.062500
0.500000 0.456250 0.062500
0.562500 0.456250 0.062500
0.625000 0.456250 0.062500
0.687500 0.456250 0.062500
0.750000 0.456250 0.062500
0.812500 0.456250 0.062500
0.875000 0.456250 0.062500
0.937500 0.456250 0.062500
1.000000 0.456250 0.062500
0.000000 0.500000 0.062500
0.062500 0.500000 0.062500
0.125000 0.500000 0.062500
0.187500 0.500000 0.062500
0.250000 0.500000 0.062500
0.312500 0.500000 0.062500
0.375000 0.500000 0.062500
0.437500 0.500000 0.062500
0.500000 0.500000 0.062500
0.562500 0.500000 0.062500
0.625000 0.500000 0.062500
0.687500 0.500000 0.062500
0.750000 0.500000 0.062500
0.812500 0.500000 0.062500
0.875000 0.500000 0.062500
0.937500 0.500000 0.062500
1.000000 0.500000 0.062500
0.000000 0.543750 0.062500
0.062500 0.543750 0.062500
0.125000 0.543750 0.062500
0.187500 0.543750 0.062500
0.250000 0.543750 0.062500
0.312500 0.543750 0.062500
0.375000 0.543750 0.062500
0.437500 0.543750 0.062500
0.500000 0.543750 0.062500
0.562500 0.543750 0.062500
0.625000 0.543750 0.062500
0.687500 0.543750 0.062500
0.750000 0.543750 0.062500
0.812500 0.543750 0.062500
0.875000 0.543750 0.062500
0.937500 0.543750 0.062500
1.000000 0.543750 0.062500
0.000000 0.587500 0.062500
0.062500 0.587500 0.062500
0.125000 0.587500 0.062500
0.187500 0.587500 0.062500
0.250000 0.587500 0.062500
0.312500 0.587500 0.062500
0.375000 0.587500 0.062500
0.437500 0.587500 0.062500
0.500000 0.587500 0.062500
0.562500 0.587500 0.062500
0.625000 0.587500 0.062500
0.687500 0.587500 0.062500
0.750000 0.587500 0.062500
0.812500 0.587500 0.062500
0.875000 0.587500 0.062500
0.937500 0.587500 0.062500
1.000000 0.587500 0.062500
0.000000 0.631250 0.062500
0.062500 0.631250 0.062500
0.125000 0.631250 0.062500
0.187500 0.631250 0.062500
0.250000 0.631250 0.062500
0.312500 0.631250 0.062500
0.375000 0.631250 0.062500
0.437500 0.631250 0.062500
0.500000 0.631250 0.062500
0.562500 0.631250 0.062500
0.625000 0.631250 0.062500
0.687500 0.631250 0.062500
0.750000 0.631250 0.062500
0.812500 0.631250 0.062500
0.875000 0.631250 0.062500
0.937500 0.631250 0.062500
1.000000 0.631250 0.062500
0.000000 0.675000 0.062500
0.062500 0.675000 0.062500
0.125000 0.675000 0.062500
0.187500 0.675000 0.062500
0.250000 0.675000 0.062500
0.312500 0.675000 0.062500
0.375000 0.675000 0.062500
0.437500 0.675000 0.062500
0.500000 0.675000 0.062500
0.562500 0.675000 0.062500
0.625000 0.675000 0.062500
0.687500 0.675000 0.062500
0.750000 0.675000 0.062500
0.812500 0.675000 0.062500
0.875000 0.675000 0.062500
0.937500 0.675000 0.062500
1.000000 0.675000 0.062500
0.000000 0.718750 0.062500
0.062500 0.718750 0.062500
0.125000 0.718750 0.062500
0.187500 0.718750 0.062500
0.250000 0.718750 0.062500
0.312500 0.718750 0.062500
0.375000 0.718750 0.062500
0.437500 0.718750 0.062500
0.500000 0.718750 0.062500
0.562500 0.718750 0.062500
0.625000 0.718750 0.062500
0.687500 0.718750 0.062500
0.750000 0.718750 0.062500
0.812500 0.718750 0.062500
0.875000 0.718750 0.062500
0.937500 0.718750 0.062500
1.000000 0.718750 0.062500
0.000000 0.762500 0.062500
0.062500 0.762500 0.062500
0.125000 0.762500 0.062500
0.187500 0.762500 0.062500
0.250000 0.762500 0.062500
0.312500 0.762500 0.062500
0.375000 0.762500 0.062500
0.437500 0.762500 0.062500
0.500000 0.762500 0.062500
0.562500 0.762500 0.062500
0.625000 0.762500 0.062500
0.687500 0.762500 0.062500
0.750000 0.762500 0.062500
0.812500 0.762500 0.062500
0.875000 0.762500 0.062500
0.937500 0.762500 0.062500
1.000000 0.762500 0.062500
0.000000 0.806250 0.062500
0.062500 0.806250 0.062500
0.125000 0.806250 0.062500
0.187500 0.806250 0.062500
0.250000 0.806250 0.062500
0.312500 0.806250 0.062500
0.375000 0.806250 0.062500
0.437500 0.806250 0.062500
0.500000 0.806250 0.062500
0.562500 0.806250 0.062500
0.625000 0.806250 0.062500
0.687500 0.806250 0.062500
0.750000 0.806250 0.062500
0.812500 0.806250 0.062500
0.875000 0.806250 0.062500
0.937500 0.806250 0.062500
1.000000 0.806250 0.062500
0.000000 0.850000 0.062500
0.062500 0.850000 0.062500
0.125000 0.850000 0.062500
0.187500 0.850000 0.062500
0.250000 0.850000 0.062500
0.312500 0.850000 0.062500
0.375000 0.850000 0.062500
0.437500 0.850000 0.062500
0.500000 0.850000 0.062500
0.562500 0.850000 0.062500
0.625000 0.850000 0.062500
0.687500 0.850000 0.062500
0.750000 0.850000 0.062500
0.812500 0.850000 0.062500
0.875000 0.850000 0.062500
0.937500 0.850000 0.062500
1.000000 0.850000 0.062500
0.000000 0.150000 0.125000
0.062500 0.150000 0.125000
0.125000 0.150000 0.125000
0.187500 0.150000 0.125000
0.250000 0.150000 0.125000
0.312500 0.150000 0.125000
0.375000 0.150000 0.125000
0.437500 0.150000 0.125000
0.500000 0.150000 0.125000
0.562500 0.150000 0.125000
0.625000 0.150000 0.125000
0.687500 0.150000 0.125000
0.750000 0.150000 0.125000
0.812500 0.150000 0.125000
0.875000 0.150000 0.125000
0.937500 0.150000 0.125000
1.000000 0.150000 0.125000
0.000000 0.193750 0.125000
0.062500 0.193750 0.125000
0.125000 0.193750 0.125000
0.187500 0.193750 0.125000
0.250000 0.193750 0.125000
0.312500 0.193750 0.125000
0.375000 0.193750 0.125000
0.437500 0.193750 0.125000
0.500000 0.193750 0.125000
0.562500 0.193750 0.125000
0.625000 0.193750 0.125000
0.687500 0.193750 0.125000
0.750000 0.193750 0.125000
0.812500 0.193750 0.125000
0.875000 0.193750 0.125000
0.937500 0.193750 0.125000
1.000000 0.193750 0.125000
0.000000 0.237500 0.125000
0.062500 0.237500 0.125000
0.125000 0.237500 0.125000
0.187500 0.237500 0.125000
0.250000 0.237500 0.125000
0.312500 0.237500 0.125000
0.375000 0.237500 0.125000
0.437500 0.237500 0.125000
0.500000 0.237500 0.125000
0.562500 0.237500 0.125000
0.625000 0.237500 0.125000
0.687500 0.237500 0.125000
0.750000 0.237500 0.125000
0.812500 0.237500 0.125000
0.875000 0.237500 0.125000
0.937500 0.237500 0.125000
1.000000 0.237500 0.125000
0.000000 0.281250 0.125000
0.062500 0.281250 0.125000
0.125000 0.281250 0.125000
0.187500 0.281250 0.125000
0.250000 0.281250 0.125000
0.312500 0.281250 0.125000
0.375000 0.281250 0.125000
0.437500 0.281250 0.125000
0.500000 0.281250 0.125000
0.562500 0.281250 0.125000
0.625000 0.281250 0.125000
0.687500 0.281250 0.125000
0.750000 0.281250 0.125000
0.812500 0.281250 0.125000
0.875000 0.281250 0.125000
0.937500 0.281250 0.125000
1.000000 0.281250 0.125000
0.000000 0.325000 0.125000
0.062500 0.325000 0.125000
0.125000 0.325000 0.125000
0.187500 0.325000 0.125000
0.250000 0.325000 0.125000
0.312500 0.325000 0.125000
0.375000 0.325000 0.125000
0.437500 0.325000 0.125000
0.500000 0.325000 0.125000
0.562500 0.325000 0.125000
0.625000 0.325000 0.125000
0.687500 0.325000 0.125000
0.750000 0.325000 0.125000
0.812500 0.325000 0.125000
0.875000 0.325000 0.125000
0.937500 0.325000 0.125000
1.000000 0.325000 0.125000
0.000000 0.368750 0.125000
0.062500 0.368750 0.125000
0.125000 0.368750 0.125000
0.187500 0.368750 0.125000
0.250000 0.368750 0.125000
0.312500 0.368750 0.125000
0.375000 0.368750 0.125000
0.437500 0.368750 0.125000
0.500000 0.368750 0.125000
0.562500 0.368750 0.125000
0.625000 0.368750 0.125000
0.687500 0.368750 0.125000
0.750000 0.368750 0.125000
0.812500 0.368750 0.125000
0.875000 0.368750 0.125000
0.937500 0.368750 0.125000
1.000000 0.368750 0.125000
0.000000 0.412500 0.125000
0.062500 0.412500 0.125000
0.125000 0.412500 0.125000
0.187500 0.412500 0.125000
0.250000 0.412500 0.125000
0.312500 0.412500 0.125000
0.375000 0.412500 0.125000
0.437500 0.412500 0.125000
0.500000 0.412500 0.125000
0.562500 0.412500 0.125000
0.625000 0.412500 0.125000
0.687500 0.412500 0.125000
0.750000 0.412500 0.125000
0.812500 0.412500 0.125000
0.875000 0.412500 0.125000
0.937500 0.412500 0.125000
1.000000 0.412500 0.125000
0.000000 0.456250 0.125000
0.062500 0.456250 0.125000
0.125000 0.456250 0.125000
0.187500 0.456250 0.125000
0.250000 0.456250 0.125000
0.312500 0.456250 0.125000
0.375000 0.456250 0.125000
0.437500 0.456250 0.125000
0.500000 0.456250 0.125000
0.562500 0.456250 0.125000
0.625000 0.456250 0.125000
0.687500 0.456250 0.125000
0.750000 0.456250 0.125000
0.812500 0.456250 0.125000
0.875000 0.456250 0.125000
0.937500 0.456250 0.125000
1.000000 0.456250 0.125000
0.000000 0.500000 0.125000
0.062500 0.500000 0.125000
0.125000 0.500000 0.125000
0.187500 0.500000 0.125000
0.250000 0.500000 0.125000
0.312500 0.500000 0.125000
0.375000 0.500000 0.125000
0.437500 0.500000 0.125000
0.500000 0.500000 0.125000
0.562500 0.500000 0.125000
0.625000 0.500000 0.125000
0.687500 0.500000 0.125000
0.750000 0.500000 0.125000
0.812500 0.500000 0.125000
0.875000 0.500000 0.125000
0.937500 0.500000 0.125000
1.000000 0.500000 0.125000
0.000000 0.543750 0.125000
0.062500 0.543750 0.125000
0.125000 0.543750 0.125000
0.187500 0.543750 0.125000
0.250000 0.543750 0.125000
0.312500 0.543750 0.125000
0.375000 0.543750 0.125000
0.437500 0.543750 0.125000
0.500000 0.543750 0.125000
0.562500 0.543750 0.125000
0.625000 0.543750 0.125000
0.687500 0.543750 0.125000
0.750000 0.543750 0.125000
0.812500 0.543750 0.125000
0.875000 0.543750 0.125000
0.937500 0.543750 0.125000
1.000000 0.543750 0.125000
0.000000 0.587500 0.125000
0.062500 0.587500 0.125000
0.125000 0.587500 0.125000
0.187500 0.587500 0.125000
0.250000 0.587500 0.125000
0.312500 0.587500 0.125000
0.375000 0.587500 0.125000
0.437500 0.587500 0.125000
0.500000 0.587500 0.125000
0.562500 0.587500 0.125000
0.625000 0.587500 0.125000
0.687500 0.587500 0.125000
0.750000 0.587500 0.125000
0.812500 0.587500 0.125000
0.875000 0.587500 0.125000
0.937500 0.587500 0.125000
1.000000 0.587500 0.125000
0.000000 0.631250 0.125000
0.062500 0.631250 0.125000
0.125000 0.631250 0.125000
0.187500 0.631250 0.125000
0.250000 0.631250 0.125000
0.312500 0.631250 0.125000
0.375000 0.631250 0.125000
0.437500 0.631250 0.125000
0.500000 0.631250 0.125000
0.562500 0.631250 0.125000
0.625000 0.631250 0.125000
0.687500 0.631250 0.125000
0.750000 0.631250 0.125000
0.812500 0.631250 0.125000
0.875000 0.631250 0.125000
0.937500 0.631250 0.125000
1.000000 0.631250 0.125000
0.000000 0.675000 0.125000
0.062500 0.675000 0.125000
0.125000 0.675000 0.125000
0.187500 0.675000 0.125000
0.250000 0.675000 0.125000
0.312500 0.675000 0.125000
0.375000 0.675000 0.125000
0.437500 0.675000 0.125000
0.500000 0.675000 0.125000
0.562500 0.675000 0.125000
0.625000 0.675000 0.125000
0.687500 0.675000 0.125000
0.750000 0.675000 0.125000
0.812500 0.675000 0.125000
0.875000 0.675000 0.125000
0.937500 0.675000 0.125000
1.000000 0.675000 0.125000
0.000000 0.718750 0.125000
0.062500 0.718750 0.125000
0.125000 0.718750 0.125000
0.187500 0.718750 0.125000
0.250000 0.718750 0.125000
0.312500 0.718750 0.125000
0.375000 0.718750 0.125000
0.437500 0.718750 0.125000
0.500000 0.718750 0.125000
0.562500 0.718750 0.125000
0.625000 0.718750 0.125000
0.687500 0.718750 0.125000
0.750000 0.718750 0.125000
0.812500 0.718750 0.125000
0.875000 0.718750 0.125000
0.937500 0.718750 0.125000
1.000000 0.718750 0.125000
0.000000 0.762500 0.125000
0.062500 0.762500 0.125000
0.125000 0.762500 0.125000
0.187500 0.762500 0.125000
0.250000 0.762500 0.125000
0.312500 0.762500 0.125000
0.375000 0.762500 0.125000
0.437500 0.762500 0.125000
0.500000 0.762500 0.125000
0.562500 0.762500 0.125000
0.625000 0.762500 0.125000
0.687500 0.762500 0.125000
0.750000 0.762500 0.125000
0.812500 0.762500 0.125000
0.875000 0.762500 0.125000
0.937500 0.762500 0.125000
1.000000 0.762500 0.125000
0.000000 0.806250 0.125000
0.062500 0.806250 0.125000
0.125000 0.806250 0.125000
0.187500 0.806250 0.125000
0.250000 0.806250 0.125000
0.312500 0.806250 0.125000
0.375000 0.806250 0.125000
0.437500 0.806250 0.125000
0.500000 0.806250 0.125000
0.562500 0.806250 0.125000
0.625000 0.806250 0.125000
0.687500 0.806250 0.125000
0.750000 0.806250 0.125000
0.812500 0.806250 0.125000
0.875000 0.806250 0.125000
0.937500 0.806250 0.125000
1.000000 0.806250 0.125000
0.000000 0.850000 0.125000
0.062500 0.850000 0.125000
0.125000 0.850000 0.125000
0.187500 0.850000 0.125000
0.250000 0.850000 0.125000
0.312500 0.850000 0.125000
0.375000 0.850000 0.125000
0.437500 0.850000 0.125000
0.500000 0.850000 0.125000
0.562500 0.850000 0.125000
0.625000 0.850000 0.125000
0.687500 0.850000 0.125000
0.750000 0.850000 0.125000
0.812500 0.850000 0.125000
0.875000 0.850000 0.125000
0.937500 0.850000 0.125000
1.000000 0.850000 0.125000
0.000000 0.150000 0.187500
0.062500 0.150000 0.187500
0.125000 0.150000 0.187500
0.187500 0.150000 0.187500
0.250000 0.150000 0.187500
0.312500 0.150000 0.187500
0.375000 0.150000 0.187500
0.437500 0.150000 0.187500
0.500000 0.150000 0.187500
0.562500 0.150000 0.187500
0.625000 0.150000 0.187500
0.687500 0.150000 0.187500
0.750000 0.150000 0.187500
0.812500 0.150000 0.187500
