source/experimental_legacy_banks/assets/stillness/look.CUBE
#Created by: Infinite Arch Leica Look Builder
#Unique Leica Look ID: 0
#Based Filmstyle Mode: Standard
TITLE "Stillness"
LUT_3D_SIZE 17
DOMAIN_MIN 0.0 0.0 0.0
DOMAIN_MAX 1.0 1.0 1.0
0.022301 0.019997 0.017694
0.086941 0.018722 0.016419
0.151419 0.017447 0.015143
0.215695 0.016172 0.013868
0.279735 0.014896 0.012593
0.343515 0.013621 0.011317
0.407012 0.012346 0.010042
0.470205 0.011070 0.008766
0.533077 0.009795 0.007491
0.595609 0.008519 0.006215
0.657787 0.007244 0.004940
0.719596 0.005968 0.003664
0.781022 0.004693 0.002389
0.842052 0.003417 0.001113
0.902673 0.002142 0.000000
0.962872 0.000866 0.000000
1.000000 0.000000 0.000000
0.018011 0.081633 0.013404
0.082659 0.080360 0.012128
0.147150 0.079088 0.010853
0.211440 0.077815 0.009578
0.275497 0.076542 0.008302
0.339295 0.075269 0.007027
0.402812 0.073996 0.005751
0.466026 0.072722 0.004476
0.528919 0.071449 0.003200
0.591474 0.070176 0.001924
0.653676 0.068903 0.000649
0.715510 0.067629 0.000000
0.776962 0.066356 0.000000
0.838018 0.065082 0.000000
0.898666 0.063809 0.000000
0.958894 0.062535 0.000000
1.000000 0.061261 0.000000
0.013721 0.143126 0.009113
0.078378 0.141857 0.007838
0.142880 0.140587 0.006562
0.207185 0.139318 0.005287
0.271258 0.138048 0.004011
0.335074 0.136778 0.002736
0.398610 0.135509 0.001460
0.461844 0.134239 0.000184
0.524759 0.132969 0.000000
0.587338 0.131699 0.000000
0.649564 0.130429 0.000000
0.711422 0.129158 0.000000
0.772900 0.127888 0.000000
0.833983 0.126618 0.000000
0.894658 0.125347 0.000000
0.954915 0.124077 0.000000
1.000000 0.122806 0.000000
0.009430 0.204439 0.004822
0.074095 0.203173 0.003547
0.138610 0.201908 0.002271
0.202928 0.200642 0.000996
0.267018 0.199377 0.000000
0.330852 0.198111 0.000000
0.394406 0.196845 0.000000
0.457661 0.195579 0.000000
0.520598 0.194313 0.000000
0.583199 0.193047 0.000000
0.645449 0.191781 0.000000
0.707333 0.190515 0.000000
0.768836 0.189248 0.000000
0.829945 0.187982 0.000000
0.890648 0.186715 0.000000
0.950933 0.185449 0.000000
1.000000 0.184182 0.000000
0.005139 0.265542 0.000531
0.069812 0.264282 0.000000
0.134338 0.263021 0.000000
0.198671 0.261760 0.000000
0.262776 0.260499 0.000000
0.326628 0.259237 0.000000
0.390202 0.257976 0.000000
0.453477 0.256715 0.000000
0.516436 0.255453 0.000000
0.579060 0.254191 0.000000
0.641333 0.252930 0.000000
0.703242 0.251668 0.000000
0.764770 0.250406 0.000000
0.825906 0.249144 0.000000
0.886637 0.247882 0.000000
0.946949 0.246620 0.000000
1.000000 0.245358 0.000000
0.000848 0.326414 0.000000
0.065528 0.325158 0.000000
0.130065 0.323902 0.000000
0.194412 0.322646 0.000000
0.258534 0.321390 0.000000
0.322403 0.320134 0.000000
0.385996 0.318878 0.000000
0.449292 0.317621 0.000000
0.512272 0.316365 0.000000
0.574918 0.315108 0.000000
0.637216 0.313851 0.000000
0.699149 0.312594 0.000000
0.760703 0.311337 0.000000
0.821865 0.310080 0.000000
0.882623 0.308823 0.000000
0.942964 0.307566 0.000000
1.000000 0.306308 0.000000
0.000000 0.387033 0.000000
0.061243 0.385783 0.000000
0.125792 0.384532 0.000000
0.190152 0.383282 0.000000
0.254290 0.382031 0.000000
0.318177 0.380780 0.000000
0.381789 0.379529 0.000000
0.445105 0.378278 0.000000
0.508106 0.377027 0.000000
0.570776 0.375776 0.000000
0.633097 0.374524 0.000000
0.695054 0.373273 0.000000
0.756634 0.372021 0.000000
0.817823 0.370769 0.000000
0.878607 0.369517 0.000000
0.938976 0.368265 0.000000
0.998917 0.367013 0.000000
0.000000 0.447382 0.000000
0.056958 0.446138 0.000000
0.121518 0.444893 0.000000
0.185892 0.443648 0.000000
0.250045 0.442403 0.000000
0.313949 0.441158 0.000000
0.377580 0.439913 0.000000
0.440917 0.438667 0.000000
0.503940 0.437422 0.000000
0.566631 0.436176 0.000000
0.628976 0.434930 0.000000
0.690958 0.433685 0.000000
0.752563 0.432439 0.000000
0.813778 0.431192 0.000000
0.874590 0.429946 0.000000
0.934987 0.428700 0.000000
0.994957 0.427453 0.000000
0.000000 0.507445 0.000000
0.052672 0.506206 0.000000
0.117243 0.504967 0.000000
0.181631 0.503729 0.000000
0.245799 0.502490 0.000000
0.309721 0.501251 0.000000
0.373370 0.500011 0.000000
0.436727 0.498772 0.000000
0.499771 0.497533 0.000000
0.562485 0.496293 0.000000
0.624853 0.495053 0.000000
0.686860 0.493813 0.000000
0.748491 0.492573 0.000000
0.809732 0.491333 0.000000
0.870571 0.490093 0.000000
0.930996 0.488853 0.000000
0.990994 0.487612 0.000000
0.000000 0.567205 0.000000
0.048386 0.565973 0.000000
0.112967 0.564741 0.000000
0.177368 0.563508 0.000000
0.241552 0.562276 0.000000
0.305491 0.561043 0.000000
0.369159 0.559810 0.000000
0.432536 0.558577 0.000000
0.495601 0.557344 0.000000
0.558338 0.556111 0.000000
0.620730 0.554877 0.000000
0.682760 0.553644 0.000000
0.744417 0.552410 0.000000
0.805684 0.551176 0.000000
0.866550 0.549942 0.000000
0.927003 0.548708 0.000000
0.987030 0.547474 0.000000
0.000000 0.626650 0.000000
0.044099 0.625424 0.000000
0.108691 0.624199 0.000000
0.173105 0.622973 0.000000
0.237304 0.621747 0.000000
0.301260 0.620521 0.000000
0.364947 0.619295 0.000000
0.428343 0.618068 0.000000
0.491430 0.616842 0.000000
0.554189 0.615615 0.000000
0.616604 0.614388 0.000000
0.678659 0.613161 0.000000
0.740341 0.611934 0.000000
0.801634 0.610707 0.000000
0.862528 0.609480 0.000000
0.923008 0.608252 0.000000
0.983063 0.607025 0.000000
0.000000 0.685765 0.000000
0.039812 0.684547 0.000000
0.104413 0.683328 0.000000
0.168840 0.682109 0.000000
0.233055 0.680890 0.000000
0.297028 0.679671 0.000000
0.360733 0.678452 0.000000
0.424150 0.677232 0.000000
0.487258 0.676013 0.000000
0.550039 0.674793 0.000000
0.612477 0.673573 0.000000
0.674556 0.672353 0.000000
0.736263 0.671133 0.000000
0.797583 0.669912 0.000000
0.858503 0.668692 0.000000
0.919011 0.667471 0.000000
0.979095 0.666251 0.000000
0.000000 0.744540 0.000000
0.035524 0.743328 0.000000
0.100135 0.742117 0.000000
0.164575 0.740905 0.000000
0.228805 0.739693 0.000000
0.292794 0.738481 0.000000
0.356518 0.737269 0.000000
0.419955 0.736057 0.000000
0.483083 0.734844 0.000000
0.545887 0.733632 0.000000
0.608348 0.732419 0.000000
0.670452 0.731206 0.000000
0.732184 0.729993 0.000000
0.793530 0.728780 0.000000
0.854477 0.727566 0.000000
0.915012 0.726353 0.000000
0.975125 0.725139 0.000000
0.000000 0.802961 0.000000
0.031235 0.801757 0.000000
0.095856 0.800553 0.000000
0.160309 0.799348 0.000000
0.224554 0.798144 0.000000
0.288560 0.796939 0.000000
0.352302 0.795734 0.000000
0.415758 0.794529 0.000000
0.478908 0.793324 0.000000
0.541733 0.792119 0.000000
0.604218 0.790914 0.000000
0.666346 0.789708 0.000000
0.728103 0.788503 0.000000
0.789475 0.787297 0.000000
0.850448 0.786091 0.000000
0.911012 0.784885 0.000000
0.971153 0.783678 0.000000
0.000000 0.861017 0.000000
0.026946 0.859821 0.000000
0.091576 0.858625 0.000000
0.156042 0.857428 0.000000
0.220301 0.856231 0.000000
0.284324 0.855034 0.000000
0.348085 0.853837 0.000000
0.411560 0.852640 0.000000
0.474731 0.851442 0.000000
0.537578 0.850245 0.000000
0.600086 0.849047 0.000000
0.662238 0.847849 0.000000
0.724020 0.846651 0.000000
0.785418 0.845452 0.000000
0.846418 0.844254 0.000000
0.907009 0.843055 0.000000
0.967179 0.841857 0.000000
0.000000 0.918699 0.000000
0.022657 0.917511 0.000000
0.087296 0.916322 0.000000
0.151774 0.915133 0.000000
0.216048 0.913944 0.000000
0.280087 0.912755 0.000000
0.343866 0.911566 0.000000
0.407361 0.910376 0.000000
0.470553 0.909187 0.000000
0.533422 0.907997 0.000000
0.595953 0.906807 0.000000
0.658129 0.905617 0.000000
0.719936 0.904426 0.000000
0.781359 0.903236 0.000000
0.842387 0.902045 0.000000
0.903005 0.900854 0.000000
0.963203 0.899664 0.000000
0.000000 0.975995 0.000000
0.018367 0.974815 0.000000
0.083015 0.973634 0.000000
0.147505 0.972454 0.000000
0.211794 0.971273 0.000000
0.275849 0.970092 0.000000
0.339646 0.968910 0.000000
0.403161 0.967729 0.000000
0.466373 0.966547 0.000000
0.529264 0.965366 0.000000
0.591818 0.964184 0.000000
0.654018 0.963001 0.000000
0.715850 0.961819 0.000000
0.777299 0.960637 0.000000
0.838353 0.959454 0.000000
0.898999 0.958271 0.000000
0.959225 0.957088 0.000000
0.021868 0.019564 0.083184
0.086508 0.018289 0.081911
0.150988 0.017014 0.080638
0.215265 0.015739 0.079365
0.279308 0.014463 0.078093
0.343090 0.013188 0.076820
0.406588 0.011912 0.075547
0.469784 0.010637 0.074273
0.532657 0.009362 0.073000
0.595192 0.008086 0.071727
0.657373 0.006811 0.070454
0.719184 0.005535 0.069180
0.780612 0.004260 0.067907
0.841645 0.002984 0.066634
0.902268 0.001708 0.065360
0.962471 0.000433 0.064087
1.000000 0.000000 0.062813
0.017578 0.081201 0.078902
0.082227 0.079928 0.077629
0.146719 0.078655 0.076356
0.211011 0.077382 0.075083
0.275069 0.076109 0.073810
0.338869 0.074836 0.072537
0.402387 0.073563 0.071264
0.465603 0.072290 0.069990
0.528499 0.071017 0.068717
0.591057 0.069743 0.067443
0.653261 0.068470 0.066170
0.715098 0.067197 0.064896
0.776552 0.065923 0.063623
0.837611 0.064650 0.062349
0.898262 0.063376 0.061076
0.958493 0.062102 0.059802
1.000000 0.060829 0.058528
0.013287 0.142695 0.074620
0.077945 0.141426 0.073346
0.142449 0.140156 0.072073
0.206755 0.138887 0.070800
0.270830 0.137617 0.069527
0.334648 0.136347 0.068253
0.398185 0.135077 0.066980
0.461422 0.133807 0.065706
0.524339 0.132537 0.064433
0.586920 0.131267 0.063159
0.649148 0.129997 0.061886
0.711010 0.128727 0.060612
0.772490 0.127457 0.059338
0.833575 0.126186 0.058064
0.894253 0.124916 0.056790
0.954513 0.123646 0.055516
1.000000 0.122375 0.054243
0.008997 0.204009 0.070336
0.073663 0.202744 0.069063
0.138178 0.201478 0.067790
0.202498 0.200212 0.066516
0.266590 0.198947 0.065243
0.330425 0.197681 0.063969
0.393982 0.196415 0.062696
0.457239 0.195149 0.061422
0.520178 0.193883 0.060148
0.582782 0.192617 0.058874
0.645034 0.191351 0.057601
0.706920 0.190085 0.056327
0.768426 0.188818 0.055053
0.829538 0.187552 0.053779
0.890243 0.186285 0.052505
0.950531 0.185019 0.051231
1.000000 0.183752 0.049956
0.004706 0.265114 0.066053
0.069379 0.263853 0.064779
0.133907 0.262592 0.063505
0.198241 0.261331 0.062232
0.262348 0.260070 0.060958
0.326201 0.258809 0.059684
0.389777 0.257548 0.058411
0.453055 0.256286 0.057137
0.516015 0.255025 0.055863
0.578642 0.253763 0.054589
0.640918 0.252501 0.053315
0.702828 0.251239 0.052041
0.764360 0.249978 0.050767
0.825498 0.248715 0.049493
0.886231 0.247453 0.048218
0.946547 0.246191 0.046944
1.000000 0.244929 0.045670
0.000415 0.325988 0.061768
0.065095 0.324732 0.060494
0.129634 0.323476 0.059221
0.193982 0.322220 0.057947
0.258105 0.320964 0.056673
0.321976 0.319707 0.055399
0.385571 0.318451 0.054125
0.448869 0.317194 0.052851
0.511851 0.315938 0.051577
0.574500 0.314681 0.050303
0.636800 0.313424 0.049029
0.698735 0.312167 0.047754
0.760292 0.310910 0.046480
0.821457 0.309653 0.045206
0.882218 0.308396 0.043931
0.942561 0.307139 0.042657
1.000000 0.305881 0.041382
0.000000 0.386609 0.057483
0.060811 0.385358 0.056209
0.125361 0.384108 0.054935
0.189722 0.382857 0.053661
0.253862 0.381606 0.052387
0.317750 0.380355 0.051113
0.381364 0.379104 0.049839
0.444682 0.377853 0.048565
0.507686 0.376602 0.047290
0.570357 0.375351 0.046016
0.632681 0.374099 0.044742
0.694641 0.372848 0.043467
0.756223 0.371596 0.042193
0.817414 0.370344 0.040918
0.878202 0.369092 0.039644
0.938574 0.367840 0.038369
0.998517 0.366588 0.037095
0.000000 0.446960 0.053197
0.056526 0.445715 0.051923
0.121086 0.444470 0.050649
0.185462 0.443225 0.049375
0.249617 0.441980 0.048101
0.313522 0.440735 0.046827
0.377155 0.439490 0.045552
0.440494 0.438244 0.044278
0.503519 0.436999 0.043003
0.566213 0.435753 0.041729
0.628560 0.434507 0.040454
0.690544 0.433261 0.039180
0.752152 0.432015 0.037905
0.813370 0.430769 0.036631
0.874185 0.429523 0.035356
0.934584 0.428277 0.034081
0.994557 0.427030 0.032806
0.000000 0.507024 0.048911
0.052240 0.505785 0.047637
0.116811 0.504547 0.046363
0.181200 0.503308 0.045088
0.245371 0.502069 0.043814
0.309294 0.500830 0.042539
0.372945 0.499590 0.041265
0.436304 0.498351 0.039990
0.499350 0.497112 0.038716
0.562067 0.495872 0.037441
0.624437 0.494632 0.036167
0.686446 0.493392 0.034892
0.748079 0.492152 0.033617
0.809323 0.490912 0.032342
0.870165 0.489672 0.031067
0.930593 0.488432 0.029792
0.990594 0.487191 0.028518
0.000000 0.566787 0.044624
0.047953 0.565554 0.043350
0.112535 0.564322 0.042075
0.176938 0.563090 0.040801
0.241123 0.561857 0.039526
0.305064 0.560624 0.038252
0.368734 0.559391 0.036977
0.432113 0.558158 0.035702
0.495180 0.556925 0.034428
0.557919 0.555692 0.033153
0.620313 0.554458 0.031878
0.682347 0.553225 0.030603
0.744005 0.551991 0.029328
0.805275 0.550757 0.028053
0.866144 0.549523 0.026778
0.926599 0.548289 0.025503
0.986629 0.547055 0.024228
0.000000 0.626234 0.040337
0.043666 0.625008 0.039062
0.108259 0.623782 0.037788
0.172674 0.622556 0.036513
0.236875 0.621330 0.035238
0.300833 0.620104 0.033964
0.364522 0.618878 0.032689
0.427920 0.617652 0.031414
0.491009 0.616425 0.030139
0.553770 0.615198 0.028864
0.616187 0.613972 0.027589
0.678245 0.612745 0.026314
0.739929 0.611518 0.025039
0.801225 0.610290 0.023764
0.862121 0.609063 0.022489
0.922604 0.607835 0.021214
0.982663 0.606608 0.019939
0.000000 0.685352 0.036049
0.039379 0.684133 0.034774
0.103981 0.682914 0.033500
0.168410 0.681695 0.032225
0.232626 0.680476 0.030950
0.296600 0.679257 0.029675
0.360308 0.678038 0.028400
0.423726 0.676818 0.027125
0.486836 0.675598 0.025850
0.549620 0.674379 0.024575
0.612060 0.673159 0.023300
0.674142 0.671939 0.022025
0.735851 0.670718 0.020750
0.797174 0.669498 0.019474
0.858097 0.668277 0.018199
0.918607 0.667057 0.016924
0.978694 0.665836 0.015649
0.000000 0.744128 0.031761
0.035091 0.742917 0.030486
0.099703 0.741705 0.029211
0.164144 0.740493 0.027936
0.228376 0.739281 0.026661
0.292367 0.738069 0.025386
0.356093 0.736857 0.024111
0.419531 0.735645 0.022836
0.482662 0.734432 0.021561
0.545468 0.733220 0.020285
0.607931 0.732007 0.019010
0.670038 0.730794 0.017735
0.731772 0.729581 0.016460
0.793120 0.728368 0.015184
0.854070 0.727154 0.013909
0.914609 0.725941 0.012634
0.974724 0.724727 0.011358
0.000000 0.802552 0.027472
0.030802 0.801348 0.026197
0.095424 0.800144 0.024922
0.159878 0.798939 0.023647
0.224124 0.797735 0.022371
0.288132 0.796530 0.021096
0.351876 0.795325 0.019821
0.415334 0.794120 0.018546
0.478486 0.792915 0.017271
0.541314 0.791710 0.015995
0.603801 0.790504 0.014720
0.665931 0.789299 0.013445
0.727691 0.788093 0.012169
0.789065 0.786887 0.010894
0.850042 0.785681 0.009618
0.910608 0.784475 0.008343
0.970752 0.783269 0.007067
0.000000 0.860611 0.023182
0.026513 0.859415 0.021907
0.091144 0.858218 0.020632
0.155611 0.857021 0.019357
0.219872 0.855825 0.018082
0.283897 0.854628 0.016806
0.347659 0.853430 0.015531
0.411136 0.852233 0.014256
0.474309 0.851035 0.012980
0.537159 0.849838 0.011705
0.599669 0.848640 0.010429
0.661823 0.847442 0.009154
0.723608 0.846244 0.007879
0.785008 0.845045 0.006603
0.846012 0.843847 0.005327
0.906605 0.842648 0.004052
0.966777 0.841450 0.002776
0.000000 0.918295 0.018893
0.022224 0.917107 0.017617
0.086864 0.915918 0.016342
0.151343 0.914729 0.015067
0.215618 0.913540 0.013791
0.279660 0.912351 0.012516
0.343440 0.911162 0.011241
0.406937 0.909972 0.009965
0.470131 0.908782 0.008690
0.533002 0.907593 0.007414
0.595535 0.906403 0.006139
0.657714 0.905212 0.004863
0.719523 0.904022 0.003588
0.780950 0.902832 0.002312
0.841980 0.901641 0.001036
0.902601 0.900450 0.000000
0.962801 0.899259 0.000000
0.000000 0.975595 0.014602
0.017934 0.974414 0.013327
0.082583 0.973233 0.012052
0.147074 0.972053 0.010776
0.211364 0.970872 0.009501
0.275421 0.969690 0.008225
0.339220 0.968509 0.006950
0.402736 0.967328 0.005674
0.465951 0.966146 0.004399
0.528844 0.964964 0.003123
0.591400 0.963782 0.001848
0.653603 0.962600 0.000572
0.715437 0.961418 0.000000
0.776889 0.960235 0.000000
0.837946 0.959052 0.000000
0.898595 0.957870 0.000000
0.958823 0.956687 0.000000
0.021435 0.019131 0.148511
0.086076 0.017856 0.147242
0.150557 0.016581 0.145973
0.214836 0.015305 0.144704
0.278880 0.014030 0.143434
0.342664 0.012755 0.142165
0.406164 0.011479 0.140895
0.469362 0.010204 0.139626
0.532237 0.008928 0.138356
0.594775 0.007653 0.137087
0.656958 0.006377 0.135817
0.718772 0.005102 0.134547
0.780203 0.003826 0.133277
0.841238 0.002551 0.132007
0.901864 0.001275 0.130737
0.962069 0.000000 0.129467
1.000000 0.000000 0.128197
0.017145 0.080769 0.144242
0.081795 0.079496 0.142972
0.146288 0.078223 0.141703
0.210581 0.076950 0.140433
0.274642 0.075677 0.139164
0.338443 0.074404 0.137894
0.401963 0.073131 0.136624
0.465181 0.071858 0.135354
0.528079 0.070584 0.134085
0.590639 0.069311 0.132815
0.652846 0.068038 0.131545
0.714685 0.066764 0.130274
0.776142 0.065491 0.129004
0.837203 0.064217 0.127734
0.897857 0.062944 0.126464
0.958091 0.061670 0.125193
1.000000 0.060396 0.123923
0.012854 0.142264 0.139971
0.077513 0.140995 0.138701
0.142018 0.139725 0.137432
0.206325 0.138455 0.136162
0.270402 0.137186 0.134892
0.334222 0.135916 0.133622
0.397761 0.134646 0.132352
0.461000 0.133376 0.131082
0.523919 0.132106 0.129812
0.586502 0.130836 0.128542
0.648733 0.129566 0.127272
0.710597 0.128296 0.126001
0.772079 0.127025 0.124731
0.833168 0.125755 0.123460
0.893849 0.124485 0.122190
0.954111 0.123214 0.120919
1.000000 0.121943 0.119648
0.008564 0.203579 0.135700
0.073230 0.202314 0.134430
0.137747 0.201048 0.133160
0.202069 0.199783 0.131890
0.266161 0.198517 0.130620
0.329999 0.197251 0.129350
0.393558 0.195985 0.128079
0.456817 0.194719 0.126809
0.519758 0.193453 0.125539
0.582364 0.192187 0.124268
0.644618 0.190921 0.122998
0.706507 0.189655 0.121727
0.768015 0.188388 0.120456
0.829130 0.187122 0.119186
0.889838 0.185855 0.117915
0.950129 0.184588 0.116644
1.000000 0.183322 0.115373
0.004273 0.264686 0.131428
0.068947 0.263425 0.130157
0.133475 0.262164 0.128887
0.197811 0.260903 0.127617
0.261920 0.259642 0.126347
0.325775 0.258381 0.125076
0.389353 0.257119 0.123806
0.452632 0.255858 0.122535
0.515595 0.254596 0.121264
0.578224 0.253335 0.119994
0.640502 0.252073 0.118723
0.702415 0.250811 0.117452
0.763949 0.249549 0.116181
0.825090 0.248287 0.114910
0.885826 0.247025 0.113639
0.946145 0.245762 0.112368
1.000000 0.244500 0.111097
0.000000 0.325561 0.127154
0.064663 0.324305 0.125884
0.129203 0.323049 0.124614
0.193552 0.321793 0.123343
0.257677 0.320537 0.122073
0.321550 0.319281 0.120802
0.385147 0.318024 0.119531
0.448447 0.316768 0.118260
0.511431 0.315511 0.116989
0.574082 0.314254 0.115719
0.636384 0.312997 0.114447
0.698322 0.311741 0.113176
0.759882 0.310483 0.111905
0.821049 0.309226 0.110634
0.881812 0.307969 0.109363
0.942159 0.306712 0.108091
1.000000 0.305454 0.106820
0.000000 0.386184 0.122881
0.060378 0.384934 0.121610
0.124929 0.383683 0.120339
0.189292 0.382432 0.119068
0.253433 0.381181 0.117798
0.317323 0.379931 0.116527
0.380939 0.378679 0.115256
0.444259 0.377428 0.113985
0.507265 0.376177 0.112714
0.569939 0.374926 0.111442
0.632265 0.373674 0.110171
0.694227 0.372422 0.108900
0.755812 0.371171 0.107628
0.817006 0.369919 0.106357
0.877797 0.368667 0.105085
0.938171 0.367415 0.103814
0.998118 0.366163 0.102542
0.000000 0.446537 0.118606
0.056093 0.445292 0.117335
0.120655 0.444047 0.116064
0.185032 0.442802 0.114793
0.249188 0.441557 0.113522
0.313096 0.440312 0.112251
0.376730 0.439067 0.110980
0.440071 0.437821 0.109708
0.503098 0.436576 0.108437
0.565794 0.435330 0.107166
0.628144 0.434084 0.105894
0.690131 0.432838 0.104623
0.751741 0.431592 0.103351
0.812961 0.430346 0.102079
0.873779 0.429100 0.100807
0.934181 0.427853 0.099536
0.994157 0.426607 0.098264
0.000000 0.506603 0.114330
0.051807 0.505365 0.113059
0.116380 0.504126 0.111788
0.180770 0.502887 0.110517
0.244942 0.501648 0.109245
0.308867 0.500409 0.107974
0.372520 0.499170 0.106703
0.435881 0.497930 0.105431
0.498929 0.496691 0.104160
0.561648 0.495451 0.102888
0.624021 0.494211 0.101616
0.686032 0.492971 0.100344
0.747668 0.491731 0.099073
0.808915 0.490491 0.097801
0.869759 0.489251 0.096529
0.930190 0.488010 0.095257
0.990194 0.486770 0.093984
0.000000 0.566368 0.110054
0.047521 0.565136 0.108783
0.112104 0.563904 0.107511
0.176507 0.562671 0.106240
0.240695 0.561438 0.104968
0.304637 0.560206 0.103697
0.368309 0.558973 0.102425
0.431690 0.557740 0.101153
0.494759 0.556506 0.099881
0.557501 0.555273 0.098609
0.619897 0.554039 0.097338
0.681933 0.552806 0.096066
0.743594 0.551572 0.094793
0.804867 0.550338 0.093521
0.865738 0.549104 0.092249
0.926196 0.547870 0.090977
0.986229 0.546636 0.089704
0.000000 0.625817 0.105777
0.043234 0.624592 0.104505
0.107827 0.623366 0.103234
0.172244 0.622140 0.101962
0.236446 0.620914 0.100690
0.300405 0.619688 0.099418
0.364096 0.618462 0.098146
0.427497 0.617235 0.096874
0.490588 0.616009 0.095602
0.553351 0.614782 0.094330
0.615771 0.613555 0.093058
0.677831 0.612328 0.091786
0.739517 0.611101 0.090514
0.800816 0.609874 0.089241
0.861715 0.608646 0.087969
0.922201 0.607419 0.086696
0.982262 0.606191 0.085424
0.000000 0.684938 0.101499
0.038946 0.683719 0.100227
0.103549 0.682500 0.098955
0.167979 0.681281 0.097683
0.232197 0.680062 0.096411
0.296173 0.678843 0.095139
0.359882 0.677623 0.093867
0.423303 0.676404 0.092595
0.486415 0.675184 0.091323
0.549201 0.673964 0.090050
0.611643 0.672744 0.088778
0.673728 0.671524 0.087506
0.735440 0.670304 0.086233
0.796765 0.669084 0.084960
0.857690 0.667863 0.083688
0.918204 0.666642 0.082415
0.978294 0.665421 0.081142
0.000000 0.743717 0.097220
0.034658 0.742505 0.095948
0.099271 0.741294 0.094676
0.163714 0.740082 0.093404
0.227947 0.738870 0.092132
0.291939 0.737658 0.090860
0.355667 0.736446 0.089587
0.419107 0.735233 0.088315
0.482240 0.734021 0.087042
0.545048 0.732808 0.085770
0.607514 0.731595 0.084497
0.669623 0.730382 0.083225
0.731360 0.729169 0.081952
0.792711 0.727955 0.080679
0.853663 0.726742 0.079406
0.914205 0.725528 0.078133
0.974323 0.724315 0.076860
0.000000 0.802143 0.092941
0.030369 0.800939 0.091669
0.094992 0.799735 0.090396
0.159447 0.798530 0.089124
0.223695 0.797326 0.087852
0.287705 0.796121 0.086579
0.351451 0.794916 0.085306
0.414911 0.793711 0.084034
0.478065 0.792506 0.082761
0.540895 0.791300 0.081488
0.603384 0.790095 0.080216
0.665517 0.788889 0.078943
0.727279 0.787684 0.077670
0.788656 0.786478 0.076397
0.849635 0.785271 0.075124
0.910204 0.784065 0.073851
0.970350 0.782859 0.072577
0.000000 0.860205 0.088661
0.026080 0.859008 0.087388
0.090712 0.857812 0.086116
0.155180 0.856615 0.084843
0.219443 0.855418 0.083571
0.283469 0.854221 0.082298
0.347233 0.853024 0.081025
0.410713 0.851826 0.079752
0.473887 0.850629 0.078479
0.536739 0.849431 0.077206
0.599252 0.848233 0.075933
0.661409 0.847035 0.074660
0.723196 0.845837 0.073387
0.784599 0.844638 0.072114
0.845605 0.843440 0.070841
0.906201 0.842241 0.069567
0.966376 0.841042 0.068294
0.000000 0.917892 0.084380
0.021791 0.916703 0.083107
0.086432 0.915514 0.081834
0.150912 0.914326 0.080562
0.215189 0.913136 0.079289
0.279232 0.911947 0.078016
0.343014 0.910758 0.076743
0.406513 0.909568 0.075470
0.469709 0.908378 0.074197
0.532583 0.907189 0.072924
0.595118 0.905998 0.071650
0.657299 0.904808 0.070377
0.719111 0.903618 0.069104
0.780540 0.902427 0.067830
0.841572 0.901236 0.066557
0.902196 0.900046 0.065283
0.962400 0.898855 0.064010
0.000000 0.975194 0.080098
0.017501 0.974013 0.078825
0.082151 0.972832 0.077552
0.146643 0.971652 0.076279
0.210934 0.970470 0.075006
0.274994 0.969289 0.073733
0.338794 0.968108 0.072460
0.402312 0.966926 0.071187
0.465529 0.965745 0.069914
0.528424 0.964563 0.068640
0.590983 0.963381 0.067367
0.653188 0.962198 0.066093
0.715024 0.961016 0.064820
0.776479 0.959834 0.063546
0.837539 0.958651 0.062273
0.898190 0.957468 0.060999
0.958422 0.956285 0.059725
0.021002 0.018698 0.213632
0.085644 0.017423 0.212367
0.150126 0.016148 0.211102
0.214406 0.014872 0.209837
0.278452 0.013597 0.208572
0.342238 0.012322 0.207307
0.405740 0.011046 0.206042
0.468940 0.009771 0.204777
0.531818 0.008495 0.203511
0.594357 0.007220 0.202246
0.656543 0.005944 0.200980
0.718359 0.004669 0.199715
0.779793 0.003393 0.198449
0.840830 0.002118 0.197183
0.901459 0.000842 0.195917
