source/experimental_legacy_banks/assets/stillness/look.CUBE
#Created by: Infinite Arch Leica Look Builder
#Unique Leica Look ID: 0
#Based Filmstyle Mode: Standard
TITLE "Stillness"
LUT_3D_SIZE 5
DOMAIN_MIN 0.0 0.0 0.0
DOMAIN_MAX 1.0 1.0 1.0
0.022301 0.019997 0.017694
0.279735 0.014896 0.012593
0.533077 0.009795 0.007491
0.781022 0.004693 0.002389
1.000000 0.000000 0.000000
0.005139 0.265542 0.000531
0.262776 0.260499 0.000000
0.516436 0.255453 0.000000
0.764770 0.250406 0.000000
1.000000 0.245358 0.000000
0.000000 0.507445 0.000000
0.245799 0.502490 0.000000
0.499771 0.497533 0.000000
0.748491 0.492573 0.000000
0.990994 0.487612 0.000000
0.000000 0.744540 0.000000
0.228805 0.739693 0.000000
0.483083 0.734844 0.000000
0.732184 0.729993 0.000000
0.975125 0.725139 0.000000
0.000000 0.975995 0.000000
0.211794 0.971273 0.000000
0.466373 0.966547 0.000000
0.715850 0.961819 0.000000
0.959225 0.957088 0.000000
0.020568 0.018265 0.278512
0.278024 0.013164 0.273473
0.531398 0.008062 0.268431
0.779383 0.002960 0.263388
1.000000 0.000000 0.258344
0.003406 0.263830 0.261552
0.261063 0.258785 0.256507
0.514754 0.253739 0.251460
0.763128 0.248692 0.246412
1.000000 0.243643 0.241362
0.000000 0.505762 0.244574
0.244084 0.500806 0.239523
0.498088 0.495849 0.234472
0.746846 0.490889 0.229418
0.989393 0.485927 0.224363
0.000000 0.742894 0.227578
0.227088 0.738047 0.222523
0.481397 0.733197 0.217466
0.730536 0.728345 0.212407
0.973521 0.723490 0.207348
0.000000 0.974392 0.210566
0.210075 0.969668 0.205505
0.464685 0.964942 0.200443
0.714199 0.960213 0.195380
0.957618 0.955481 0.190316
0.018836 0.016533 0.535141
0.276313 0.011431 0.530198
0.529719 0.006329 0.525252
0.777743 0.001227 0.520305
1.000000 0.000000 0.515355
0.001674 0.262117 0.518503
0.259350 0.257072 0.513553
0.513073 0.252025 0.508600
0.761486 0.246977 0.503646
1.000000 0.241928 0.498689
0.000000 0.504079 0.501842
0.242369 0.499123 0.496884
0.496404 0.494164 0.491925
0.745200 0.489204 0.486963
0.987793 0.484241 0.482000
0.000000 0.741248 0.485157
0.225372 0.736400 0.480192
0.479711 0.731549 0.475226
0.728888 0.726696 0.470258
0.971917 0.721841 0.465288
0.000000 0.972788 0.468449
0.208357 0.968063 0.463478
0.462996 0.963336 0.458505
0.712548 0.958606 0.453530
0.956011 0.953874 0.448553
0.017104 0.014800 0.786225
0.274601 0.009699 0.781399
0.528039 0.004597 0.776571
0.776103 0.000000 0.771741
1.000000 0.000000 0.766908
0.000000 0.260404 0.769982
0.257637 0.255358 0.765148
0.511391 0.250311 0.760312
0.759843 0.245263 0.755473
1.000000 0.240212 0.750632
0.000000 0.502396 0.753711
0.240654 0.497439 0.748869
0.494720 0.492480 0.744025
0.743555 0.487519 0.739178
0.986191 0.482556 0.734329
0.000000 0.739602 0.737413
0.223655 0.734753 0.732563
0.478025 0.729902 0.727710
0.727240 0.725048 0.722855
0.970313 0.720192 0.717998
0.000000 0.971184 0.721087
0.206638 0.966458 0.716229
0.461307 0.961730 0.711369
0.710897 0.956999 0.706506
0.954404 0.952266 0.701641
0.015371 0.013068 1.000000
0.272889 0.007966 1.000000
0.526360 0.002864 1.000000
0.774463 0.000000 1.000000
1.000000 0.000000 1.000000
0.000000 0.258690 1.000000
0.255923 0.253644 1.000000
0.509709 0.248597 1.000000
0.758200 0.243548 1.000000
1.000000 0.238497 0.996188
0.000000 0.500713 0.999183
0.238939 0.495755 0.994474
0.493035 0.490795 0.989761
0.741909 0.485834 0.985047
0.984590 0.480870 0.980329
0.000000 0.737955 0.983330
0.221938 0.733106 0.978611
0.476338 0.728253 0.973890
0.725591 0.723399 0.969166
0.968708 0.718542 0.964439
0.000000 0.969579 0.967445
0.204920 0.964853 0.962718
0.459618 0.960124 0.957988
0.709246 0.955392 0.953255
0.952796 0.950658 0.948519
