source/experimental_legacy_banks/assets/stillness/look.CUBE
#Created by: Infinite Arch Leica Look Builder
#Unique Leica Look ID: 0
#Based Filmstyle Mode: Standard
TITLE "Stillness"
LUT_3D_SIZE 9
DOMAIN_MIN 0.0 0.0 0.0
DOMAIN_MAX 1.0 1.0 1.0
0.022301 0.019997 0.017694
0.151419 0.017447 0.015143
0.279735 0.014896 0.012593
0.407012 0.012346 0.010042
0.533077 0.009795 0.007491
0.657787 0.007244 0.004940
0.781022 0.004693 0.002389
0.902673 0.002142 0.000000
1.000000 0.000000 0.000000
0.013721 0.143126 0.009113
0.142880 0.140587 0.006562
0.271258 0.138048 0.004011
0.398610 0.135509 0.001460
0.524759 0.132969 0.000000
0.649564 0.130429 0.000000
0.772900 0.127888 0.000000
0.894658 0.125347 0.000000
1.000000 0.122806 0.000000
0.005139 0.265542 0.000531
0.134338 0.263021 0.000000
0.262776 0.260499 0.000000
0.390202 0.257976 0.000000
0.516436 0.255453 0.000000
0.641333 0.252930 0.000000
0.764770 0.250406 0.000000
0.886637 0.247882 0.000000
1.000000 0.245358 0.000000
0.000000 0.387033 0.000000
0.125792 0.384532 0.000000
0.254290 0.382031 0.000000
0.381789 0.379529 0.000000
0.508106 0.377027 0.000000
0.633097 0.374524 0.000000
0.756634 0.372021 0.000000
0.878607 0.369517 0.000000
0.998917 0.367013 0.000000
0.000000 0.507445 0.000000
0.117243 0.504967 0.000000
0.245799 0.502490 0.000000
0.373370 0.500011 0.000000
0.499771 0.497533 0.000000
0.624853 0.495053 0.000000
0.748491 0.492573 0.000000
0.870571 0.490093 0.000000
0.990994 0.487612 0.000000
0.000000 0.626650 0.000000
0.108691 0.624199 0.000000
0.237304 0.621747 0.000000
0.364947 0.619295 0.000000
0.491430 0.616842 0.000000
0.616604 0.614388 0.000000
0.740341 0.611934 0.000000
0.862528 0.609480 0.000000
0.983063 0.607025 0.000000
0.000000 0.744540 0.000000
0.100135 0.742117 0.000000
0.228805 0.739693 0.000000
0.356518 0.737269 0.000000
0.483083 0.734844 0.000000
0.608348 0.732419 0.000000
0.732184 0.729993 0.000000
0.854477 0.727566 0.000000
0.975125 0.725139 0.000000
0.000000 0.861017 0.000000
0.091576 0.858625 0.000000
0.220301 0.856231 0.000000
0.348085 0.853837 0.000000
0.474731 0.851442 0.000000
0.600086 0.849047 0.000000
0.724020 0.846651 0.000000
0.846418 0.844254 0.000000
0.967179 0.841857 0.000000
0.000000 0.975995 0.000000
0.083015 0.973634 0.000000
0.211794 0.971273 0.000000
0.339646 0.968910 0.000000
0.466373 0.966547 0.000000
0.591818 0.964184 0.000000
0.715850 0.961819 0.000000
0.838353 0.959454 0.000000
0.959225 0.957088 0.000000
0.021435 0.019131 0.148511
0.150557 0.016581 0.145973
0.278880 0.014030 0.143434
0.406164 0.011479 0.140895
0.532237 0.008928 0.138356
0.656958 0.006377 0.135817
0.780203 0.003826 0.133277
0.901864 0.001275 0.130737
1.000000 0.000000 0.128197
0.012854 0.142264 0.139971
0.142018 0.139725 0.137432
0.270402 0.137186 0.134892
0.397761 0.134646 0.132352
0.523919 0.132106 0.129812
0.648733 0.129566 0.127272
0.772079 0.127025 0.124731
0.893849 0.124485 0.122190
1.000000 0.121943 0.119648
0.004273 0.264686 0.131428
0.133475 0.262164 0.128887
0.261920 0.259642 0.126347
0.389353 0.257119 0.123806
0.515595 0.254596 0.121264
0.640502 0.252073 0.118723
0.763949 0.249549 0.116181
0.885826 0.247025 0.113639
1.000000 0.244500 0.111097
0.000000 0.386184 0.122881
0.124929 0.383683 0.120339
0.253433 0.381181 0.117798
0.380939 0.378679 0.115256
0.507265 0.376177 0.112714
0.632265 0.373674 0.110171
0.755812 0.371171 0.107628
0.877797 0.368667 0.105085
0.998118 0.366163 0.102542
0.000000 0.506603 0.114330
0.116380 0.504126 0.111788
0.244942 0.501648 0.109245
0.372520 0.499170 0.106703
0.498929 0.496691 0.104160
0.624021 0.494211 0.101616
0.747668 0.491731 0.099073
0.869759 0.489251 0.096529
0.990194 0.486770 0.093984
0.000000 0.625817 0.105777
0.107827 0.623366 0.103234
0.236446 0.620914 0.100690
0.364096 0.618462 0.098146
0.490588 0.616009 0.095602
0.615771 0.613555 0.093058
0.739517 0.611101 0.090514
0.861715 0.608646 0.087969
0.982262 0.606191 0.085424
0.000000 0.743717 0.097220
0.099271 0.741294 0.094676
0.227947 0.738870 0.092132
0.355667 0.736446 0.089587
0.482240 0.734021 0.087042
0.607514 0.731595 0.084497
0.731360 0.729169 0.081952
0.853663 0.726742 0.079406
0.974323 0.724315 0.076860
0.000000 0.860205 0.088661
0.090712 0.857812 0.086116
0.219443 0.855418 0.083571
0.347233 0.853024 0.081025
0.473887 0.850629 0.078479
0.599252 0.848233 0.075933
0.723196 0.845837 0.073387
0.845605 0.843440 0.070841
0.966376 0.841042 0.068294
0.000000 0.975194 0.080098
0.082151 0.972832 0.077552
0.210934 0.970470 0.075006
0.338794 0.968108 0.072460
0.465529 0.965745 0.069914
0.590983 0.963381 0.067367
0.715024 0.961016 0.064820
0.837539 0.958651 0.062273
0.958422 0.956285 0.059725
0.020568 0.018265 0.278512
0.149695 0.015715 0.275993
0.278024 0.013164 0.273473
0.405316 0.010613 0.270952
0.531398 0.008062 0.268431
0.656128 0.005511 0.265910
0.779383 0.002960 0.263388
0.901055 0.000409 0.260866
1.000000 0.000000 0.258344
0.011988 0.141402 0.270035
0.141156 0.138863 0.267513
0.269546 0.136323 0.264992
0.396913 0.133784 0.262470
0.523079 0.131244 0.259948
0.647902 0.128703 0.257425
0.771259 0.126163 0.254902
0.893039 0.123622 0.252379
1.000000 0.121080 0.249855
0.003406 0.263830 0.261552
0.132613 0.261308 0.259030
0.261063 0.258785 0.256507
0.388504 0.256262 0.253984
0.514754 0.253739 0.251460
0.639671 0.251216 0.248936
0.763128 0.248692 0.246412
0.885016 0.246167 0.243887
1.000000 0.243643 0.241362
0.000000 0.385335 0.253065
0.124066 0.382834 0.250541
0.252576 0.380332 0.248017
0.380089 0.377830 0.245493
0.506424 0.375327 0.242968
0.631433 0.372824 0.240443
0.754990 0.370320 0.237917
0.876986 0.367817 0.235391
0.997318 0.365312 0.232865
0.000000 0.505762 0.244574
0.115516 0.503285 0.242049
0.244084 0.500806 0.239523
0.371670 0.498328 0.236998
0.498088 0.495849 0.234472
0.623188 0.493369 0.231945
0.746846 0.490889 0.229418
0.868948 0.488408 0.226891
0.989393 0.485927 0.224363
0.000000 0.624985 0.236078
0.106963 0.622533 0.233552
0.235589 0.620081 0.231025
0.363246 0.617629 0.228498
0.489745 0.615175 0.225971
0.614938 0.612722 0.223443
0.738694 0.610267 0.220915
0.860903 0.607812 0.218386
0.981461 0.605357 0.215858
0.000000 0.742894 0.227578
0.098407 0.740471 0.225051
0.227088 0.738047 0.222523
0.354816 0.735622 0.219994
0.481397 0.733197 0.217466
0.606681 0.730771 0.214937
0.730536 0.728345 0.212407
0.852850 0.725918 0.209878
0.973521 0.723490 0.207348
0.000000 0.859392 0.219074
0.089848 0.856999 0.216545
0.218584 0.854605 0.214016
0.346381 0.852210 0.211487
0.473044 0.849815 0.208957
0.598417 0.847419 0.206426
0.722371 0.845023 0.203896
0.844791 0.842626 0.201365
0.965573 0.840228 0.198834
0.000000 0.974392 0.210566
0.081286 0.972030 0.208036
0.210075 0.969668 0.205505
0.337942 0.967305 0.202975
0.464685 0.964942 0.200443
0.590148 0.962578 0.197912
0.714199 0.960213 0.195380
0.836724 0.957847 0.192848
0.957618 0.955481 0.190316
0.019702 0.017399 0.407449
0.148834 0.014848 0.404952
0.277169 0.012298 0.402454
0.404468 0.009747 0.399956
0.530558 0.007196 0.397458
0.655298 0.004645 0.394959
0.778563 0.002094 0.392459
0.900246 0.000000 0.389960
1.000000 0.000000 0.387459
0.011122 0.140540 0.399047
0.140294 0.138000 0.396548
0.268690 0.135461 0.394049
0.396064 0.132921 0.391549
0.522239 0.130381 0.389049
0.647072 0.127840 0.386549
0.770438 0.125300 0.384048
0.892230 0.122759 0.381546
1.000000 0.120217 0.379044
0.002540 0.262973 0.390639
0.131750 0.260451 0.388139
0.260207 0.257929 0.385638
0.387654 0.255406 0.383137
0.513914 0.252882 0.380635
0.638839 0.250359 0.378133
0.762307 0.247835 0.375631
0.884206 0.245310 0.373128
1.000000 0.242785 0.370624
0.000000 0.384485 0.382226
0.123203 0.381984 0.379725
0.251719 0.379482 0.377222
0.379240 0.376980 0.374720
0.505583 0.374477 0.372216
0.630601 0.371974 0.369713
0.754168 0.369470 0.367209
0.876174 0.366966 0.364704
0.996518 0.364461 0.362199
0.000000 0.504921 0.373808
0.114653 0.502443 0.371305
0.243227 0.499965 0.368801
0.370820 0.497486 0.366297
0.497246 0.495007 0.363792
0.622356 0.492527 0.361287
0.746023 0.490046 0.358781
0.868136 0.487566 0.356275
0.988593 0.485084 0.353769
0.000000 0.624152 0.365385
0.106100 0.621701 0.362880
0.234731 0.619248 0.360375
0.362395 0.616796 0.357869
0.488903 0.614342 0.355363
0.614104 0.611888 0.352856
0.737871 0.609434 0.350349
0.860090 0.606979 0.347842
0.980660 0.604523 0.345334
0.000000 0.742071 0.356957
0.097543 0.739647 0.354450
0.226230 0.737223 0.351944
0.353965 0.734799 0.349436
0.480554 0.732373 0.346929
0.605847 0.729947 0.344420
0.729712 0.727521 0.341912
0.852037 0.725093 0.339403
0.972719 0.722666 0.336893
0.000000 0.858580 0.348523
0.088984 0.856186 0.346016
0.217725 0.853792 0.343507
0.345529 0.851397 0.340998
0.472200 0.849002 0.338489
0.597583 0.846606 0.335980
0.721546 0.844209 0.333470
0.843977 0.841812 0.330959
0.964771 0.839414 0.328448
0.000000 0.973590 0.340085
0.080422 0.971228 0.337576
0.209216 0.968866 0.335066
0.337089 0.966503 0.332556
0.463840 0.964139 0.330045
0.589312 0.961775 0.327534
0.713374 0.959410 0.325022
0.835909 0.957044 0.322510
0.956815 0.954678 0.319998
0.018836 0.016533 0.535141
0.147972 0.013982 0.532670
0.276313 0.011431 0.530198
0.403620 0.008880 0.527725
0.529719 0.006329 0.525252
0.654467 0.003778 0.522779
0.777743 0.001227 0.520305
0.899437 0.000000 0.517830
1.000000 0.000000 0.515355
0.010255 0.139677 0.526825
0.139431 0.137138 0.524352
0.267834 0.134598 0.521878
0.395215 0.132058 0.519404
0.521399 0.129518 0.516929
0.646241 0.126978 0.514454
0.769618 0.124437 0.511978
0.891420 0.121896 0.509502
1.000000 0.119354 0.507025
0.001674 0.262117 0.518503
0.130887 0.259594 0.516028
0.259350 0.257072 0.513553
0.386805 0.254549 0.511077
0.513073 0.252025 0.508600
0.638008 0.249501 0.506123
0.761486 0.246977 0.503646
0.883395 0.244453 0.501168
1.000000 0.241928 0.498689
0.000000 0.383636 0.510175
0.122340 0.381134 0.507699
0.250862 0.378632 0.505221
0.378390 0.376130 0.502744
0.504741 0.373627 0.500265
0.629769 0.371124 0.497787
0.753346 0.368620 0.495307
0.875363 0.366116 0.492828
0.995719 0.363611 0.490347
0.000000 0.504079 0.501842
0.113790 0.501601 0.499363
0.242369 0.499123 0.496884
0.369970 0.496644 0.494405
0.496404 0.494164 0.491925
0.621523 0.491684 0.489444
0.745200 0.489204 0.486963
0.867324 0.486723 0.484482
0.987793 0.484241 0.482000
0.000000 0.623320 0.493502
0.105236 0.620868 0.491022
0.233873 0.618415 0.488541
0.361544 0.615962 0.486060
0.488060 0.613509 0.483578
0.613271 0.611055 0.481096
0.737048 0.608600 0.478614
0.859277 0.606145 0.476130
0.979859 0.603689 0.473647
0.000000 0.741248 0.485157
0.096679 0.738824 0.482675
0.225372 0.736400 0.480192
0.353113 0.733975 0.477710
0.479711 0.731549 0.475226
0.605013 0.729123 0.472742
0.728888 0.726696 0.470258
0.851224 0.724269 0.467773
0.971917 0.721841 0.465288
0.000000 0.857767 0.476806
0.088120 0.855373 0.474322
0.216866 0.852979 0.471838
0.344678 0.850584 0.469353
0.471357 0.848188 0.466868
0.596748 0.845792 0.464383
0.720722 0.843395 0.461897
0.843163 0.840997 0.459410
0.963968 0.838599 0.456923
0.000000 0.972788 0.468449
0.079557 0.970426 0.465964
0.208357 0.968063 0.463478
0.336237 0.965700 0.460992
0.462996 0.963336 0.458505
0.588477 0.960972 0.456018
0.712548 0.958606 0.453530
0.835094 0.956240 0.451042
0.956011 0.953874 0.448553
0.017970 0.015667 0.661442
0.147110 0.013116 0.658999
0.275457 0.010565 0.656555
0.402772 0.008014 0.654111
0.528879 0.005463 0.651666
0.653637 0.002912 0.649221
0.776923 0.000361 0.646775
0.898628 0.000000 0.644328
1.000000 0.000000 0.641881
0.009389 0.138815 0.653221
0.138569 0.136276 0.650776
0.266977 0.133736 0.648330
0.394366 0.131196 0.645884
0.520559 0.128655 0.643438
0.645410 0.126115 0.640990
0.768797 0.123574 0.638542
0.890610 0.121033 0.636094
1.000000 0.118491 0.633645
0.000807 0.261260 0.644994
0.130025 0.258738 0.642547
0.258493 0.256215 0.640099
0.385956 0.253692 0.637651
0.512232 0.251168 0.635202
0.637177 0.248644 0.632753
0.760664 0.246120 0.630304
0.882585 0.243595 0.627853
1.000000 0.241070 0.625402
0.000000 0.382786 0.636760
0.121477 0.380285 0.634311
0.250005 0.377783 0.631861
0.377540 0.375280 0.629411
0.503900 0.372777 0.626961
0.628937 0.370273 0.624510
0.752524 0.367769 0.622058
0.874552 0.365265 0.619606
0.994919 0.362760 0.617153
0.000000 0.503238 0.628519
0.112926 0.500760 0.626069
0.241512 0.498281 0.623617
0.369119 0.495802 0.621166
0.495562 0.493322 0.618713
0.620690 0.490842 0.616260
0.744378 0.488361 0.613807
0.866512 0.485880 0.611353
0.986992 0.483399 0.608898
0.000000 0.622487 0.620273
0.104372 0.620035 0.617820
0.233015 0.617582 0.615367
0.360693 0.615129 0.612913
0.487218 0.612675 0.610459
0.612438 0.610221 0.608004
0.736224 0.607766 0.605549
0.858465 0.605311 0.603093
0.979057 0.602855 0.600636
0.000000 0.740425 0.612020
0.095815 0.738001 0.609565
0.224513 0.735576 0.607110
0.352262 0.733151 0.604655
0.478868 0.730725 0.602198
0.604179 0.728299 0.599742
0.728064 0.725872 0.597284
0.850410 0.723445 0.594827
0.971115 0.721016 0.592368
0.000000 0.856954 0.603760
0.087255 0.854560 0.601304
0.216007 0.852165 0.598847
0.343826 0.849770 0.596390
0.470513 0.847374 0.593932
0.595913 0.844978 0.591473
0.719897 0.842581 0.589014
0.842348 0.840183 0.586554
0.963165 0.837785 0.584094
0.000000 0.971986 0.595495
0.078692 0.969624 0.593037
0.207498 0.967261 0.590578
0.335385 0.964897 0.588119
0.462152 0.962533 0.585659
0.587642 0.960168 0.583198
0.711723 0.957803 0.580737
0.834279 0.955437 0.578276
0.955207 0.953070 0.575814
0.017104 0.014800 0.786225
0.146248 0.012250 0.783812
0.274601 0.009699 0.781399
0.401923 0.007148 0.778985
0.528039 0.004597 0.776571
0.652807 0.002046 0.774156
0.776103 0.000000 0.771741
0.897819 0.000000 0.769325
1.000000 0.000000 0.766908
0.008523 0.137953 0.778107
0.137707 0.135413 0.775692
0.266121 0.132873 0.773277
0.393518 0.130333 0.770861
0.519718 0.127793 0.768445
0.644579 0.125252 0.766028
0.767977 0.122711 0.763610
0.889800 0.120170 0.761192
1.000000 0.117628 0.758773
0.000000 0.260404 0.769982
0.129162 0.257881 0.767565
0.257637 0.255358 0.765148
0.385107 0.252835 0.762730
0.511391 0.250311 0.760312
0.636345 0.247787 0.757893
0.759843 0.245263 0.755473
0.881774 0.242738 0.753053
1.000000 0.240212 0.750632
0.000000 0.381937 0.761850
0.120614 0.379435 0.759431
0.249148 0.376933 0.757012
0.376690 0.374430 0.754592
0.503058 0.371927 0.752171
0.628104 0.369423 0.749750
0.751702 0.366919 0.747329
0.873741 0.364414 0.744907
0.994119 0.361909 0.742484
0.000000 0.502396 0.753711
0.112063 0.499918 0.751290
0.240654 0.497439 0.748869
0.368269 0.494960 0.746447
0.494720 0.492480 0.744025
0.619857 0.490000 0.741601
0.743555 0.487519 0.739178
0.865700 0.485038 0.736753
0.986191 0.482556 0.734329
0.000000 0.621655 0.745565
0.103509 0.619202 0.743142
0.232157 0.616749 0.740719
0.359842 0.614296 0.738295
0.486375 0.611842 0.735871
0.611604 0.609387 0.733446
0.735401 0.606932 0.731020
0.857652 0.604477 0.728594
0.978256 0.602021 0.726167
0.000000 0.739602 0.737413
0.094951 0.737178 0.734988
0.223655 0.734753 0.732563
0.351411 0.732327 0.730137
0.478025 0.729902 0.727710
0.603345 0.727475 0.725283
0.727240 0.725048 0.722855
0.849597 0.722620 0.720427
0.970313 0.720192 0.717998
0.000000 0.856141 0.729253
0.086391 0.853747 0.726827
0.215149 0.851352 0.724399
0.342974 0.848957 0.721971
0.469669 0.846561 0.719543
0.595079 0.844164 0.717114
0.719072 0.841766 0.714684
0.841534 0.839368 0.712254
0.962362 0.836970 0.709823
0.000000 0.971184 0.721087
0.077828 0.968821 0.718658
0.206638 0.966458 0.716229
0.334532 0.964095 0.713799
0.461307 0.961730 0.711369
0.586807 0.959365 0.708937
0.710897 0.956999 0.706506
0.833464 0.954633 0.704073
0.954404 0.952266 0.701641
0.016238 0.013934 0.909377
0.145385 0.011383 0.906997
0.273745 0.008832 0.904617
0.401075 0.006281 0.902236
0.527200 0.003730 0.899854
0.651977 0.001179 0.897472
0.775283 0.000000 0.895089
0.897010 0.000000 0.892705
1.000000 0.000000 0.890321
0.007657 0.137090 0.901369
0.136844 0.134551 0.898987
0.265265 0.132011 0.896604
0.392669 0.129470 0.894221
0.518878 0.126930 0.891837
0.643748 0.124389 0.889453
0.767156 0.121848 0.887067
0.888990 0.119306 0.884682
1.000000 0.116765 0.882295
0.000000 0.259547 0.893353
0.128299 0.257024 0.890969
0.256780 0.254501 0.888584
0.384257 0.251978 0.886199
0.510550 0.249454 0.883813
0.635513 0.246930 0.881426
0.759021 0.244405 0.879039
0.880964 0.241880 0.876651
1.000000 0.239355 0.874262
0.000000 0.381087 0.885330
0.119751 0.378585 0.882944
0.248290 0.376083 0.880557
0.375840 0.373580 0.878169
0.502217 0.371077 0.875781
0.627272 0.368573 0.873392
0.750880 0.366068 0.871003
0.872929 0.363564 0.868613
0.993319 0.361058 0.866222
0.000000 0.501555 0.877300
0.111200 0.499076 0.874912
0.239797 0.496597 0.872522
0.367418 0.494118 0.870133
0.493878 0.491638 0.867742
0.619025 0.489157 0.865351
0.742732 0.486676 0.862960
0.864888 0.484195 0.860567
0.985391 0.481713 0.858174
0.000000 0.620822 0.869263
0.102645 0.618369 0.866872
0.231299 0.615916 0.864481
0.358991 0.613463 0.862089
0.485532 0.611008 0.859696
0.610771 0.608554 0.857303
0.734577 0.606098 0.854909
0.856839 0.603643 0.852515
0.977454 0.601186 0.850119
0.000000 0.738779 0.861218
0.094087 0.736354 0.858825
0.222796 0.733929 0.856431
0.350559 0.731504 0.854037
0.477182 0.729077 0.851643
0.602510 0.726651 0.849247
0.726416 0.724223 0.846851
0.848783 0.721795 0.844455
0.969510 0.719367 0.842057
0.000000 0.855328 0.853166
0.085527 0.852934 0.850771
0.214290 0.850539 0.848375
0.342122 0.848143 0.845979
0.468825 0.845747 0.843582
0.594244 0.843350 0.841185
0.718247 0.840952 0.838786
0.840720 0.838554 0.836388
0.961559 0.836155 0.833988
0.000000 0.970382 0.845106
0.076963 0.968019 0.842709
0.205779 0.965656 0.840312
0.333680 0.963292 0.837913
0.460463 0.960927 0.835514
0.585971 0.958562 0.833115
0.710072 0.956196 0.830714
0.832649 0.953829 0.828313
0.953600 0.951462 0.825912
0.015371 0.013068 1.000000
0.144523 0.010517 1.000000
0.272889 0.007966 1.000000
0.400227 0.005415 1.000000
0.526360 0.002864 1.000000
0.651146 0.000313 1.000000
0.774463 0.000000 1.000000
0.896201 0.000000 1.000000
1.000000 0.000000 1.000000
0.006790 0.136228 1.000000
0.135982 0.133688 1.000000
0.264408 0.131148 1.000000
0.391820 0.128608 1.000000
0.518038 0.126067 1.000000
0.642917 0.123526 1.000000
0.766335 0.120985 1.000000
0.888180 0.118443 1.000000
1.000000 0.115901 1.000000
0.000000 0.258690 1.000000
0.127436 0.256168 1.000000
0.255923 0.253644 1.000000
0.383408 0.251121 1.000000
0.509709 0.248597 1.000000
0.634682 0.246072 1.000000
0.758200 0.243548 1.000000
0.880153 0.241023 0.998543
1.000000 0.238497 0.996188
0.000000 0.380238 1.000000
0.118888 0.377736 1.000000
0.247433 0.375233 1.000000
0.374990 0.372730 1.000000
0.501375 0.370226 0.997686
0.626440 0.367722 0.995331
0.750058 0.365218 0.992976
0.872118 0.362713 0.990619
0.992519 0.360208 0.988263
0.000000 0.500713 0.999183
0.110336 0.498234 0.996829
0.238939 0.495755 0.994474
0.366568 0.493276 0.992118
0.493035 0.490795 0.989761
0.618192 0.488315 0.987404
0.741909 0.485834 0.985047
0.864076 0.483352 0.982688
0.984590 0.480870 0.980329
0.000000 0.619989 0.991260
0.101781 0.617536 0.988903
0.230440 0.615083 0.986546
0.358140 0.612629 0.984188
0.484690 0.610175 0.981829
0.609937 0.607720 0.979470
0.733754 0.605265 0.977110
0.856026 0.602808 0.974749
0.976653 0.600352 0.972388
0.000000 0.737955 0.983330
0.093223 0.735531 0.980971
0.221938 0.733106 0.978611
0.349708 0.730680 0.976251
0.476338 0.728253 0.973890
0.601676 0.725826 0.971528
0.725591 0.723399 0.969166
0.847969 0.720971 0.966803
0.968708 0.718542 0.964439
0.000000 0.854515 0.975391
0.084662 0.852120 0.973030
0.213431 0.849725 0.970668
0.341270 0.847329 0.968306
0.467981 0.844933 0.965943
0.593409 0.842536 0.963579
0.717422 0.840138 0.961214
0.839905 0.837739 0.958849
0.960756 0.835340 0.956483
0.000000 0.969579 0.967445
0.076099 0.967216 0.965082
0.204920 0.964853 0.962718
0.332827 0.962489 0.960353
0.459618 0.960124 0.957988
0.585136 0.957758 0.955621
0.709246 0.955392 0.953255
0.831834 0.953025 0.950887
0.952796 0.950658 0.948519
