source/experimental_legacy_banks/bank_b/looks/hp5/look.CUBE
#Created by: Infinite Arch Leica Look Builder
#Unique Leica Look ID: 0
#Based Filmstyle Mode: Standard
TITLE "IA HP5"
LUT_3D_SIZE 9
DOMAIN_MIN 0.0 0.0 0.0
DOMAIN_MAX 1.0 1.0 1.0
0.000000 0.000000 0.000000
0.000000 0.000000 0.000000
0.000000 0.000000 0.000000
0.000000 0.000000 0.000000
0.023222 0.023222 0.023222
0.058360 0.058360 0.058360
0.093413 0.093413 0.093413
0.128378 0.128378 0.128378
0.163254 0.163254 0.163254
0.000000 0.000000 0.000000
0.024751 0.024751 0.024751
0.059886 0.059886 0.059886
0.094935 0.094935 0.094935
0.129896 0.129896 0.129896
0.164768 0.164768 0.164768
0.199549 0.199549 0.199549
0.234238 0.234238 0.234238
0.268833 0.268833 0.268833
0.096457 0.096457 0.096457
0.131414 0.131414 0.131414
0.166282 0.166282 0.166282
0.201059 0.201059 0.201059
0.235744 0.235744 0.235744
0.270335 0.270335 0.270335
0.304833 0.304833 0.304833
0.339236 0.339236 0.339236
0.373544 0.373544 0.373544
0.202569 0.202569 0.202569
0.237250 0.237250 0.237250
0.271837 0.271837 0.271837
0.306331 0.306331 0.306331
0.340730 0.340730 0.340730
0.375034 0.375034 0.375034
0.409242 0.409242 0.409242
0.443355 0.443355 0.443355
0.477373 0.477373 0.477373
0.307828 0.307828 0.307828
0.342223 0.342223 0.342223
0.376523 0.376523 0.376523
0.410728 0.410728 0.410728
0.444836 0.444836 0.444836
0.478850 0.478850 0.478850
0.512767 0.512767 0.512767
0.546588 0.546588 0.546588
0.580313 0.580313 0.580313
0.412213 0.412213 0.412213
0.446317 0.446317 0.446317
0.480326 0.480326 0.480326
0.514239 0.514239 0.514239
0.548056 0.548056 0.548056
0.581778 0.581778 0.581778
0.615403 0.615403 0.615403
0.648933 0.648933 0.648933
0.682368 0.682368 0.682368
0.515712 0.515712 0.515712
0.549525 0.549525 0.549525
0.583242 0.583242 0.583242
0.616863 0.616863 0.616863
0.650389 0.650389 0.650389
0.683819 0.683819 0.683819
0.717155 0.717155 0.717155
0.750396 0.750396 0.750396
0.783544 0.783544 0.783544
0.618323 0.618323 0.618323
0.651844 0.651844 0.651844
0.685271 0.685271 0.685271
0.718602 0.718602 0.718602
0.751839 0.751839 0.751839
0.784983 0.784983 0.784983
0.818033 0.818033 0.818033
0.850991 0.850991 0.850991
0.883857 0.883857 0.883857
0.720049 0.720049 0.720049
0.753282 0.753282 0.753282
0.786422 0.786422 0.786422
0.819468 0.819468 0.819468
0.852422 0.852422 0.852422
0.885284 0.885284 0.885284
0.918057 0.918057 0.918057
0.950742 0.950742 0.950742
0.983341 0.983341 0.983341
0.000000 0.000000 0.000000
0.000000 0.000000 0.000000
0.000000 0.000000 0.000000
0.000000 0.000000 0.000000
0.033925 0.033925 0.033925
0.069037 0.069037 0.069037
0.104064 0.104064 0.104064
0.139002 0.139002 0.139002
0.173850 0.173850 0.173850
0.000262 0.000262 0.000262
0.035453 0.035453 0.035453
0.070562 0.070562 0.070562
0.105585 0.105585 0.105585
0.140519 0.140519 0.140519
0.175364 0.175364 0.175364
0.210116 0.210116 0.210116
0.244777 0.244777 0.244777
0.279344 0.279344 0.279344
0.107105 0.107105 0.107105
0.142036 0.142036 0.142036
0.176876 0.176876 0.176876
0.211625 0.211625 0.211625
0.246282 0.246282 0.246282
0.280845 0.280845 0.280845
0.315314 0.315314 0.315314
0.349688 0.349688 0.349688
0.383967 0.383967 0.383967
0.213134 0.213134 0.213134
0.247786 0.247786 0.247786
0.282345 0.282345 0.282345
0.316810 0.316810 0.316810
0.351180 0.351180 0.351180
0.385455 0.385455 0.385455
0.419635 0.419635 0.419635
0.453719 0.453719 0.453719
0.487707 0.487707 0.487707
0.318306 0.318306 0.318306
0.352672 0.352672 0.352672
0.386943 0.386943 0.386943
0.421119 0.421119 0.421119
0.455198 0.455198 0.455198
0.489182 0.489182 0.489182
0.523070 0.523070 0.523070
0.556862 0.556862 0.556862
0.590559 0.590559 0.590559
0.422602 0.422602 0.422602
0.456678 0.456678 0.456678
0.490658 0.490658 0.490658
0.524542 0.524542 0.524542
0.558330 0.558330 0.558330
0.592022 0.592022 0.592022
0.625618 0.625618 0.625618
0.659119 0.659119 0.659119
0.692525 0.692525 0.692525
0.526013 0.526013 0.526013
0.559796 0.559796 0.559796
0.593484 0.593484 0.593484
0.627077 0.627077 0.627077
0.660573 0.660573 0.660573
0.693975 0.693975 0.693975
0.727282 0.727282 0.727282
0.760494 0.760494 0.760494
0.793613 0.793613 0.793613
0.628535 0.628535 0.628535
0.662028 0.662028 0.662028
0.695425 0.695425 0.695425
0.728728 0.728728 0.728728
0.761936 0.761936 0.761936
0.795051 0.795051 0.795051
0.828073 0.828073 0.828073
0.861003 0.861003 0.861003
0.893842 0.893842 0.893842
0.730174 0.730174 0.730174
0.763378 0.763378 0.763378
0.796489 0.796489 0.796489
0.829507 0.829507 0.829507
0.862433 0.862433 0.862433
0.895268 0.895268 0.895268
0.928014 0.928014 0.928014
0.960672 0.960672 0.960672
0.993246 0.993246 0.993246
0.000000 0.000000 0.000000
0.000000 0.000000 0.000000
0.000000 0.000000 0.000000
0.009450 0.009450 0.009450
0.044620 0.044620 0.044620
0.079707 0.079707 0.079707
0.114707 0.114707 0.114707
0.149618 0.149618 0.149618
0.184438 0.184438 0.184438
0.010980 0.010980 0.010980
0.046147 0.046147 0.046147
0.081230 0.081230 0.081230
0.116226 0.116226 0.116226
0.151134 0.151134 0.151134
0.185950 0.185950 0.185950
0.220675 0.220675 0.220675
0.255307 0.255307 0.255307
0.289846 0.289846 0.289846
0.117746 0.117746 0.117746
0.152649 0.152649 0.152649
0.187462 0.187462 0.187462
0.222183 0.222183 0.222183
0.256811 0.256811 0.256811
0.291345 0.291345 0.291345
0.325785 0.325785 0.325785
0.360131 0.360131 0.360131
0.394381 0.394381 0.394381
0.223690 0.223690 0.223690
0.258314 0.258314 0.258314
0.292845 0.292845 0.292845
0.327281 0.327281 0.327281
0.361622 0.361622 0.361622
0.395868 0.395868 0.395868
0.430018 0.430018 0.430018
0.464073 0.464073 0.464073
0.498032 0.498032 0.498032
0.328776 0.328776 0.328776
0.363113 0.363113 0.363113
0.397355 0.397355 0.397355
0.431501 0.431501 0.431501
0.465552 0.465552 0.465552
0.499506 0.499506 0.499506
0.533365 0.533365 0.533365
0.567128 0.567128 0.567128
0.600795 0.600795 0.600795
0.432983 0.432983 0.432983
0.467030 0.467030 0.467030
0.500980 0.500980 0.500980
0.534835 0.534835 0.534835
0.568594 0.568594 0.568594
0.602257 0.602257 0.602257
0.635824 0.635824 0.635824
0.669296 0.669296 0.669296
0.702673 0.702673 0.702673
0.536305 0.536305 0.536305
0.570059 0.570059 0.570059
0.603718 0.603718 0.603718
0.637281 0.637281 0.637281
0.670749 0.670749 0.670749
0.704122 0.704122 0.704122
0.737400 0.737400 0.737400
0.770584 0.770584 0.770584
0.803675 0.803675 0.803675
0.638738 0.638738 0.638738
0.672202 0.672202 0.672202
0.705571 0.705571 0.705571
0.738845 0.738845 0.738845
0.772025 0.772025 0.772025
0.805111 0.805111 0.805111
0.838105 0.838105 0.838105
0.871007 0.871007 0.871007
0.903819 0.903819 0.903819
0.740289 0.740289 0.740289
0.773465 0.773465 0.773465
0.806548 0.806548 0.806548
0.839537 0.839537 0.839537
0.872436 0.872436 0.872436
0.905243 0.905243 0.905243
0.937962 0.937962 0.937962
0.970595 0.970595 0.970595
1.000000 1.000000 1.000000
0.000000 0.000000 0.000000
0.000000 0.000000 0.000000
0.000000 0.000000 0.000000
0.020162 0.020162 0.020162
0.055308 0.055308 0.055308
0.090368 0.090368 0.090368
0.125341 0.125341 0.125341
0.160225 0.160225 0.160225
0.195018 0.195018 0.195018
0.021692 0.021692 0.021692
0.056834 0.056834 0.056834
0.091891 0.091891 0.091891
0.126860 0.126860 0.126860
0.161740 0.161740 0.161740
0.196528 0.196528 0.196528
0.231225 0.231225 0.231225
0.265829 0.265829 0.265829
0.300339 0.300339 0.300339
0.128378 0.128378 0.128378
0.163254 0.163254 0.163254
0.198039 0.198039 0.198039
0.232732 0.232732 0.232732
0.267331 0.267331 0.267331
0.301837 0.301837 0.301837
0.336248 0.336248 0.336248
0.370565 0.370565 0.370565
0.404786 0.404786 0.404786
0.234238 0.234238 0.234238
0.268833 0.268833 0.268833
0.303335 0.303335 0.303335
0.337742 0.337742 0.337742
0.372055 0.372055 0.372055
0.406272 0.406272 0.406272
0.440393 0.440393 0.440393
0.474419 0.474419 0.474419
0.508348 0.508348 0.508348
0.339236 0.339236 0.339236
0.373544 0.373544 0.373544
0.407757 0.407757 0.407757
0.441874 0.441874 0.441874
0.475896 0.475896 0.475896
0.509821 0.509821 0.509821
0.543651 0.543651 0.543651
0.577385 0.577385 0.577385
0.611023 0.611023 0.611023
0.443355 0.443355 0.443355
0.477373 0.477373 0.477373
0.511294 0.511294 0.511294
0.545120 0.545120 0.545120
0.578849 0.578849 0.578849
0.612483 0.612483 0.612483
0.646021 0.646021 0.646021
0.679464 0.679464 0.679464
0.712812 0.712812 0.712812
0.546588 0.546588 0.546588
0.580313 0.580313 0.580313
0.613943 0.613943 0.613943
0.647477 0.647477 0.647477
0.680916 0.680916 0.680916
0.714260 0.714260 0.714260
0.747509 0.747509 0.747509
0.780665 0.780665 0.780665
0.813727 0.813727 0.813727
0.648933 0.648933 0.648933
0.682368 0.682368 0.682368
0.715708 0.715708 0.715708
0.748953 0.748953 0.748953
0.782104 0.782104 0.782104
0.815163 0.815163 0.815163
0.848128 0.848128 0.848128
0.881003 0.881003 0.881003
0.913787 0.913787 0.913787
0.750396 0.750396 0.750396
0.783544 0.783544 0.783544
0.816598 0.816598 0.816598
0.849560 0.849560 0.849560
0.882430 0.882430 0.882430
0.915211 0.915211 0.915211
0.947903 0.947903 0.947903
0.980510 0.980510 0.980510
1.000000 1.000000 1.000000
0.000000 0.000000 0.000000
0.000000 0.000000 0.000000
0.000000 0.000000 0.000000
0.030867 0.030867 0.030867
0.065987 0.065987 0.065987
0.101022 0.101022 0.101022
0.135968 0.135968 0.135968
0.170824 0.170824 0.170824
0.205589 0.205589 0.205589
0.032396 0.032396 0.032396
0.067512 0.067512 0.067512
0.102543 0.102543 0.102543
0.137485 0.137485 0.137485
0.172337 0.172337 0.172337
0.207098 0.207098 0.207098
0.241767 0.241767 0.241767
0.276342 0.276342 0.276342
0.310823 0.310823 0.310823
0.139002 0.139002 0.139002
0.173850 0.173850 0.173850
0.208607 0.208607 0.208607
0.243272 0.243272 0.243272
0.277843 0.277843 0.277843
0.312320 0.312320 0.312320
0.346703 0.346703 0.346703
0.380990 0.380990 0.380990
0.415182 0.415182 0.415182
0.244777 0.244777 0.244777
0.279344 0.279344 0.279344
0.313817 0.313817 0.313817
0.348195 0.348195 0.348195
0.382479 0.382479 0.382479
0.416666 0.416666 0.416666
0.450759 0.450759 0.450759
0.484755 0.484755 0.484755
0.518656 0.518656 0.518656
0.349688 0.349688 0.349688
0.383967 0.383967 0.383967
0.418151 0.418151 0.418151
0.452239 0.452239 0.452239
0.486231 0.486231 0.486231
0.520127 0.520127 0.520127
0.553928 0.553928 0.553928
0.587632 0.587632 0.587632
0.621241 0.621241 0.621241
0.453719 0.453719 0.453719
0.487707 0.487707 0.487707
0.521599 0.521599 0.521599
0.555395 0.555395 0.555395
0.589096 0.589096 0.589096
0.622700 0.622700 0.622700
0.656210 0.656210 0.656210
0.689624 0.689624 0.689624
0.722943 0.722943 0.722943
0.556862 0.556862 0.556862
0.590559 0.590559 0.590559
0.624159 0.624159 0.624159
0.657664 0.657664 0.657664
0.691074 0.691074 0.691074
0.724389 0.724389 0.724389
0.757610 0.757610 0.757610
0.790737 0.790737 0.790737
0.823771 0.823771 0.823771
0.659119 0.659119 0.659119
0.692525 0.692525 0.692525
0.725836 0.725836 0.725836
0.759052 0.759052 0.759052
0.792175 0.792175 0.792175
0.825205 0.825205 0.825205
0.858143 0.858143 0.858143
0.890990 0.890990 0.890990
0.923748 0.923748 0.923748
0.760494 0.760494 0.760494
0.793613 0.793613 0.793613
0.826639 0.826639 0.826639
0.859573 0.859573 0.859573
0.892416 0.892416 0.892416
0.925170 0.925170 0.925170
0.957836 0.957836 0.957836
0.990417 0.990417 0.990417
1.000000 1.000000 1.000000
0.000000 0.000000 0.000000
0.000000 0.000000 0.000000
0.006388 0.006388 0.006388
0.041565 0.041565 0.041565
0.076659 0.076659 0.076659
0.111667 0.111667 0.111667
0.146586 0.146586 0.146586
0.181414 0.181414 0.181414
0.216151 0.216151 0.216151
0.043093 0.043093 0.043093
0.078183 0.078183 0.078183
0.113187 0.113187 0.113187
0.148102 0.148102 0.148102
0.182926 0.182926 0.182926
0.217659 0.217659 0.217659
0.252299 0.252299 0.252299
0.286846 0.286846 0.286846
0.321299 0.321299 0.321299
0.149618 0.149618 0.149618
0.184438 0.184438 0.184438
0.219167 0.219167 0.219167
0.253803 0.253803 0.253803
0.288346 0.288346 0.288346
0.322794 0.322794 0.322794
0.357148 0.357148 0.357148
0.391406 0.391406 0.391406
0.425569 0.425569 0.425569
0.255307 0.255307 0.255307
0.289846 0.289846 0.289846
0.324290 0.324290 0.324290
0.358639 0.358639 0.358639
0.392894 0.392894 0.392894
0.427052 0.427052 0.427052
0.461116 0.461116 0.461116
0.495083 0.495083 0.495083
0.528954 0.528954 0.528954
0.360131 0.360131 0.360131
0.394381 0.394381 0.394381
0.428535 0.428535 0.428535
0.462594 0.462594 0.462594
0.496557 0.496557 0.496557
0.530425 0.530425 0.530425
0.564196 0.564196 0.564196
0.597871 0.597871 0.597871
0.631451 0.631451 0.631451
0.464073 0.464073 0.464073
0.498032 0.498032 0.498032
0.531895 0.531895 0.531895
0.565662 0.565662 0.565662
0.599333 0.599333 0.599333
0.632909 0.632909 0.632909
0.666389 0.666389 0.666389
0.699774 0.699774 0.699774
0.733065 0.733065 0.733065
0.567128 0.567128 0.567128
0.600795 0.600795 0.600795
0.634367 0.634367 0.634367
0.667843 0.667843 0.667843
0.701224 0.701224 0.701224
0.734510 0.734510 0.734510
0.767702 0.767702 0.767702
0.800801 0.800801 0.800801
0.833807 0.833807 0.833807
0.669296 0.669296 0.669296
0.702673 0.702673 0.702673
0.735955 0.735955 0.735955
0.769143 0.769143 0.769143
0.802238 0.802238 0.802238
0.835240 0.835240 0.835240
0.868150 0.868150 0.868150
0.900969 0.900969 0.900969
0.933700 0.933700 0.933700
0.770584 0.770584 0.770584
0.803675 0.803675 0.803675
0.836672 0.836672 0.836672
0.869579 0.869579 0.869579
0.902394 0.902394 0.902394
0.935121 0.935121 0.935121
0.967760 0.967760 0.967760
1.000000 1.000000 1.000000
1.000000 1.000000 1.000000
0.000000 0.000000 0.000000
0.000000 0.000000 0.000000
0.017102 0.017102 0.017102
0.052255 0.052255 0.052255
0.087323 0.087323 0.087323
0.122304 0.122304 0.122304
0.157195 0.157195 0.157195
0.191996 0.191996 0.191996
0.226705 0.226705 0.226705
0.053781 0.053781 0.053781
0.088846 0.088846 0.088846
0.123823 0.123823 0.123823
0.158710 0.158710 0.158710
0.193507 0.193507 0.193507
0.228212 0.228212 0.228212
0.262824 0.262824 0.262824
0.297342 0.297342 0.297342
0.331765 0.331765 0.331765
0.160225 0.160225 0.160225
0.195018 0.195018 0.195018
0.229719 0.229719 0.229719
0.264326 0.264326 0.264326
0.298840 0.298840 0.298840
0.333260 0.333260 0.333260
0.367584 0.367584 0.367584
0.401814 0.401814 0.401814
0.435948 0.435948 0.435948
0.265829 0.265829 0.265829
0.300339 0.300339 0.300339
0.334754 0.334754 0.334754
0.369075 0.369075 0.369075
0.403300 0.403300 0.403300
0.437430 0.437430 0.437430
0.471464 0.471464 0.471464
0.505402 0.505402 0.505402
0.539244 0.539244 0.539244
0.370565 0.370565 0.370565
0.404786 0.404786 0.404786
0.438911 0.438911 0.438911
0.472941 0.472941 0.472941
0.506875 0.506875 0.506875
0.540713 0.540713 0.540713
0.574455 0.574455 0.574455
0.608101 0.608101 0.608101
0.641652 0.641652 0.641652
0.474419 0.474419 0.474419
0.508348 0.508348 0.508348
0.542182 0.542182 0.542182
0.575920 0.575920 0.575920
0.609562 0.609562 0.609562
0.643109 0.643109 0.643109
0.676560 0.676560 0.676560
0.709916 0.709916 0.709916
0.743178 0.743178 0.743178
0.577385 0.577385 0.577385
0.611023 0.611023 0.611023
0.644565 0.644565 0.644565
0.678012 0.678012 0.678012
0.711364 0.711364 0.711364
0.744622 0.744622 0.744622
0.777786 0.777786 0.777786
0.810856 0.810856 0.810856
0.843834 0.843834 0.843834
0.679464 0.679464 0.679464
0.712812 0.712812 0.712812
0.746066 0.746066 0.746066
0.779225 0.779225 0.779225
0.812292 0.812292 0.812292
0.845265 0.845265 0.845265
0.878148 0.878148 0.878148
0.910940 0.910940 0.910940
0.943644 0.943644 0.943644
0.780665 0.780665 0.780665
0.813727 0.813727 0.813727
0.846697 0.846697 0.846697
0.879575 0.879575 0.879575
0.912364 0.912364 0.912364
0.945064 0.945064 0.945064
0.977678 0.977678 0.977678
1.000000 1.000000 1.000000
1.000000 1.000000 1.000000
0.000000 0.000000 0.000000
0.000000 0.000000 0.000000
0.027810 0.027810 0.027810
0.062937 0.062937 0.062937
0.097979 0.097979 0.097979
0.132932 0.132932 0.132932
0.167796 0.167796 0.167796
0.202569 0.202569 0.202569
0.237250 0.237250 0.237250
0.064462 0.064462 0.064462
0.099500 0.099500 0.099500
0.134450 0.134450 0.134450
0.169310 0.169310 0.169310
0.204079 0.204079 0.204079
0.238756 0.238756 0.238756
0.273339 0.273339 0.273339
0.307828 0.307828 0.307828
0.342223 0.342223 0.342223
0.170824 0.170824 0.170824
0.205589 0.205589 0.205589
0.240261 0.240261 0.240261
0.274840 0.274840 0.274840
0.309326 0.309326 0.309326
0.343717 0.343717 0.343717
0.378012 0.378012 0.378012
0.412213 0.412213 0.412213
0.446317 0.446317 0.446317
0.276342 0.276342 0.276342
0.310823 0.310823 0.310823
0.345210 0.345210 0.345210
0.379501 0.379501 0.379501
0.413697 0.413697 0.413697
0.447798 0.447798 0.447798
0.481803 0.481803 0.481803
0.515712 0.515712 0.515712
0.549525 0.549525 0.549525
0.380990 0.380990 0.380990
0.415182 0.415182 0.415182
0.449278 0.449278 0.449278
0.483279 0.483279 0.483279
0.517184 0.517184 0.517184
0.550992 0.550992 0.550992
0.584705 0.584705 0.584705
0.618323 0.618323 0.618323
0.651844 0.651844 0.651844
0.484755 0.484755 0.484755
0.518656 0.518656 0.518656
0.552460 0.552460 0.552460
0.586169 0.586169 0.586169
0.619782 0.619782 0.619782
0.653300 0.653300 0.653300
0.686722 0.686722 0.686722
0.720049 0.720049 0.720049
0.753282 0.753282 0.753282
0.587632 0.587632 0.587632
0.621241 0.621241 0.621241
0.654755 0.654755 0.654755
0.688173 0.688173 0.688173
0.721496 0.721496 0.721496
0.754725 0.754725 0.754725
0.787860 0.787860 0.787860
0.820902 0.820902 0.820902
0.853852 0.853852 0.853852
0.689624 0.689624 0.689624
0.722943 0.722943 0.722943
0.756168 0.756168 0.756168
0.789299 0.789299 0.789299
0.822337 0.822337 0.822337
0.855283 0.855283 0.855283
0.888138 0.888138 0.888138
0.920903 0.920903 0.920903
0.953580 0.953580 0.953580
0.790737 0.790737 0.790737
0.823771 0.823771 0.823771
0.856713 0.856713 0.856713
0.889564 0.889564 0.889564
0.922325 0.922325 0.922325
0.954999 0.954999 0.954999
0.987587 0.987587 0.987587
1.000000 1.000000 1.000000
1.000000 1.000000 1.000000
0.000000 0.000000 0.000000
0.003325 0.003325 0.003325
0.038509 0.038509 0.038509
0.073611 0.073611 0.073611
0.108626 0.108626 0.108626
0.143553 0.143553 0.143553
0.178389 0.178389 0.178389
0.213134 0.213134 0.213134
0.247786 0.247786 0.247786
0.075135 0.075135 0.075135
0.110146 0.110146 0.110146
0.145069 0.145069 0.145069
0.179902 0.179902 0.179902
0.214643 0.214643 0.214643
0.249291 0.249291 0.249291
0.283846 0.283846 0.283846
0.318306 0.318306 0.318306
0.352672 0.352672 0.352672
0.181414 0.181414 0.181414
0.216151 0.216151 0.216151
0.250795 0.250795 0.250795
0.285346 0.285346 0.285346
0.319803 0.319803 0.319803
0.354164 0.354164 0.354164
0.388431 0.388431 0.388431
0.422602 0.422602 0.422602
0.456678 0.456678 0.456678
0.286846 0.286846 0.286846
0.321299 0.321299 0.321299
0.355656 0.355656 0.355656
0.389919 0.389919 0.389919
0.424086 0.424086 0.424086
0.458157 0.458157 0.458157
0.492133 0.492133 0.492133
0.526013 0.526013 0.526013
0.559796 0.559796 0.559796
0.391406 0.391406 0.391406
0.425569 0.425569 0.425569
0.459637 0.459637 0.459637
0.493608 0.493608 0.493608
0.527483 0.527483 0.527483
0.561263 0.561263 0.561263
0.594947 0.594947 0.594947
0.628535 0.628535 0.628535
0.662028 0.662028 0.662028
0.495083 0.495083 0.495083
0.528954 0.528954 0.528954
0.562730 0.562730 0.562730
0.596409 0.596409 0.596409
0.629993 0.629993 0.629993
0.663482 0.663482 0.663482
0.696875 0.696875 0.696875
0.730174 0.730174 0.730174
0.763378 0.763378 0.763378
0.597871 0.597871 0.597871
0.631451 0.631451 0.631451
0.664935 0.664935 0.664935
0.698325 0.698325 0.698325
0.731619 0.731619 0.731619
0.764820 0.764820 0.764820
0.797926 0.797926 0.797926
0.830940 0.830940 0.830940
0.863862 0.863862 0.863862
0.699774 0.699774 0.699774
0.733065 0.733065 0.733065
0.766261 0.766261 0.766261
0.799364 0.799364 0.799364
0.832374 0.832374 0.832374
0.865292 0.865292 0.865292
0.898119 0.898119 0.898119
0.930857 0.930857 0.930857
0.963508 0.963508 0.963508
0.800801 0.800801 0.800801
0.833807 0.833807 0.833807
0.866721 0.866721 0.866721
0.899544 0.899544 0.899544
0.932278 0.932278 0.932278
0.964926 0.964926 0.964926
0.997489 0.997489 0.997489
1.000000 1.000000 1.000000
1.000000 1.000000 1.000000
