source/experimental_legacy_banks/bank_b/looks/hp5/look.CUBE
#Created by: Infinite Arch Leica Look Builder
#Unique Leica Look ID: 0
#Based Filmstyle Mode: Standard
TITLE "IA HP5"
LUT_3D_SIZE 5
DOMAIN_MIN 0.0 0.0 0.0
DOMAIN_MAX 1.0 1.0 1.0
0.000000 0.000000 0.000000
0.000000 0.000000 0.000000
0.023222 0.023222 0.023222
0.093413 0.093413 0.093413
0.163254 0.163254 0.163254
0.096457 0.096457 0.096457
0.166282 0.166282 0.166282
0.235744 0.235744 0.235744
0.304833 0.304833 0.304833
0.373544 0.373544 0.373544
0.307828 0.307828 0.307828
0.376523 0.376523 0.376523
0.444836 0.444836 0.444836
0.512767 0.512767 0.512767
0.580313 0.580313 0.580313
0.515712 0.515712 0.515712
0.583242 0.583242 0.583242
0.650389 0.650389 0.650389
0.717155 0.717155 0.717155
0.783544 0.783544 0.783544
0.720049 0.720049 0.720049
0.786422 0.786422 0.786422
0.852422 0.852422 0.852422
0.918057 0.918057 0.918057
0.983341 0.983341 0.983341
0.000000 0.000000 0.000000
0.000000 0.000000 0.000000
0.044620 0.044620 0.044620
0.114707 0.114707 0.114707
0.184438 0.184438 0.184438
0.117746 0.117746 0.117746
0.187462 0.187462 0.187462
0.256811 0.256811 0.256811
0.325785 0.325785 0.325785
0.394381 0.394381 0.394381
0.328776 0.328776 0.328776
0.397355 0.397355 0.397355
0.465552 0.465552 0.465552
0.533365 0.533365 0.533365
0.600795 0.600795 0.600795
0.536305 0.536305 0.536305
0.603718 0.603718 0.603718
0.670749 0.670749 0.670749
0.737400 0.737400 0.737400
0.803675 0.803675 0.803675
0.740289 0.740289 0.740289
0.806548 0.806548 0.806548
0.872436 0.872436 0.872436
0.937962 0.937962 0.937962
1.000000 1.000000 1.000000
0.000000 0.000000 0.000000
0.000000 0.000000 0.000000
0.065987 0.065987 0.065987
0.135968 0.135968 0.135968
0.205589 0.205589 0.205589
0.139002 0.139002 0.139002
0.208607 0.208607 0.208607
0.277843 0.277843 0.277843
0.346703 0.346703 0.346703
0.415182 0.415182 0.415182
0.349688 0.349688 0.349688
0.418151 0.418151 0.418151
0.486231 0.486231 0.486231
0.553928 0.553928 0.553928
0.621241 0.621241 0.621241
0.556862 0.556862 0.556862
0.624159 0.624159 0.624159
0.691074 0.691074 0.691074
0.757610 0.757610 0.757610
0.823771 0.823771 0.823771
0.760494 0.760494 0.760494
0.826639 0.826639 0.826639
0.892416 0.892416 0.892416
0.957836 0.957836 0.957836
1.000000 1.000000 1.000000
0.000000 0.000000 0.000000
0.017102 0.017102 0.017102
0.087323 0.087323 0.087323
0.157195 0.157195 0.157195
0.226705 0.226705 0.226705
0.160225 0.160225 0.160225
0.229719 0.229719 0.229719
0.298840 0.298840 0.298840
0.367584 0.367584 0.367584
0.435948 0.435948 0.435948
0.370565 0.370565 0.370565
0.438911 0.438911 0.438911
0.506875 0.506875 0.506875
0.574455 0.574455 0.574455
0.641652 0.641652 0.641652
0.577385 0.577385 0.577385
0.644565 0.644565 0.644565
0.711364 0.711364 0.711364
0.777786 0.777786 0.777786
0.843834 0.843834 0.843834
0.780665 0.780665 0.780665
0.846697 0.846697 0.846697
0.912364 0.912364 0.912364
0.977678 0.977678 0.977678
1.000000 1.000000 1.000000
0.000000 0.000000 0.000000
0.038509 0.038509 0.038509
0.108626 0.108626 0.108626
0.178389 0.178389 0.178389
0.247786 0.247786 0.247786
0.181414 0.181414 0.181414
0.250795 0.250795 0.250795
0.319803 0.319803 0.319803
0.388431 0.388431 0.388431
0.456678 0.456678 0.456678
0.391406 0.391406 0.391406
0.459637 0.459637 0.459637
0.527483 0.527483 0.527483
0.594947 0.594947 0.594947
0.662028 0.662028 0.662028
0.597871 0.597871 0.597871
0.664935 0.664935 0.664935
0.731619 0.731619 0.731619
0.797926 0.797926 0.797926
0.863862 0.863862 0.863862
0.800801 0.800801 0.800801
0.866721 0.866721 0.866721
0.932278 0.932278 0.932278
0.997489 0.997489 0.997489
1.000000 1.000000 1.000000
