source/experimental_legacy_banks/bank_b/looks/hp5/look.CUBE
#Created by: Infinite Arch Leica Look Builder
#Unique Leica Look ID: 0
#Based Filmstyle Mode: Standard
TITLE "IA HP5"
LUT_3D_SIZE 17
DOMAIN_MIN 0.0 0.0 0.0
DOMAIN_MAX 1.0 1.0 1.0
0.000000 0.000000 0.000000
0.000000 0.000000 0.000000
0.000000 0.000000 0.000000
0.000000 0.000000 0.000000
0.000000 0.000000 0.000000
0.000000 0.000000 0.000000
0.000000 0.000000 0.000000
0.005622 0.005622 0.005622
0.023222 0.023222 0.023222
0.040801 0.040801 0.040801
0.058360 0.058360 0.058360
0.075897 0.075897 0.075897
0.093413 0.093413 0.093413
0.110907 0.110907 0.110907
0.128378 0.128378 0.128378
0.145827 0.145827 0.145827
0.163254 0.163254 0.163254
0.000000 0.000000 0.000000
0.000000 0.000000 0.000000
0.000000 0.000000 0.000000
0.000000 0.000000 0.000000
0.006388 0.006388 0.006388
0.023986 0.023986 0.023986
0.041565 0.041565 0.041565
0.059123 0.059123 0.059123
0.076659 0.076659 0.076659
0.094174 0.094174 0.094174
0.111667 0.111667 0.111667
0.129137 0.129137 0.129137
0.146586 0.146586 0.146586
0.164011 0.164011 0.164011
0.181414 0.181414 0.181414
0.198794 0.198794 0.198794
0.216151 0.216151 0.216151
0.000000 0.000000 0.000000
0.007153 0.007153 0.007153
0.024751 0.024751 0.024751
0.042329 0.042329 0.042329
0.059886 0.059886 0.059886
0.077421 0.077421 0.077421
0.094935 0.094935 0.094935
0.112427 0.112427 0.112427
0.129896 0.129896 0.129896
0.147344 0.147344 0.147344
0.164768 0.164768 0.164768
0.182170 0.182170 0.182170
0.199549 0.199549 0.199549
0.216905 0.216905 0.216905
0.234238 0.234238 0.234238
0.251547 0.251547 0.251547
0.268833 0.268833 0.268833
0.043093 0.043093 0.043093
0.060648 0.060648 0.060648
0.078183 0.078183 0.078183
0.095696 0.095696 0.095696
0.113187 0.113187 0.113187
0.130655 0.130655 0.130655
0.148102 0.148102 0.148102
0.165525 0.165525 0.165525
0.182926 0.182926 0.182926
0.200304 0.200304 0.200304
0.217659 0.217659 0.217659
0.234991 0.234991 0.234991
0.252299 0.252299 0.252299
0.269584 0.269584 0.269584
0.286846 0.286846 0.286846
0.304084 0.304084 0.304084
0.321299 0.321299 0.321299
0.096457 0.096457 0.096457
0.113947 0.113947 0.113947
0.131414 0.131414 0.131414
0.148860 0.148860 0.148860
0.166282 0.166282 0.166282
0.183682 0.183682 0.183682
0.201059 0.201059 0.201059
0.218413 0.218413 0.218413
0.235744 0.235744 0.235744
0.253051 0.253051 0.253051
0.270335 0.270335 0.270335
0.287596 0.287596 0.287596
0.304833 0.304833 0.304833
0.322046 0.322046 0.322046
0.339236 0.339236 0.339236
0.356402 0.356402 0.356402
0.373544 0.373544 0.373544
0.149618 0.149618 0.149618
0.167039 0.167039 0.167039
0.184438 0.184438 0.184438
0.201814 0.201814 0.201814
0.219167 0.219167 0.219167
0.236497 0.236497 0.236497
0.253803 0.253803 0.253803
0.271086 0.271086 0.271086
0.288346 0.288346 0.288346
0.305582 0.305582 0.305582
0.322794 0.322794 0.322794
0.339983 0.339983 0.339983
0.357148 0.357148 0.357148
0.374289 0.374289 0.374289
0.391406 0.391406 0.391406
0.408500 0.408500 0.408500
0.425569 0.425569 0.425569
0.202569 0.202569 0.202569
0.219921 0.219921 0.219921
0.237250 0.237250 0.237250
0.254555 0.254555 0.254555
0.271837 0.271837 0.271837
0.289096 0.289096 0.289096
0.306331 0.306331 0.306331
0.323542 0.323542 0.323542
0.340730 0.340730 0.340730
0.357894 0.357894 0.357894
0.375034 0.375034 0.375034
0.392150 0.392150 0.392150
0.409242 0.409242 0.409242
0.426311 0.426311 0.426311
0.443355 0.443355 0.443355
0.460376 0.460376 0.460376
0.477373 0.477373 0.477373
0.255307 0.255307 0.255307
0.272588 0.272588 0.272588
0.289846 0.289846 0.289846
0.307080 0.307080 0.307080
0.324290 0.324290 0.324290
0.341477 0.341477 0.341477
0.358639 0.358639 0.358639
0.375778 0.375778 0.375778
0.392894 0.392894 0.392894
0.409985 0.409985 0.409985
0.427052 0.427052 0.427052
0.444096 0.444096 0.444096
0.461116 0.461116 0.461116
0.478111 0.478111 0.478111
0.495083 0.495083 0.495083
0.512030 0.512030 0.512030
0.528954 0.528954 0.528954
0.307828 0.307828 0.307828
0.325038 0.325038 0.325038
0.342223 0.342223 0.342223
0.359385 0.359385 0.359385
0.376523 0.376523 0.376523
0.393637 0.393637 0.393637
0.410728 0.410728 0.410728
0.427794 0.427794 0.427794
0.444836 0.444836 0.444836
0.461855 0.461855 0.461855
0.478850 0.478850 0.478850
0.495820 0.495820 0.495820
0.512767 0.512767 0.512767
0.529689 0.529689 0.529689
0.546588 0.546588 0.546588
0.563463 0.563463 0.563463
0.580313 0.580313 0.580313
0.360131 0.360131 0.360131
0.377268 0.377268 0.377268
0.394381 0.394381 0.394381
0.411470 0.411470 0.411470
0.428535 0.428535 0.428535
0.445577 0.445577 0.445577
0.462594 0.462594 0.462594
0.479588 0.479588 0.479588
0.496557 0.496557 0.496557
0.513503 0.513503 0.513503
0.530425 0.530425 0.530425
0.547322 0.547322 0.547322
0.564196 0.564196 0.564196
0.581046 0.581046 0.581046
0.597871 0.597871 0.597871
0.614673 0.614673 0.614673
0.631451 0.631451 0.631451
0.412213 0.412213 0.412213
0.429277 0.429277 0.429277
0.446317 0.446317 0.446317
0.463334 0.463334 0.463334
0.480326 0.480326 0.480326
0.497295 0.497295 0.497295
0.514239 0.514239 0.514239
0.531160 0.531160 0.531160
0.548056 0.548056 0.548056
0.564929 0.564929 0.564929
0.581778 0.581778 0.581778
0.598602 0.598602 0.598602
0.615403 0.615403 0.615403
0.632180 0.632180 0.632180
0.648933 0.648933 0.648933
0.665662 0.665662 0.665662
0.682368 0.682368 0.682368
0.464073 0.464073 0.464073
0.481065 0.481065 0.481065
0.498032 0.498032 0.498032
0.514975 0.514975 0.514975
0.531895 0.531895 0.531895
0.548790 0.548790 0.548790
0.565662 0.565662 0.565662
0.582510 0.582510 0.582510
0.599333 0.599333 0.599333
0.616133 0.616133 0.616133
0.632909 0.632909 0.632909
0.649661 0.649661 0.649661
0.666389 0.666389 0.666389
0.683094 0.683094 0.683094
0.699774 0.699774 0.699774
0.716431 0.716431 0.716431
0.733065 0.733065 0.733065
0.515712 0.515712 0.515712
0.532630 0.532630 0.532630
0.549525 0.549525 0.549525
0.566395 0.566395 0.566395
0.583242 0.583242 0.583242
0.600064 0.600064 0.600064
0.616863 0.616863 0.616863
0.633638 0.633638 0.633638
0.650389 0.650389 0.650389
0.667116 0.667116 0.667116
0.683819 0.683819 0.683819
0.700499 0.700499 0.700499
0.717155 0.717155 0.717155
0.733787 0.733787 0.733787
0.750396 0.750396 0.750396
0.766982 0.766982 0.766982
0.783544 0.783544 0.783544
0.567128 0.567128 0.567128
0.583974 0.583974 0.583974
0.600795 0.600795 0.600795
0.617593 0.617593 0.617593
0.634367 0.634367 0.634367
0.651117 0.651117 0.651117
0.667843 0.667843 0.667843
0.684545 0.684545 0.684545
0.701224 0.701224 0.701224
0.717879 0.717879 0.717879
0.734510 0.734510 0.734510
0.751118 0.751118 0.751118
0.767702 0.767702 0.767702
0.784263 0.784263 0.784263
0.800801 0.800801 0.800801
0.817315 0.817315 0.817315
0.833807 0.833807 0.833807
0.618323 0.618323 0.618323
0.635095 0.635095 0.635095
0.651844 0.651844 0.651844
0.668569 0.668569 0.668569
0.685271 0.685271 0.685271
0.701948 0.701948 0.701948
0.718602 0.718602 0.718602
0.735233 0.735233 0.735233
0.751839 0.751839 0.751839
0.768423 0.768423 0.768423
0.784983 0.784983 0.784983
0.801519 0.801519 0.801519
0.818033 0.818033 0.818033
0.834523 0.834523 0.834523
0.850991 0.850991 0.850991
0.867435 0.867435 0.867435
0.883857 0.883857 0.883857
0.669296 0.669296 0.669296
0.685996 0.685996 0.685996
0.702673 0.702673 0.702673
0.719326 0.719326 0.719326
0.735955 0.735955 0.735955
0.752561 0.752561 0.752561
0.769143 0.769143 0.769143
0.785702 0.785702 0.785702
0.802238 0.802238 0.802238
0.818750 0.818750 0.818750
0.835240 0.835240 0.835240
0.851706 0.851706 0.851706
0.868150 0.868150 0.868150
0.884571 0.884571 0.884571
0.900969 0.900969 0.900969
0.917345 0.917345 0.917345
0.933700 0.933700 0.933700
0.720049 0.720049 0.720049
0.736678 0.736678 0.736678
0.753282 0.753282 0.753282
0.769864 0.769864 0.769864
0.786422 0.786422 0.786422
0.802956 0.802956 0.802956
0.819468 0.819468 0.819468
0.835956 0.835956 0.835956
0.852422 0.852422 0.852422
0.868864 0.868864 0.868864
0.885284 0.885284 0.885284
0.901682 0.901682 0.901682
0.918057 0.918057 0.918057
0.934410 0.934410 0.934410
0.950742 0.950742 0.950742
0.967052 0.967052 0.967052
0.983341 0.983341 0.983341
0.000000 0.000000 0.000000
0.000000 0.000000 0.000000
0.000000 0.000000 0.000000
0.000000 0.000000 0.000000
0.000000 0.000000 0.000000
0.000000 0.000000 0.000000
0.000000 0.000000 0.000000
0.010980 0.010980 0.010980
0.028574 0.028574 0.028574
0.046147 0.046147 0.046147
0.063699 0.063699 0.063699
0.081230 0.081230 0.081230
0.098739 0.098739 0.098739
0.116226 0.116226 0.116226
0.133691 0.133691 0.133691
0.151134 0.151134 0.151134
0.168553 0.168553 0.168553
0.000000 0.000000 0.000000
0.000000 0.000000 0.000000
0.000000 0.000000 0.000000
0.000000 0.000000 0.000000
0.011746 0.011746 0.011746
0.029339 0.029339 0.029339
0.046911 0.046911 0.046911
0.064462 0.064462 0.064462
0.081992 0.081992 0.081992
0.099500 0.099500 0.099500
0.116986 0.116986 0.116986
0.134450 0.134450 0.134450
0.151891 0.151891 0.151891
0.169310 0.169310 0.169310
0.186706 0.186706 0.186706
0.204079 0.204079 0.204079
0.221429 0.221429 0.221429
0.000000 0.000000 0.000000
0.012511 0.012511 0.012511
0.030103 0.030103 0.030103
0.047674 0.047674 0.047674
0.065225 0.065225 0.065225
0.082754 0.082754 0.082754
0.100261 0.100261 0.100261
0.117746 0.117746 0.117746
0.135209 0.135209 0.135209
0.152649 0.152649 0.152649
0.170067 0.170067 0.170067
0.187462 0.187462 0.187462
0.204834 0.204834 0.204834
0.222183 0.222183 0.222183
0.239508 0.239508 0.239508
0.256811 0.256811 0.256811
0.274090 0.274090 0.274090
0.048438 0.048438 0.048438
0.065987 0.065987 0.065987
0.083515 0.083515 0.083515
0.101022 0.101022 0.101022
0.118506 0.118506 0.118506
0.135968 0.135968 0.135968
0.153407 0.153407 0.153407
0.170824 0.170824 0.170824
0.188218 0.188218 0.188218
0.205589 0.205589 0.205589
0.222937 0.222937 0.222937
0.240261 0.240261 0.240261
0.257563 0.257563 0.257563
0.274840 0.274840 0.274840
0.292095 0.292095 0.292095
0.309326 0.309326 0.309326
0.326533 0.326533 0.326533
0.101782 0.101782 0.101782
0.119265 0.119265 0.119265
0.136726 0.136726 0.136726
0.154165 0.154165 0.154165
0.171581 0.171581 0.171581
0.188973 0.188973 0.188973
0.206343 0.206343 0.206343
0.223690 0.223690 0.223690
0.241014 0.241014 0.241014
0.258314 0.258314 0.258314
0.275591 0.275591 0.275591
0.292845 0.292845 0.292845
0.310074 0.310074 0.310074
0.327281 0.327281 0.327281
0.344463 0.344463 0.344463
0.361622 0.361622 0.361622
0.378757 0.378757 0.378757
0.154922 0.154922 0.154922
0.172337 0.172337 0.172337
0.189729 0.189729 0.189729
0.207098 0.207098 0.207098
0.224444 0.224444 0.224444
0.241767 0.241767 0.241767
0.259066 0.259066 0.259066
0.276342 0.276342 0.276342
0.293594 0.293594 0.293594
0.310823 0.310823 0.310823
0.328028 0.328028 0.328028
0.345210 0.345210 0.345210
0.362367 0.362367 0.362367
0.379501 0.379501 0.379501
0.396611 0.396611 0.396611
0.413697 0.413697 0.413697
0.430760 0.430760 0.430760
0.207853 0.207853 0.207853
0.225198 0.225198 0.225198
0.242519 0.242519 0.242519
0.259818 0.259818 0.259818
0.277092 0.277092 0.277092
0.294344 0.294344 0.294344
0.311572 0.311572 0.311572
0.328776 0.328776 0.328776
0.345956 0.345956 0.345956
0.363113 0.363113 0.363113
0.380246 0.380246 0.380246
0.397355 0.397355 0.397355
0.414440 0.414440 0.414440
0.431501 0.431501 0.431501
0.448538 0.448538 0.448538
0.465552 0.465552 0.465552
0.482541 0.482541 0.482541
0.260569 0.260569 0.260569
0.277843 0.277843 0.277843
0.295093 0.295093 0.295093
0.312320 0.312320 0.312320
0.329523 0.329523 0.329523
0.346703 0.346703 0.346703
0.363858 0.363858 0.363858
0.380990 0.380990 0.380990
0.398098 0.398098 0.398098
0.415182 0.415182 0.415182
0.432242 0.432242 0.432242
0.449278 0.449278 0.449278
0.466291 0.466291 0.466291
0.483279 0.483279 0.483279
0.500243 0.500243 0.500243
0.517184 0.517184 0.517184
0.534100 0.534100 0.534100
0.313068 0.313068 0.313068
0.330271 0.330271 0.330271
0.347449 0.347449 0.347449
0.364603 0.364603 0.364603
0.381734 0.381734 0.381734
0.398841 0.398841 0.398841
0.415924 0.415924 0.415924
0.432983 0.432983 0.432983
0.450019 0.450019 0.450019
0.467030 0.467030 0.467030
0.484017 0.484017 0.484017
0.500980 0.500980 0.500980
0.517920 0.517920 0.517920
0.534835 0.534835 0.534835
0.551726 0.551726 0.551726
0.568594 0.568594 0.568594
0.585437 0.585437 0.585437
0.365349 0.365349 0.365349
0.382479 0.382479 0.382479
0.399584 0.399584 0.399584
0.416666 0.416666 0.416666
0.433725 0.433725 0.433725
0.450759 0.450759 0.450759
0.467769 0.467769 0.467769
0.484755 0.484755 0.484755
0.501717 0.501717 0.501717
0.518656 0.518656 0.518656
0.535570 0.535570 0.535570
0.552460 0.552460 0.552460
0.569327 0.569327 0.569327
0.586169 0.586169 0.586169
0.602987 0.602987 0.602987
0.619782 0.619782 0.619782
0.636553 0.636553 0.636553
0.417409 0.417409 0.417409
0.434466 0.434466 0.434466
0.451499 0.451499 0.451499
0.468508 0.468508 0.468508
0.485493 0.485493 0.485493
0.502454 0.502454 0.502454
0.519392 0.519392 0.519392
0.536305 0.536305 0.536305
0.553194 0.553194 0.553194
0.570059 0.570059 0.570059
0.586901 0.586901 0.586901
0.603718 0.603718 0.603718
0.620512 0.620512 0.620512
0.637281 0.637281 0.637281
0.654027 0.654027 0.654027
0.670749 0.670749 0.670749
0.687447 0.687447 0.687447
0.469247 0.469247 0.469247
0.486231 0.486231 0.486231
0.503191 0.503191 0.503191
0.520127 0.520127 0.520127
0.537040 0.537040 0.537040
0.553928 0.553928 0.553928
0.570792 0.570792 0.570792
0.587632 0.587632 0.587632
0.604449 0.604449 0.604449
0.621241 0.621241 0.621241
0.638010 0.638010 0.638010
0.654755 0.654755 0.654755
0.671476 0.671476 0.671476
0.688173 0.688173 0.688173
0.704846 0.704846 0.704846
0.721496 0.721496 0.721496
0.738122 0.738122 0.738122
0.520863 0.520863 0.520863
0.537774 0.537774 0.537774
0.554662 0.554662 0.554662
0.571525 0.571525 0.571525
0.588364 0.588364 0.588364
0.605179 0.605179 0.605179
0.621971 0.621971 0.621971
0.638738 0.638738 0.638738
0.655482 0.655482 0.655482
0.672202 0.672202 0.672202
0.688898 0.688898 0.688898
0.705571 0.705571 0.705571
0.722220 0.722220 0.722220
0.738845 0.738845 0.738845
0.755446 0.755446 0.755446
0.772025 0.772025 0.772025
0.788580 0.788580 0.788580
0.572257 0.572257 0.572257
0.589096 0.589096 0.589096
0.605910 0.605910 0.605910
0.622700 0.622700 0.622700
0.639467 0.639467 0.639467
0.656210 0.656210 0.656210
0.672929 0.672929 0.672929
0.689624 0.689624 0.689624
0.706295 0.706295 0.706295
0.722943 0.722943 0.722943
0.739567 0.739567 0.739567
0.756168 0.756168 0.756168
0.772745 0.772745 0.772745
0.789299 0.789299 0.789299
0.805829 0.805829 0.805829
0.822337 0.822337 0.822337
0.838821 0.838821 0.838821
0.623430 0.623430 0.623430
0.640195 0.640195 0.640195
0.656937 0.656937 0.656937
0.673655 0.673655 0.673655
0.690349 0.690349 0.690349
0.707019 0.707019 0.707019
0.723666 0.723666 0.723666
0.740289 0.740289 0.740289
0.756889 0.756889 0.756889
0.773465 0.773465 0.773465
0.790018 0.790018 0.790018
0.806548 0.806548 0.806548
0.823054 0.823054 0.823054
0.839537 0.839537 0.839537
0.855998 0.855998 0.855998
0.872436 0.872436 0.872436
0.888851 0.888851 0.888851
0.674381 0.674381 0.674381
0.691074 0.691074 0.691074
0.707744 0.707744 0.707744
0.724389 0.724389 0.724389
0.741012 0.741012 0.741012
0.757610 0.757610 0.757610
0.774185 0.774185 0.774185
0.790737 0.790737 0.790737
0.807266 0.807266 0.807266
0.823771 0.823771 0.823771
0.840254 0.840254 0.840254
0.856713 0.856713 0.856713
0.873150 0.873150 0.873150
0.889564 0.889564 0.889564
0.905956 0.905956 0.905956
0.922325 0.922325 0.922325
0.938673 0.938673 0.938673
0.725113 0.725113 0.725113
0.741734 0.741734 0.741734
0.758331 0.758331 0.758331
0.774905 0.774905 0.774905
0.791456 0.791456 0.791456
0.807984 0.807984 0.807984
0.824488 0.824488 0.824488
0.840970 0.840970 0.840970
0.857428 0.857428 0.857428
0.873864 0.873864 0.873864
0.890277 0.890277 0.890277
0.906668 0.906668 0.906668
0.923036 0.923036 0.923036
0.939383 0.939383 0.939383
0.955708 0.955708 0.955708
0.972012 0.972012 0.972012
0.988295 0.988295 0.988295
0.000000 0.000000 0.000000
0.000000 0.000000 0.000000
0.000000 0.000000 0.000000
0.000000 0.000000 0.000000
0.000000 0.000000 0.000000
0.000000 0.000000 0.000000
0.000000 0.000000 0.000000
0.016337 0.016337 0.016337
0.033925 0.033925 0.033925
0.051491 0.051491 0.051491
0.069037 0.069037 0.069037
0.086561 0.086561 0.086561
0.104064 0.104064 0.104064
0.121544 0.121544 0.121544
0.139002 0.139002 0.139002
0.156438 0.156438 0.156438
0.173850 0.173850 0.173850
0.000000 0.000000 0.000000
0.000000 0.000000 0.000000
0.000000 0.000000 0.000000
0.000000 0.000000 0.000000
0.017102 0.017102 0.017102
0.034689 0.034689 0.034689
0.052255 0.052255 0.052255
0.069800 0.069800 0.069800
0.087323 0.087323 0.087323
0.104824 0.104824 0.104824
0.122304 0.122304 0.122304
0.139761 0.139761 0.139761
0.157195 0.157195 0.157195
0.174607 0.174607 0.174607
0.191996 0.191996 0.191996
0.209362 0.209362 0.209362
0.226705 0.226705 0.226705
0.000262 0.000262 0.000262
0.017867 0.017867 0.017867
0.035453 0.035453 0.035453
0.053018 0.053018 0.053018
0.070562 0.070562 0.070562
0.088084 0.088084 0.088084
0.105585 0.105585 0.105585
0.123063 0.123063 0.123063
0.140519 0.140519 0.140519
0.157953 0.157953 0.157953
0.175364 0.175364 0.175364
0.192752 0.192752 0.192752
0.210116 0.210116 0.210116
0.227458 0.227458 0.227458
0.244777 0.244777 0.244777
0.262072 0.262072 0.262072
0.279344 0.279344 0.279344
0.053781 0.053781 0.053781
0.071324 0.071324 0.071324
0.088846 0.088846 0.088846
0.106345 0.106345 0.106345
0.123823 0.123823 0.123823
0.141278 0.141278 0.141278
0.158710 0.158710 0.158710
0.176120 0.176120 0.176120
0.193507 0.193507 0.193507
0.210871 0.210871 0.210871
0.228212 0.228212 0.228212
0.245529 0.245529 0.245529
0.262824 0.262824 0.262824
0.280094 0.280094 0.280094
0.297342 0.297342 0.297342
0.314565 0.314565 0.314565
0.331765 0.331765 0.331765
0.107105 0.107105 0.107105
0.124582 0.124582 0.124582
0.142036 0.142036 0.142036
0.159468 0.159468 0.159468
0.176876 0.176876 0.176876
0.194262 0.194262 0.194262
0.211625 0.211625 0.211625
0.228965 0.228965 0.228965
0.246282 0.246282 0.246282
0.263575 0.263575 0.263575
0.280845 0.280845 0.280845
0.298091 0.298091 0.298091
0.315314 0.315314 0.315314
0.332513 0.332513 0.332513
0.349688 0.349688 0.349688
0.366839 0.366839 0.366839
0.383967 0.383967 0.383967
0.160225 0.160225 0.160225
0.177633 0.177633 0.177633
0.195018 0.195018 0.195018
0.212380 0.212380 0.212380
0.229719 0.229719 0.229719
0.247034 0.247034 0.247034
0.264326 0.264326 0.264326
0.281595 0.281595 0.281595
0.298840 0.298840 0.298840
0.316062 0.316062 0.316062
0.333260 0.333260 0.333260
0.350434 0.350434 0.350434
0.367584 0.367584 0.367584
0.384711 0.384711 0.384711
0.401814 0.401814 0.401814
0.418893 0.418893 0.418893
0.435948 0.435948 0.435948
0.213134 0.213134 0.213134
0.230472 0.230472 0.230472
0.247786 0.247786 0.247786
0.265078 0.265078 0.265078
0.282345 0.282345 0.282345
0.299589 0.299589 0.299589
0.316810 0.316810 0.316810
0.334007 0.334007 0.334007
0.351180 0.351180 0.351180
0.368330 0.368330 0.368330
0.385455 0.385455 0.385455
0.402557 0.402557 0.402557
0.419635 0.419635 0.419635
0.436689 0.436689 0.436689
0.453719 0.453719 0.453719
0.470725 0.470725 0.470725
0.487707 0.487707 0.487707
0.265829 0.265829 0.265829
0.283096 0.283096 0.283096
0.300339 0.300339 0.300339
0.317558 0.317558 0.317558
0.334754 0.334754 0.334754
0.351926 0.351926 0.351926
0.369075 0.369075 0.369075
0.386199 0.386199 0.386199
0.403300 0.403300 0.403300
0.420377 0.420377 0.420377
0.437430 0.437430 0.437430
0.454459 0.454459 0.454459
0.471464 0.471464 0.471464
0.488445 0.488445 0.488445
0.505402 0.505402 0.505402
0.522335 0.522335 0.522335
0.539244 0.539244 0.539244
0.318306 0.318306 0.318306
0.335501 0.335501 0.335501
0.352672 0.352672 0.352672
0.369820 0.369820 0.369820
0.386943 0.386943 0.386943
0.404043 0.404043 0.404043
0.421119 0.421119 0.421119
0.438171 0.438171 0.438171
0.455198 0.455198 0.455198
0.472202 0.472202 0.472202
0.489182 0.489182 0.489182
0.506138 0.506138 0.506138
0.523070 0.523070 0.523070
0.539978 0.539978 0.539978
0.556862 0.556862 0.556862
0.573723 0.573723 0.573723
0.590559 0.590559 0.590559
0.370565 0.370565 0.370565
0.387687 0.387687 0.387687
0.404786 0.404786 0.404786
0.421861 0.421861 0.421861
0.438911 0.438911 0.438911
0.455938 0.455938 0.455938
0.472941 0.472941 0.472941
0.489920 0.489920 0.489920
0.506875 0.506875 0.506875
0.523806 0.523806 0.523806
0.540713 0.540713 0.540713
0.557596 0.557596 0.557596
0.574455 0.574455 0.574455
0.591290 0.591290 0.591290
0.608101 0.608101 0.608101
0.624889 0.624889 0.624889
0.641652 0.641652 0.641652
0.422602 0.422602 0.422602
0.439652 0.439652 0.439652
0.456678 0.456678 0.456678
0.473680 0.473680 0.473680
0.490658 0.490658 0.490658
0.507612 0.507612 0.507612
0.524542 0.524542 0.524542
0.541448 0.541448 0.541448
0.558330 0.558330 0.558330
0.575188 0.575188 0.575188
0.592022 0.592022 0.592022
0.608832 0.608832 0.608832
0.625618 0.625618 0.625618
0.642380 0.642380 0.642380
0.659119 0.659119 0.659119
0.675834 0.675834 0.675834
0.692525 0.692525 0.692525
0.474419 0.474419 0.474419
0.491395 0.491395 0.491395
0.508348 0.508348 0.508348
0.525277 0.525277 0.525277
0.542182 0.542182 0.542182
0.559063 0.559063 0.559063
0.575920 0.575920 0.575920
0.592753 0.592753 0.592753
0.609562 0.609562 0.609562
0.626347 0.626347 0.626347
0.643109 0.643109 0.643109
0.659846 0.659846 0.659846
0.676560 0.676560 0.676560
0.693250 0.693250 0.693250
0.709916 0.709916 0.709916
0.726559 0.726559 0.726559
0.743178 0.743178 0.743178
0.526013 0.526013 0.526013
0.542916 0.542916 0.542916
0.559796 0.559796 0.559796
0.576652 0.576652 0.576652
0.593484 0.593484 0.593484
0.610292 0.610292 0.610292
0.627077 0.627077 0.627077
0.643837 0.643837 0.643837
0.660573 0.660573 0.660573
0.677286 0.677286 0.677286
0.693975 0.693975 0.693975
0.710640 0.710640 0.710640
0.727282 0.727282 0.727282
0.743900 0.743900 0.743900
0.760494 0.760494 0.760494
0.777066 0.777066 0.777066
0.793613 0.793613 0.793613
0.577385 0.577385 0.577385
0.594216 0.594216 0.594216
0.611023 0.611023 0.611023
0.627806 0.627806 0.627806
0.644565 0.644565 0.644565
0.661300 0.661300 0.661300
0.678012 0.678012 0.678012
0.694700 0.694700 0.694700
0.711364 0.711364 0.711364
0.728005 0.728005 0.728005
0.744622 0.744622 0.744622
0.761215 0.761215 0.761215
0.777786 0.777786 0.777786
0.794332 0.794332 0.794332
0.810856 0.810856 0.810856
0.827356 0.827356 0.827356
0.843834 0.843834 0.843834
0.628535 0.628535 0.628535
0.645293 0.645293 0.645293
0.662028 0.662028 0.662028
0.678738 0.678738 0.678738
0.695425 0.695425 0.695425
0.712088 0.712088 0.712088
0.728728 0.728728 0.728728
0.745344 0.745344 0.745344
0.761936 0.761936 0.761936
0.778505 0.778505 0.778505
0.795051 0.795051 0.795051
0.811574 0.811574 0.811574
0.828073 0.828073 0.828073
0.844550 0.844550 0.844550
0.861003 0.861003 0.861003
0.877434 0.877434 0.877434
0.893842 0.893842 0.893842
0.679464 0.679464 0.679464
0.696150 0.696150 0.696150
0.712812 0.712812 0.712812
0.729451 0.729451 0.729451
0.746066 0.746066 0.746066
0.762657 0.762657 0.762657
0.779225 0.779225 0.779225
0.795770 0.795770 0.795770
0.812292 0.812292 0.812292
0.828790 0.828790 0.828790
0.845265 0.845265 0.845265
0.861718 0.861718 0.861718
0.878148 0.878148 0.878148
0.894555 0.894555 0.894555
0.910940 0.910940 0.910940
0.927303 0.927303 0.927303
0.943644 0.943644 0.943644
0.730174 0.730174 0.730174
0.746788 0.746788 0.746788
0.763378 0.763378 0.763378
0.779945 0.779945 0.779945
0.796489 0.796489 0.796489
0.813009 0.813009 0.813009
0.829507 0.829507 0.829507
0.845981 0.845981 0.845981
0.862433 0.862433 0.862433
0.878862 0.878862 0.878862
0.895268 0.895268 0.895268
0.911652 0.911652 0.911652
0.928014 0.928014 0.928014
0.944354 0.944354 0.944354
0.960672 0.960672 0.960672
0.976969 0.976969 0.976969
0.993246 0.993246 0.993246
0.000000 0.000000 0.000000
0.000000 0.000000 0.000000
0.000000 0.000000 0.000000
0.000000 0.000000 0.000000
0.000000 0.000000 0.000000
0.000000 0.000000 0.000000
0.004091 0.004091 0.004091
0.021692 0.021692 0.021692
0.039273 0.039273 0.039273
0.056834 0.056834 0.056834
0.074373 0.074373 0.074373
0.091891 0.091891 0.091891
0.109386 0.109386 0.109386
0.126860 0.126860 0.126860
0.144311 0.144311 0.144311
