source/candidate_film_set/edo400/edo400.CUBE
#Created by: Infinite Arch Leica Look Builder
#Unique Leica Look ID: 27
#Based Filmstyle Mode: Standard
TITLE "IA Edo 400"
LUT_3D_SIZE 5
DOMAIN_MIN 0.0 0.0 0.0
DOMAIN_MAX 1.0 1.0 1.0
0.062605 0.089840 0.115300
0.232892 0.102908 0.127892
0.402161 0.115971 0.140479
0.570253 0.129028 0.153061
0.737059 0.142081 0.165637
0.104696 0.291245 0.157640
0.274751 0.304224 0.170215
0.443742 0.317196 0.182785
0.611526 0.330162 0.195349
0.778001 0.343122 0.207908
0.146736 0.491136 0.199922
0.316545 0.504008 0.212479
0.485249 0.516873 0.225031
0.652719 0.529731 0.237577
0.818857 0.542581 0.250117
0.188720 0.689292 0.242143
0.358272 0.702046 0.254682
0.526682 0.714792 0.267214
0.693831 0.727530 0.279741
0.859628 0.740260 0.292262
0.230645 0.885553 0.284300
0.399928 0.898180 0.296819
0.568037 0.910799 0.309332
0.734861 0.923409 0.321839
0.900311 0.936011 0.334339
0.066856 0.094279 0.277118
0.237121 0.107345 0.289640
0.406362 0.120406 0.302156
0.574423 0.133462 0.314666
0.741196 0.146512 0.327170
0.108942 0.295653 0.319219
0.278973 0.308630 0.331721
0.447936 0.321600 0.344217
0.615688 0.334564 0.356707
0.782129 0.347521 0.369190
0.150977 0.495508 0.361252
0.320761 0.508378 0.373733
0.489435 0.521241 0.386208
0.656873 0.534096 0.398677
0.822977 0.546944 0.411139
0.192955 0.693624 0.403214
0.362480 0.706375 0.415674
0.530860 0.719119 0.428127
0.697977 0.731854 0.440574
0.863739 0.744582 0.453014
0.234874 0.889843 0.445104
0.404130 0.902467 0.457541
0.572208 0.915083 0.469972
0.738998 0.927690 0.482397
0.904414 0.940289 0.494814
0.071107 0.098716 0.437967
0.241349 0.111781 0.450409
0.410562 0.124840 0.462844
0.578593 0.137894 0.475272
0.745332 0.150943 0.487693
0.113188 0.300061 0.479795
0.283195 0.313036 0.492214
0.452128 0.326004 0.504626
0.619850 0.338965 0.517031
0.786256 0.351920 0.529430
0.155217 0.499880 0.521546
0.324975 0.512747 0.533942
0.493621 0.525607 0.546331
0.661026 0.538460 0.558713
0.827096 0.551305 0.571088
0.197189 0.697955 0.563219
0.366688 0.710704 0.575592
0.535038 0.723445 0.587957
0.702122 0.736178 0.600316
0.867849 0.748902 0.612667
0.239102 0.894131 0.604813
0.408330 0.906752 0.617162
0.576377 0.919365 0.629504
0.743134 0.931969 0.641838
0.908515 0.944565 0.654165
0.075357 0.103154 0.597728
0.245576 0.116216 0.610080
0.414761 0.129274 0.622426
0.582761 0.142326 0.634765
0.749467 0.155373 0.647096
0.117433 0.304468 0.639255
0.287416 0.317440 0.651583
0.456320 0.330406 0.663905
0.624010 0.343365 0.676219
0.790383 0.356318 0.688526
0.159457 0.504251 0.680700
0.329189 0.517115 0.693004
0.497805 0.529973 0.705301
0.665179 0.542823 0.717590
0.831214 0.555666 0.729872
0.201423 0.702286 0.722062
0.370895 0.715032 0.734341
0.539214 0.727770 0.746613
0.706266 0.740500 0.758877
0.871958 0.753222 0.771133
0.243330 0.898418 0.763340
0.412530 0.911036 0.775593
0.580546 0.923646 0.787839
0.747270 0.936248 0.800078
0.912615 0.948841 0.812309
0.079607 0.107590 0.756308
0.249803 0.120651 0.768566
0.418960 0.133707 0.780817
0.586929 0.146758 0.793060
0.753602 0.159803 0.805295
0.121678 0.308874 0.797515
0.291636 0.321844 0.809747
0.460512 0.334808 0.821972
0.628170 0.347765 0.834189
0.794509 0.360715 0.846398
0.163696 0.508620 0.838635
0.333403 0.521483 0.850841
0.501989 0.534338 0.863040
0.669330 0.547185 0.875231
0.835331 0.560025 0.887414
0.205657 0.706615 0.879667
0.375101 0.719359 0.891847
0.543390 0.732094 0.904019
0.710409 0.744821 0.916184
0.876066 0.757540 0.928340
0.247557 0.902704 0.920610
0.416729 0.915320 0.932764
0.584714 0.927927 0.944909
0.751405 0.940525 0.957047
0.916715 0.953115 0.969177
