source/candidate_film_set/edo400/edo400.CUBE
#Created by: Infinite Arch Leica Look Builder
#Unique Leica Look ID: 27
#Based Filmstyle Mode: Standard
TITLE "IA Edo 400"
LUT_3D_SIZE 9
DOMAIN_MIN 0.0 0.0 0.0
DOMAIN_MAX 1.0 1.0 1.0
0.062605 0.089840 0.115300
0.147863 0.096375 0.121597
0.232892 0.102908 0.127892
0.317665 0.109440 0.134186
0.402161 0.115971 0.140479
0.486362 0.122500 0.146770
0.570253 0.129028 0.153061
0.653823 0.135555 0.159350
0.737059 0.142081 0.165637
0.083656 0.190713 0.136477
0.168861 0.197227 0.142769
0.253830 0.203740 0.149060
0.338536 0.210250 0.155350
0.422961 0.216760 0.161639
0.507086 0.223268 0.167926
0.590900 0.229774 0.174212
0.674388 0.236279 0.180497
0.757540 0.242783 0.186780
0.104696 0.291245 0.157640
0.189845 0.297735 0.163928
0.274751 0.304224 0.170215
0.359390 0.310711 0.176500
0.443742 0.317196 0.182785
0.527792 0.323680 0.189068
0.611526 0.330162 0.195349
0.694933 0.336643 0.201629
0.778001 0.343122 0.207908
0.125722 0.391396 0.178788
0.210815 0.397860 0.185072
0.295657 0.404323 0.191355
0.380226 0.410784 0.197636
0.464505 0.417243 0.203915
0.548478 0.423701 0.210194
0.632133 0.430157 0.216471
0.715457 0.436611 0.222746
0.798440 0.443063 0.229021
0.146736 0.491136 0.199922
0.231769 0.497573 0.206201
0.316545 0.504008 0.212479
0.401045 0.510442 0.218756
0.485249 0.516873 0.225031
0.569145 0.523303 0.231305
0.652719 0.529731 0.237577
0.735960 0.536157 0.243848
0.818857 0.542581 0.250117
0.167735 0.590442 0.221040
0.252707 0.596850 0.227315
0.337417 0.603256 0.233588
0.421845 0.609661 0.239860
0.505975 0.616063 0.246131
0.589793 0.622464 0.252400
0.673285 0.628862 0.258667
0.756442 0.635259 0.264933
0.839253 0.641654 0.271198
0.188720 0.689292 0.242143
0.273629 0.695670 0.248413
0.358272 0.702046 0.254682
0.442628 0.708420 0.260949
0.526682 0.714792 0.267214
0.610420 0.721162 0.273478
0.693831 0.727530 0.279741
0.776904 0.733896 0.286002
0.859628 0.740260 0.292262
0.209690 0.787668 0.263230
0.294536 0.794014 0.269495
0.379109 0.800359 0.275759
0.463392 0.806702 0.282021
0.547369 0.813043 0.288281
0.631028 0.819381 0.294541
0.714356 0.825718 0.300798
0.797344 0.832052 0.307054
0.879981 0.838385 0.313309
0.230645 0.885553 0.284300
0.315425 0.891868 0.290560
0.399928 0.898180 0.296819
0.484137 0.904491 0.303076
0.568037 0.910799 0.309332
0.651615 0.917105 0.315586
0.734861 0.923409 0.321839
0.817762 0.929711 0.328090
0.900311 0.936011 0.334339
0.064730 0.092060 0.196320
0.149983 0.098594 0.202600
0.235007 0.105126 0.208879
0.319773 0.111658 0.215156
0.404261 0.118188 0.221432
0.488455 0.124717 0.227707
0.572338 0.131245 0.233980
0.655900 0.137771 0.240251
0.739128 0.144297 0.246522
0.085781 0.192926 0.217441
0.170980 0.199439 0.223717
0.255943 0.205951 0.229991
0.340642 0.212461 0.236263
0.425059 0.218970 0.242534
0.509177 0.225478 0.248804
0.592983 0.231984 0.255073
0.676463 0.238488 0.261340
0.759607 0.244991 0.267605
0.106819 0.293449 0.238547
0.191963 0.299939 0.244817
0.276862 0.306427 0.251087
0.361494 0.312913 0.257354
0.445839 0.319398 0.263621
0.529881 0.325882 0.269886
0.613607 0.332363 0.276149
0.697006 0.338843 0.282411
0.780065 0.345321 0.288672
0.127844 0.393591 0.259636
0.212931 0.400055 0.265902
0.297766 0.406517 0.272166
0.382329 0.412978 0.278429
0.466600 0.419437 0.284691
0.550565 0.425894 0.290951
0.634212 0.432349 0.297209
0.717527 0.438802 0.303467
0.800502 0.445254 0.309722
0.148856 0.493322 0.280709
0.233883 0.499759 0.286970
0.318653 0.506193 0.293230
0.403145 0.512626 0.299488
0.487343 0.519057 0.305744
0.571230 0.525486 0.311999
0.654796 0.531914 0.318253
0.738029 0.538339 0.324505
0.820917 0.544763 0.330755
0.169854 0.592618 0.301766
0.254820 0.599026 0.308022
0.339523 0.605431 0.314276
0.423944 0.611835 0.320529
0.508066 0.618237 0.326780
0.591876 0.624637 0.333030
0.675360 0.631035 0.339279
0.758509 0.637431 0.345526
0.841311 0.643825 0.351771
0.190838 0.691458 0.322805
0.275741 0.697835 0.329056
0.360376 0.704211 0.335305
0.444725 0.710584 0.341553
0.528771 0.716956 0.347799
0.612501 0.723325 0.354044
0.695904 0.729692 0.360287
0.778968 0.736058 0.366529
0.861683 0.742421 0.372769
0.211806 0.789823 0.343827
0.296645 0.796169 0.350073
0.381211 0.802514 0.356317
0.465487 0.808856 0.362560
0.549456 0.815196 0.368801
0.633107 0.821533 0.375040
0.716427 0.827869 0.381278
0.799406 0.834203 0.387514
0.882034 0.840535 0.393749
0.232759 0.887698 0.364832
0.317533 0.894012 0.371073
0.402029 0.900324 0.377311
0.486230 0.906633 0.383549
0.570122 0.912941 0.389784
0.653693 0.919246 0.396019
0.736929 0.925550 0.402251
0.819822 0.931851 0.408482
0.902363 0.938150 0.414711
0.066856 0.094279 0.277118
0.152103 0.100812 0.283379
0.237121 0.107345 0.289640
0.321881 0.113876 0.295899
0.406362 0.120406 0.302156
0.490548 0.126934 0.308412
0.574423 0.133462 0.314666
0.657977 0.139988 0.320919
0.741196 0.146512 0.327170
0.087905 0.195138 0.298177
0.173099 0.201651 0.304434
0.258055 0.208162 0.310689
0.342748 0.214672 0.316943
0.427158 0.221180 0.323195
0.511268 0.227687 0.329446
0.595066 0.234193 0.335695
0.678538 0.240697 0.341943
0.761673 0.247199 0.348189
0.108942 0.295653 0.319219
0.194080 0.302142 0.325471
0.278973 0.308630 0.331721
0.363598 0.315116 0.337970
0.447936 0.321600 0.344217
0.531970 0.328083 0.350463
0.615688 0.334564 0.356707
0.699078 0.341043 0.362949
0.782129 0.347521 0.369190
0.129966 0.395787 0.340245
0.215046 0.402250 0.346491
0.299875 0.408712 0.352736
0.384431 0.415172 0.358980
0.468695 0.421630 0.365222
0.552653 0.428086 0.371462
0.636291 0.434541 0.377701
0.719598 0.440994 0.383938
0.802564 0.447445 0.390174
0.150977 0.495508 0.361252
0.235997 0.501944 0.367494
0.320761 0.508378 0.373733
0.405246 0.514810 0.379972
0.489435 0.521241 0.386208
0.573316 0.527669 0.392443
0.656873 0.534096 0.398677
0.740097 0.540521 0.404909
0.822977 0.546944 0.411139
0.171973 0.594794 0.382242
0.256933 0.601201 0.388478
0.341629 0.607606 0.394713
0.426043 0.614009 0.400946
0.510157 0.620411 0.407177
0.593959 0.626810 0.413407
0.677435 0.633207 0.419635
0.760575 0.639602 0.425861
0.843369 0.645996 0.432086
0.192955 0.693624 0.403214
0.277852 0.700001 0.409445
0.362480 0.706375 0.415674
0.446821 0.712748 0.421902
0.530860 0.719119 0.428127
0.614582 0.725488 0.434351
0.697977 0.731854 0.440574
0.781032 0.738219 0.446795
0.863739 0.744582 0.453014
0.213922 0.791979 0.424168
0.298755 0.798324 0.430393
0.383314 0.804668 0.436617
0.467582 0.811009 0.442839
0.551543 0.817348 0.449059
0.635186 0.823685 0.455278
0.718498 0.830021 0.461495
0.801468 0.836354 0.467710
0.884087 0.842685 0.473924
0.234874 0.889843 0.445104
0.319641 0.896156 0.451323
0.404130 0.902467 0.457541
0.488323 0.908776 0.463758
0.572208 0.915083 0.469972
0.655770 0.921387 0.476185
0.738998 0.927690 0.482397
0.821882 0.933990 0.488606
0.904414 0.940289 0.494814
0.068981 0.096498 0.357672
0.154223 0.103031 0.363914
0.239235 0.109563 0.370155
0.323988 0.116094 0.376394
0.408462 0.122623 0.382632
0.492640 0.129151 0.388868
0.576508 0.135678 0.395102
0.660053 0.142204 0.401335
0.743264 0.148728 0.407566
0.090029 0.197350 0.378665
0.175218 0.203862 0.384902
0.260168 0.210373 0.391137
0.344854 0.216882 0.397371
0.429256 0.223390 0.403603
0.513359 0.229897 0.409834
0.597149 0.236402 0.416063
0.680612 0.242905 0.422290
0.763739 0.249407 0.428516
0.111065 0.297857 0.399640
0.196197 0.304346 0.405872
0.281084 0.310833 0.412102
0.365702 0.317318 0.418330
0.450032 0.323802 0.424557
0.534059 0.330284 0.430782
0.617769 0.336765 0.437005
0.701151 0.343243 0.443227
0.784193 0.349721 0.449447
0.132088 0.397982 0.420597
0.217162 0.404445 0.426823
0.301985 0.410906 0.433048
0.386533 0.417365 0.439271
0.470789 0.423823 0.445492
0.554739 0.430278 0.451711
0.638369 0.436732 0.457929
0.721668 0.443185 0.464146
0.804625 0.449635 0.470360
0.153097 0.497694 0.441536
0.238111 0.504129 0.447756
0.322868 0.510563 0.453975
0.407346 0.516994 0.460193
0.491528 0.523424 0.466408
0.575400 0.529852 0.472622
0.658950 0.536278 0.478834
0.742165 0.542702 0.485045
0.825036 0.549125 0.491254
0.174092 0.596970 0.462456
0.259045 0.603377 0.468671
0.343735 0.609781 0.474884
0.428141 0.616183 0.481096
0.512248 0.622584 0.487306
0.596042 0.628983 0.493514
0.679510 0.635379 0.499721
0.762641 0.641774 0.505925
0.845426 0.648167 0.512129
0.195072 0.695790 0.483357
0.279963 0.702166 0.489566
0.364584 0.708540 0.495774
0.448918 0.714912 0.501980
0.532949 0.721282 0.508184
0.616663 0.727650 0.514387
0.700049 0.734016 0.520587
0.783096 0.740380 0.526787
0.865794 0.746742 0.532984
0.216038 0.794134 0.504239
0.300864 0.800479 0.510442
0.385416 0.806821 0.516644
0.469676 0.813162 0.522844
0.553630 0.819501 0.529043
0.637265 0.825837 0.535240
0.720568 0.832172 0.541435
0.803530 0.838504 0.547628
0.886140 0.844834 0.553820
0.236988 0.891987 0.525101
0.321748 0.898299 0.531299
0.406230 0.904610 0.537495
0.490416 0.910918 0.543690
0.574293 0.917224 0.549882
0.657846 0.923528 0.556073
0.741066 0.929830 0.562263
0.823942 0.936129 0.568450
0.906464 0.942427 0.574636
0.071107 0.098716 0.437967
0.156344 0.105249 0.444189
0.241349 0.111781 0.450409
0.326095 0.118311 0.456627
0.410562 0.124840 0.462844
0.494733 0.131368 0.469058
0.578593 0.137894 0.475272
0.662130 0.144419 0.481483
0.745332 0.150943 0.487693
0.092154 0.199561 0.458890
0.177336 0.206073 0.465106
0.262280 0.212584 0.471321
0.346959 0.219093 0.477533
0.431354 0.225600 0.483744
0.515450 0.232106 0.489953
0.599231 0.238611 0.496161
0.682686 0.245113 0.502367
0.765805 0.251615 0.508571
0.113188 0.300061 0.479795
0.198315 0.306549 0.486005
0.283195 0.313036 0.492214
0.367806 0.319520 0.498421
0.452128 0.326004 0.504626
0.536147 0.332485 0.510829
0.619850 0.338965 0.517031
0.703223 0.345443 0.523231
0.786256 0.351920 0.529430
0.134209 0.400177 0.500680
0.219278 0.406639 0.506884
0.304094 0.413099 0.513087
0.388635 0.419558 0.519289
0.472884 0.426015 0.525488
0.556826 0.432470 0.531686
0.640448 0.438924 0.537882
0.723738 0.445375 0.544076
0.806687 0.451825 0.550269
0.155217 0.499880 0.521546
0.240225 0.506314 0.527745
0.324975 0.512747 0.533942
0.409446 0.519178 0.540137
0.493621 0.525607 0.546331
0.577485 0.532035 0.552523
0.661026 0.538460 0.558713
0.744233 0.544884 0.564902
0.827096 0.551305 0.571088
0.176211 0.599146 0.542392
0.261157 0.605552 0.548585
0.345840 0.611956 0.554777
0.430239 0.618357 0.560966
0.514339 0.624757 0.567154
0.598124 0.631155 0.573340
0.681584 0.637551 0.579524
0.764707 0.643945 0.585707
0.847483 0.650337 0.591888
0.197189 0.697955 0.563219
0.282073 0.704331 0.569406
0.366688 0.710704 0.575592
0.451014 0.717075 0.581775
0.535038 0.723445 0.587957
0.618744 0.729812 0.594137
0.702122 0.736178 0.600316
0.785160 0.742541 0.606492
0.867849 0.748902 0.612667
0.218153 0.796289 0.584026
0.302973 0.802633 0.590208
0.387518 0.808975 0.596387
0.471771 0.815315 0.602565
0.555717 0.821653 0.608741
0.639344 0.827989 0.614915
0.722638 0.834322 0.621087
0.805591 0.840654 0.627258
0.888193 0.846983 0.633426
0.239102 0.894131 0.604813
0.323856 0.900443 0.610989
0.408330 0.906752 0.617162
0.492509 0.913060 0.623334
0.576377 0.919365 0.629504
0.659923 0.925668 0.635672
0.743134 0.931969 0.641838
0.826001 0.938268 0.648002
0.908515 0.944565 0.654165
0.073232 0.100935 0.517990
0.158463 0.107468 0.524190
0.243462 0.113999 0.530388
0.328202 0.120529 0.536584
0.412662 0.127057 0.542779
0.496825 0.133584 0.548972
0.580677 0.140110 0.555163
0.664206 0.146635 0.561352
0.747400 0.153158 0.567540
0.094278 0.201773 0.538840
0.179455 0.208284 0.545034
0.264392 0.214794 0.551226
0.349064 0.221303 0.557417
0.433452 0.227810 0.563605
0.517540 0.234315 0.569792
0.601313 0.240819 0.575978
0.684761 0.247322 0.582161
0.767870 0.253822 0.588343
0.115311 0.302265 0.559670
0.200431 0.308752 0.565858
0.285305 0.315238 0.572044
0.369909 0.321722 0.578229
0.454224 0.328205 0.584412
0.538236 0.334686 0.590593
0.621930 0.341165 0.596773
0.705295 0.347643 0.602950
0.788320 0.354119 0.609126
0.136331 0.402372 0.580480
0.221393 0.408833 0.586663
0.306202 0.415293 0.592843
0.390737 0.421751 0.599022
0.474978 0.428208 0.605199
0.558912 0.434662 0.611374
0.642526 0.441115 0.617547
0.725808 0.447566 0.623719
0.808748 0.454015 0.629889
0.157337 0.502065 0.601271
0.242339 0.508499 0.607447
0.327082 0.514931 0.613622
0.411546 0.521362 0.619794
0.495713 0.527790 0.625965
0.579569 0.534217 0.632134
0.663103 0.540642 0.638302
0.746301 0.547065 0.644467
0.829155 0.553486 0.650631
0.178329 0.601322 0.622041
0.263270 0.607727 0.628211
0.347946 0.614130 0.634380
0.432337 0.620531 0.640546
0.516429 0.626930 0.646711
0.600207 0.633327 0.652874
0.683658 0.639723 0.659035
0.766773 0.646116 0.665195
0.849540 0.652508 0.671352
0.199307 0.700121 0.642791
0.284184 0.706495 0.648955
0.368791 0.712868 0.655118
0.453111 0.719239 0.661278
0.537126 0.725607 0.667437
0.620824 0.731974 0.673594
0.704194 0.738339 0.679749
0.787223 0.744702 0.685902
0.869904 0.751062 0.692053
0.220269 0.798443 0.663520
0.305082 0.804787 0.669679
0.389620 0.811128 0.675835
0.473865 0.817467 0.681989
0.557804 0.823805 0.688142
0.641422 0.830140 0.694292
0.724708 0.836473 0.700441
0.807653 0.842804 0.706588
0.890245 0.849133 0.712733
0.241216 0.896274 0.684229
0.325963 0.902586 0.690381
0.410430 0.908894 0.696531
0.494601 0.915201 0.702679
0.578462 0.921506 0.708826
0.661999 0.927808 0.714970
0.745202 0.934109 0.721113
0.828061 0.940407 0.727253
0.910565 0.946703 0.733392
0.075357 0.103154 0.597728
0.160583 0.109686 0.603905
0.245576 0.116216 0.610080
0.330309 0.122746 0.616254
0.414761 0.129274 0.622426
0.498917 0.135801 0.628596
0.582761 0.142326 0.634765
0.666282 0.148850 0.640931
0.749467 0.155373 0.647096
0.096401 0.203985 0.618501
0.181573 0.210495 0.624673
0.266504 0.217005 0.630842
0.351169 0.223513 0.637010
0.435550 0.230019 0.643176
0.519630 0.236524 0.649340
0.603396 0.243028 0.655502
0.686834 0.249529 0.661662
0.769936 0.256030 0.667821
0.117433 0.304468 0.639255
0.202548 0.310955 0.645420
0.287416 0.317440 0.651583
0.372013 0.323924 0.657745
0.456320 0.330406 0.663905
0.540324 0.336887 0.670063
0.624010 0.343365 0.676219
0.707367 0.349842 0.682373
0.790383 0.356318 0.688526
0.138452 0.404566 0.659988
0.223508 0.411027 0.666147
0.308311 0.417486 0.672304
0.392838 0.423944 0.678460
0.477072 0.430400 0.684613
0.560999 0.436854 0.690765
0.644604 0.443306 0.696915
0.727878 0.449757 0.703063
0.810809 0.456205 0.709209
0.159457 0.504251 0.680700
0.244453 0.510684 0.686853
0.329189 0.517115 0.693004
0.413646 0.523545 0.699153
0.497805 0.529973 0.705301
0.581654 0.536399 0.711446
0.665179 0.542823 0.717590
0.748369 0.549245 0.723732
0.831214 0.555666 0.729872
0.180447 0.603497 0.701392
0.265382 0.609901 0.707538
0.350051 0.616304 0.713683
0.434435 0.622704 0.719826
0.518519 0.629103 0.725967
0.602289 0.635500 0.732107
0.685732 0.641894 0.738244
0.768838 0.648287 0.744379
0.851597 0.654678 0.750513
0.201423 0.702286 0.722062
0.286294 0.708660 0.728203
0.370895 0.715032 0.734341
0.455207 0.721402 0.740478
0.539214 0.727770 0.746613
0.622905 0.734136 0.752746
0.706266 0.740500 0.758877
0.789287 0.746862 0.765006
0.871958 0.753222 0.771133
0.222384 0.800598 0.742712
0.307190 0.806941 0.748846
0.391721 0.813281 0.754978
0.475959 0.819620 0.761108
0.559890 0.825956 0.767237
0.643500 0.832291 0.773363
0.726778 0.838623 0.779488
0.809714 0.844953 0.785611
0.892298 0.851281 0.791732
0.243330 0.898418 0.763340
0.328070 0.904728 0.769467
0.412530 0.911036 0.775593
0.496694 0.917343 0.781717
0.580546 0.923646 0.787839
0.664075 0.929948 0.793960
0.747270 0.936248 0.800078
0.830120 0.942545 0.806194
0.912615 0.948841 0.812309
0.077482 0.105372 0.677170
0.162703 0.111904 0.683324
0.247689 0.118434 0.689476
0.332416 0.124963 0.695627
0.416861 0.131491 0.701775
0.501009 0.138017 0.707922
0.584845 0.144542 0.714067
0.668357 0.151066 0.720209
0.751535 0.157588 0.726350
0.098525 0.206196 0.697865
0.183691 0.212706 0.704013
0.268616 0.219215 0.710159
0.353274 0.225723 0.716303
0.437648 0.232228 0.722445
0.521720 0.238733 0.728586
0.605478 0.245236 0.734724
0.688908 0.251737 0.740861
0.772001 0.258237 0.746995
0.119556 0.306671 0.718540
0.204665 0.313158 0.724681
0.289526 0.319642 0.730821
0.374116 0.326126 0.736958
0.458416 0.332607 0.743094
0.542412 0.339087 0.749228
0.626090 0.345565 0.755361
0.709438 0.352042 0.761491
0.792446 0.358517 0.767619
0.140573 0.406761 0.739193
0.225623 0.413221 0.745328
0.310419 0.419680 0.751461
0.394939 0.426137 0.757593
0.479166 0.432592 0.763722
0.563085 0.439045 0.769850
0.646682 0.445497 0.775976
0.729948 0.451947 0.782099
0.812870 0.458395 0.788221
0.161576 0.506436 0.759824
0.246566 0.512868 0.765953
0.331296 0.519299 0.772080
0.415745 0.525728 0.778205
0.499897 0.532155 0.784328
0.583738 0.538581 0.790450
0.667254 0.545004 0.796569
0.750436 0.551426 0.802687
0.833272 0.557846 0.808802
0.182566 0.605672 0.780435
0.267494 0.612076 0.786557
0.352156 0.618478 0.792678
0.436533 0.624878 0.798796
0.520609 0.631275 0.804913
0.604371 0.637671 0.811028
0.687806 0.644065 0.817141
0.770904 0.650457 0.823252
0.853653 0.656848 0.829361
0.203540 0.704451 0.801024
0.288405 0.710824 0.807140
0.372998 0.717195 0.813254
0.457303 0.723565 0.819366
0.541302 0.729932 0.825476
0.624985 0.736297 0.831585
0.708337 0.742661 0.837691
0.791350 0.749022 0.843796
0.874012 0.755381 0.849898
0.224499 0.802752 0.821591
0.309299 0.809094 0.827700
0.393823 0.815434 0.833808
0.478053 0.821772 0.839914
0.561976 0.828108 0.846017
0.645578 0.834441 0.852119
0.728848 0.840773 0.858219
0.811775 0.847103 0.864317
0.894350 0.853430 0.870413
0.245443 0.900561 0.842136
0.330177 0.906871 0.848239
0.414630 0.913178 0.854340
0.498786 0.919484 0.860439
0.582630 0.925787 0.866537
0.666151 0.932088 0.872632
0.749337 0.938387 0.878725
0.832178 0.944684 0.884817
0.914665 0.950978 0.890906
0.079607 0.107590 0.756308
0.164822 0.114122 0.762438
0.249803 0.120651 0.768566
0.334522 0.127180 0.774693
0.418960 0.133707 0.780817
0.503101 0.140233 0.786939
0.586929 0.146758 0.793060
0.670433 0.153281 0.799178
0.753602 0.159803 0.805295
0.100649 0.208407 0.776922
0.185809 0.214917 0.783046
0.270727 0.221425 0.789168
0.355379 0.227932 0.795287
0.439745 0.234438 0.801405
0.523810 0.240941 0.807521
0.607559 0.247444 0.813635
0.690982 0.253945 0.819747
0.774066 0.260444 0.825858
0.121678 0.308874 0.797515
0.206781 0.315360 0.803632
0.291636 0.321844 0.809747
0.376219 0.328327 0.815861
0.460512 0.334808 0.821972
0.544500 0.341287 0.828082
0.628170 0.347765 0.834189
0.711510 0.354241 0.840295
0.794509 0.360715 0.846398
0.142694 0.408955 0.818086
0.227738 0.415415 0.824197
0.312528 0.421873 0.830305
0.397041 0.428329 0.836412
0.481260 0.434784 0.842517
0.565171 0.441236 0.848620
0.648760 0.447687 0.854721
0.732017 0.454137 0.860820
0.814931 0.460584 0.866917
0.163696 0.508620 0.838635
0.248680 0.515052 0.844739
0.333403 0.521483 0.850841
0.417845 0.527911 0.856942
0.501989 0.534338 0.863040
0.585822 0.540763 0.869136
0.669330 0.547185 0.875231
0.752503 0.553606 0.881323
0.835331 0.560025 0.887414
0.184684 0.607847 0.859162
0.269605 0.614250 0.865260
0.354261 0.620651 0.871355
0.438631 0.627051 0.877449
0.522699 0.633448 0.883541
0.606453 0.639843 0.889631
0.689880 0.646236 0.895718
0.772969 0.652628 0.901804
0.855710 0.659017 0.907888
0.205657 0.706615 0.879667
0.290515 0.712988 0.885758
0.375101 0.719359 0.891847
0.459398 0.725727 0.897934
0.543390 0.732094 0.904019
0.627065 0.738459 0.910103
0.710409 0.744821 0.916184
0.793413 0.751182 0.922263
0.876066 0.757540 0.928340
0.226614 0.804906 0.900150
0.311407 0.811247 0.906234
0.395924 0.817587 0.912317
0.480147 0.823924 0.918397
0.564062 0.830259 0.924476
0.647656 0.836592 0.930552
0.730917 0.842923 0.936627
0.813836 0.849252 0.942699
0.896402 0.855578 0.948770
0.247557 0.902704 0.920610
0.332283 0.909013 0.926688
0.416729 0.915320 0.932764
0.500877 0.921624 0.938838
0.584714 0.927927 0.944909
0.668227 0.934227 0.950979
0.751405 0.940525 0.957047
0.834237 0.946822 0.963113
0.916715 0.953115 0.969177
