source/candidate_film_set/edo400/edo400.CUBE
#Created by: Infinite Arch Leica Look Builder
#Unique Leica Look ID: 27
#Based Filmstyle Mode: Standard
TITLE "IA Edo 400"
LUT_3D_SIZE 17
DOMAIN_MIN 0.0 0.0 0.0
DOMAIN_MAX 1.0 1.0 1.0
0.062605 0.089840 0.115300
0.105260 0.093108 0.118449
0.147863 0.096375 0.121597
0.190408 0.099641 0.124744
0.232892 0.102908 0.127892
0.275312 0.106174 0.131039
0.317665 0.109440 0.134186
0.359949 0.112705 0.137332
0.402161 0.115971 0.140479
0.444299 0.119236 0.143625
0.486362 0.122500 0.146770
0.528347 0.125764 0.149916
0.570253 0.129028 0.153061
0.612079 0.132292 0.156205
0.653823 0.135555 0.159350
0.695483 0.138818 0.162494
0.737059 0.142081 0.165637
0.073132 0.140316 0.125890
0.115775 0.143579 0.129038
0.158364 0.146841 0.132185
0.200894 0.150103 0.135331
0.243363 0.153364 0.138478
0.285767 0.156625 0.141624
0.328103 0.159886 0.144770
0.370369 0.163147 0.147915
0.412563 0.166407 0.151061
0.454683 0.169666 0.154205
0.496726 0.172926 0.157350
0.538692 0.176185 0.160494
0.580579 0.179444 0.163638
0.622385 0.182702 0.166782
0.664108 0.185960 0.169925
0.705748 0.189217 0.173068
0.747302 0.192475 0.176211
0.083656 0.190713 0.136477
0.126286 0.193970 0.139623
0.168861 0.197227 0.142769
0.211377 0.200484 0.145915
0.253830 0.203740 0.149060
0.296217 0.206995 0.152206
0.338536 0.210250 0.155350
0.380785 0.213505 0.158495
0.422961 0.216760 0.161639
0.465062 0.220014 0.164783
0.507086 0.223268 0.167926
0.549033 0.226521 0.171069
0.590900 0.229774 0.174212
0.632685 0.233027 0.177355
0.674388 0.236279 0.180497
0.716007 0.239531 0.183639
0.757540 0.242783 0.186780
0.094178 0.241025 0.147060
0.136794 0.244276 0.150205
0.179355 0.247527 0.153350
0.221855 0.250777 0.156495
0.264293 0.254028 0.159639
0.306663 0.257278 0.162783
0.348965 0.260527 0.165927
0.391196 0.263776 0.169071
0.433354 0.267025 0.172214
0.475436 0.270273 0.175356
0.517442 0.273521 0.178499
0.559369 0.276768 0.181641
0.601215 0.280015 0.184783
0.642981 0.283262 0.187924
0.684663 0.286509 0.191065
0.726261 0.289754 0.194206
0.767773 0.293000 0.197346
0.104696 0.291245 0.157640
0.147299 0.294490 0.160784
0.189845 0.297735 0.163928
0.232330 0.300980 0.167072
0.274751 0.304224 0.170215
0.317105 0.307468 0.173358
0.359390 0.310711 0.176500
0.401603 0.313954 0.179643
0.443742 0.317196 0.182785
0.485806 0.320438 0.185926
0.527792 0.323680 0.189068
0.569699 0.326921 0.192208
0.611526 0.330162 0.195349
0.653271 0.333403 0.198489
0.694933 0.336643 0.201629
0.736510 0.339882 0.204769
0.778001 0.343122 0.207908
0.115211 0.341370 0.168216
0.157800 0.344609 0.171359
0.200332 0.347848 0.174502
0.242801 0.351086 0.177644
0.285206 0.354323 0.180787
0.327543 0.357561 0.183928
0.369810 0.360798 0.187070
0.412005 0.364034 0.190211
0.454126 0.367270 0.193352
0.496171 0.370506 0.196492
0.538137 0.373741 0.199633
0.580025 0.376976 0.202772
0.621832 0.380211 0.205912
0.663556 0.383444 0.209051
0.705197 0.386678 0.212190
0.746753 0.389911 0.215328
0.788223 0.393144 0.218466
0.125722 0.391396 0.178788
0.168298 0.394628 0.181930
0.210815 0.397860 0.185072
0.253268 0.401092 0.188214
0.295657 0.404323 0.191355
0.337977 0.407554 0.194495
0.380226 0.410784 0.197636
0.422403 0.414014 0.200776
0.464505 0.417243 0.203915
0.506531 0.420472 0.207055
0.548478 0.423701 0.210194
0.590346 0.426929 0.213332
0.632133 0.430157 0.216471
0.673837 0.433384 0.219609
0.715457 0.436611 0.222746
0.756991 0.439837 0.225884
0.798440 0.443063 0.229021
0.136231 0.441319 0.189357
0.178792 0.444545 0.192498
0.221293 0.447770 0.195639
0.263731 0.450995 0.198779
0.306103 0.454219 0.201919
0.348406 0.457443 0.205058
0.390638 0.460666 0.208198
0.432796 0.463890 0.211337
0.474880 0.467112 0.214475
0.516886 0.470334 0.217613
0.558814 0.473556 0.220751
0.600662 0.476777 0.223889
0.642428 0.479998 0.227026
0.684112 0.483218 0.230163
0.725711 0.486438 0.233299
0.767224 0.489658 0.236435
0.808651 0.492877 0.239571
0.146736 0.491136 0.199922
0.189283 0.494355 0.203062
0.231769 0.497573 0.206201
0.274190 0.500791 0.209340
0.316545 0.504008 0.212479
0.358831 0.507225 0.215618
0.401045 0.510442 0.218756
0.443185 0.513658 0.221893
0.485249 0.516873 0.225031
0.527237 0.520089 0.228168
0.569145 0.523303 0.231305
0.610973 0.526517 0.234441
0.652719 0.529731 0.237577
0.694382 0.532944 0.240713
0.735960 0.536157 0.243848
0.777452 0.539370 0.246983
0.818857 0.542581 0.250117
0.157237 0.540845 0.210483
0.199769 0.544056 0.213622
0.242240 0.547267 0.216760
0.284645 0.550478 0.219898
0.326983 0.553688 0.223036
0.369251 0.556898 0.226173
0.411447 0.560107 0.229310
0.453569 0.563316 0.232446
0.495615 0.566525 0.235583
0.537583 0.569733 0.238719
0.579471 0.572940 0.241854
0.621279 0.576147 0.244989
0.663005 0.579353 0.248124
0.704647 0.582559 0.251259
0.746204 0.585765 0.254393
0.787675 0.588970 0.257526
0.829058 0.592175 0.260660
0.167735 0.590442 0.221040
0.210252 0.593646 0.224178
0.252707 0.596850 0.227315
0.295096 0.600053 0.230452
0.337417 0.603256 0.233588
0.379667 0.606459 0.236724
0.421845 0.609661 0.239860
0.463948 0.612862 0.242996
0.505975 0.616063 0.246131
0.547924 0.619264 0.249265
0.589793 0.622464 0.252400
0.631580 0.625663 0.255534
0.673285 0.628862 0.258667
0.714906 0.632061 0.261800
0.756442 0.635259 0.264933
0.797892 0.638456 0.268066
0.839253 0.641654 0.271198
0.178229 0.639925 0.231594
0.220731 0.643122 0.234730
0.263170 0.646318 0.237866
0.305543 0.649514 0.241002
0.347846 0.652709 0.244137
0.390079 0.655904 0.247272
0.432239 0.659099 0.250406
0.474323 0.662293 0.253541
0.516331 0.665486 0.256674
0.558260 0.668679 0.259808
0.600109 0.671872 0.262941
0.641876 0.675064 0.266074
0.683561 0.678255 0.269206
0.725161 0.681446 0.272338
0.766676 0.684637 0.275470
0.808103 0.687827 0.278601
0.849443 0.691016 0.281732
0.188720 0.689292 0.242143
0.231207 0.692481 0.245278
0.273629 0.695670 0.248413
0.315985 0.698858 0.251547
0.358272 0.702046 0.254682
0.400486 0.705233 0.257815
0.442628 0.708420 0.260949
0.484693 0.711606 0.264082
0.526682 0.714792 0.267214
0.568591 0.717977 0.270346
0.610420 0.721162 0.273478
0.652167 0.724346 0.276610
0.693831 0.727530 0.279741
0.735410 0.730714 0.282872
0.776904 0.733896 0.286002
0.818310 0.737079 0.289132
0.859628 0.740260 0.292262
0.199207 0.738540 0.252689
0.241678 0.741721 0.255822
0.284085 0.744902 0.258956
0.326423 0.748083 0.262089
0.368692 0.751263 0.265222
0.410889 0.754443 0.268355
0.453012 0.757622 0.271487
0.495059 0.760800 0.274618
0.537028 0.763978 0.277750
0.578918 0.767156 0.280881
0.620726 0.770333 0.284012
0.662453 0.773509 0.287142
0.704096 0.776685 0.290272
0.745654 0.779861 0.293401
0.787126 0.783036 0.296530
0.828511 0.786210 0.299659
0.869807 0.789384 0.302788
0.209690 0.787668 0.263230
0.252146 0.790841 0.266363
0.294536 0.794014 0.269495
0.336857 0.797187 0.272627
0.379109 0.800359 0.275759
0.421287 0.803531 0.278890
0.463392 0.806702 0.282021
0.505419 0.809873 0.285151
0.547369 0.813043 0.288281
0.589239 0.816212 0.291411
0.631028 0.819381 0.294541
0.672734 0.822550 0.297670
0.714356 0.825718 0.300798
0.755893 0.828885 0.303927
0.797344 0.832052 0.307054
0.838706 0.835219 0.310182
0.879981 0.838385 0.313309
0.220169 0.836673 0.273767
0.262609 0.839838 0.276899
0.304982 0.843004 0.280030
0.347287 0.846168 0.283160
0.389521 0.849332 0.286291
0.431681 0.852496 0.289421
0.473767 0.855659 0.292550
0.515775 0.858822 0.295680
0.557705 0.861984 0.298809
0.599556 0.865145 0.301937
0.641324 0.868306 0.305065
0.683010 0.871467 0.308193
0.724611 0.874627 0.311321
0.766127 0.877786 0.314448
0.807556 0.880945 0.317574
0.848897 0.884103 0.320701
0.890149 0.887261 0.323826
0.230645 0.885553 0.284300
0.273068 0.888711 0.287430
0.315425 0.891868 0.290560
0.357712 0.895025 0.293690
0.399928 0.898180 0.296819
0.442070 0.901336 0.299948
0.484137 0.904491 0.303076
0.526126 0.907645 0.306204
0.568037 0.910799 0.309332
0.609867 0.913952 0.312459
0.651615 0.917105 0.315586
0.693280 0.920258 0.318712
0.734861 0.923409 0.321839
0.776355 0.926560 0.324964
0.817762 0.929711 0.328090
0.859082 0.932861 0.331215
0.900311 0.936011 0.334339
0.063668 0.090950 0.155836
0.106321 0.094217 0.158981
0.148923 0.097484 0.162125
0.191467 0.100751 0.165269
0.233949 0.104017 0.168412
0.276368 0.107283 0.171555
0.318719 0.110549 0.174698
0.361001 0.113814 0.177841
0.403211 0.117079 0.180983
0.445348 0.120344 0.184124
0.487408 0.123609 0.187266
0.529392 0.126873 0.190407
0.571296 0.130137 0.193548
0.613120 0.133400 0.196688
0.654861 0.136663 0.199829
0.696520 0.139926 0.202968
0.738094 0.143189 0.206108
0.074194 0.141424 0.166413
0.116836 0.144687 0.169556
0.159423 0.147949 0.172699
0.201953 0.151210 0.175842
0.244420 0.154472 0.178984
0.286822 0.157733 0.182127
0.329156 0.160993 0.185268
0.371421 0.164254 0.188410
0.413613 0.167514 0.191551
0.455731 0.170773 0.194691
0.497772 0.174033 0.197832
0.539736 0.177292 0.200972
0.581621 0.180550 0.204111
0.623425 0.183808 0.207251
0.665146 0.187066 0.210390
0.706784 0.190324 0.213528
0.748336 0.193581 0.216667
0.084718 0.191819 0.176986
0.127347 0.195076 0.180128
0.169921 0.198333 0.183270
0.212435 0.201589 0.186412
0.254886 0.204845 0.189553
0.297272 0.208101 0.192694
0.339589 0.211356 0.195835
0.381836 0.214611 0.198975
0.424010 0.217865 0.202115
0.466109 0.221119 0.205254
0.508132 0.224373 0.208394
0.550076 0.227626 0.211532
0.591941 0.230879 0.214671
0.633725 0.234132 0.217809
0.675426 0.237384 0.220947
0.717042 0.240636 0.224084
0.758574 0.243887 0.227222
0.095239 0.242129 0.187556
0.137855 0.245380 0.190697
0.180414 0.248631 0.193837
0.222913 0.251881 0.196978
0.265349 0.255131 0.200118
0.307718 0.258381 0.203258
0.350018 0.261630 0.206397
0.392247 0.264879 0.209536
0.434402 0.268128 0.212675
0.476483 0.271376 0.215813
0.518487 0.274624 0.218952
0.560412 0.277871 0.222089
0.602256 0.281118 0.225227
0.644020 0.284365 0.228364
0.685700 0.287611 0.231500
0.727296 0.290857 0.234637
0.768806 0.294102 0.237773
0.105757 0.292347 0.198121
0.148359 0.295592 0.201261
0.190904 0.298837 0.204401
0.233388 0.302081 0.207540
0.275807 0.305325 0.210679
0.318159 0.308569 0.213818
0.360442 0.311812 0.216956
0.402653 0.315055 0.220094
0.444790 0.318297 0.223232
0.486852 0.321539 0.226369
0.528837 0.324781 0.229506
0.570742 0.328022 0.232642
0.612567 0.331263 0.235778
0.654310 0.334503 0.238914
0.695969 0.337743 0.242050
0.737544 0.340982 0.245185
0.779033 0.344222 0.248320
0.116272 0.342470 0.208683
0.158860 0.345709 0.211822
0.201390 0.348947 0.214960
0.243858 0.352185 0.218098
0.286261 0.355423 0.221236
0.328597 0.358660 0.224374
0.370862 0.361897 0.227511
0.413055 0.365133 0.230648
0.455174 0.368369 0.233784
0.497217 0.371605 0.236920
0.539182 0.374840 0.240056
0.581067 0.378075 0.243191
0.622872 0.381309 0.246326
0.664594 0.384543 0.249461
0.706233 0.387776 0.252595
0.747787 0.391009 0.255729
0.789254 0.394242 0.258863
0.126783 0.392493 0.219241
0.169358 0.395726 0.222379
0.211873 0.398958 0.225516
0.254325 0.402189 0.228653
0.296711 0.405420 0.231790
0.339030 0.408651 0.234926
0.381277 0.411881 0.238062
0.423452 0.415111 0.241197
0.465553 0.418340 0.244333
0.507576 0.421569 0.247467
0.549522 0.424797 0.250602
0.591388 0.428025 0.253736
0.633172 0.431253 0.256870
0.674874 0.434480 0.260003
0.716492 0.437707 0.263137
0.758025 0.440933 0.266269
0.799471 0.444159 0.269402
0.137291 0.442414 0.229795
0.179851 0.445640 0.232931
0.222351 0.448865 0.236068
0.264787 0.452090 0.239203
0.307157 0.455314 0.242339
0.349458 0.458538 0.245474
0.391688 0.461761 0.248609
0.433845 0.464984 0.251743
0.475927 0.468206 0.254877
0.517931 0.471428 0.258011
0.559857 0.474650 0.261144
0.601703 0.477871 0.264277
0.643468 0.481092 0.267410
0.685149 0.484312 0.270542
0.726746 0.487532 0.273674
0.768257 0.490751 0.276805
0.809682 0.493970 0.279936
0.147796 0.492229 0.240345
0.190341 0.495448 0.243480
0.232826 0.498666 0.246615
0.275246 0.501884 0.249750
0.317599 0.505101 0.252884
0.359883 0.508318 0.256018
0.402095 0.511534 0.259152
0.444233 0.514750 0.262285
0.486296 0.517965 0.265418
0.528281 0.521180 0.268550
0.570188 0.524395 0.271682
0.612014 0.527609 0.274814
0.653758 0.530822 0.277945
0.695418 0.534036 0.281076
0.736994 0.537248 0.284207
0.778484 0.540460 0.287337
0.819887 0.543672 0.290467
0.158297 0.541935 0.250891
0.200828 0.545147 0.254025
0.243297 0.548358 0.257159
0.285700 0.551568 0.260292
0.328037 0.554778 0.263425
0.370303 0.557988 0.266558
0.412497 0.561197 0.269690
0.454617 0.564406 0.272822
0.496661 0.567614 0.275954
0.538627 0.570822 0.279085
0.580513 0.574029 0.282216
0.622319 0.577236 0.285347
0.664043 0.580442 0.288477
0.705683 0.583648 0.291606
0.747238 0.586853 0.294736
0.788706 0.590058 0.297865
0.830087 0.593263 0.300993
0.168795 0.591530 0.261433
0.211310 0.594734 0.264566
0.253763 0.597938 0.267698
0.296151 0.601141 0.270831
0.338470 0.604344 0.273962
0.380719 0.607546 0.277094
0.422895 0.610748 0.280225
0.464996 0.613949 0.283356
0.507021 0.617150 0.286486
0.548967 0.620350 0.289616
0.590834 0.623550 0.292746
0.632620 0.626750 0.295875
0.674323 0.629948 0.299004
0.715942 0.633147 0.302132
0.757476 0.636345 0.305261
0.798923 0.639542 0.308388
0.840282 0.642739 0.311516
0.179288 0.641010 0.271971
0.221789 0.644207 0.275103
0.264226 0.647403 0.278234
0.306597 0.650599 0.281365
0.348899 0.653794 0.284495
0.391130 0.656989 0.287626
0.433288 0.660184 0.290756
0.475370 0.663377 0.293885
0.517376 0.666571 0.297014
0.559303 0.669763 0.300143
0.601150 0.672956 0.303271
0.642915 0.676148 0.306399
0.684598 0.679339 0.309527
0.726196 0.682530 0.312654
0.767708 0.685720 0.315781
0.809134 0.688910 0.318908
0.850472 0.692099 0.322034
0.189779 0.690375 0.282505
0.232264 0.693564 0.285635
0.274685 0.696752 0.288765
0.317039 0.699941 0.291895
0.359324 0.703128 0.295024
0.401537 0.706315 0.298153
0.443676 0.709502 0.301282
0.485740 0.712688 0.304410
0.527726 0.715874 0.307538
0.569634 0.719059 0.310665
0.611461 0.722244 0.313793
0.653206 0.725428 0.316919
0.694868 0.728611 0.320046
0.736445 0.731795 0.323172
0.777936 0.734977 0.326297
0.819340 0.738159 0.329422
0.860656 0.741341 0.332547
0.200265 0.739620 0.293034
0.242735 0.742802 0.296164
0.285140 0.745983 0.299292
0.327477 0.749163 0.302421
0.369744 0.752343 0.305549
0.411939 0.755522 0.308677
0.454060 0.758701 0.311804
0.496105 0.761879 0.314931
0.538072 0.765057 0.318058
0.579960 0.768235 0.321184
0.621767 0.771411 0.324310
0.663491 0.774588 0.327435
0.705132 0.777764 0.330560
0.746688 0.780939 0.333685
0.788158 0.784114 0.336809
0.829540 0.787288 0.339933
0.870834 0.790462 0.343057
0.210748 0.788745 0.303560
0.253202 0.791919 0.306688
0.295590 0.795092 0.309815
0.337910 0.798264 0.312942
0.380160 0.801436 0.316069
0.422337 0.804608 0.319196
0.464439 0.807779 0.322322
0.506465 0.810949 0.325448
0.548413 0.814119 0.328573
0.590281 0.817289 0.331698
0.632067 0.820457 0.334822
0.673772 0.823626 0.337946
0.715392 0.826794 0.341070
0.756926 0.829961 0.344194
0.798375 0.833128 0.347317
0.839735 0.836294 0.350439
0.881007 0.839460 0.353562
0.221227 0.837748 0.314081
0.263665 0.840913 0.317208
0.306037 0.844078 0.320334
0.348340 0.847243 0.323460
0.390572 0.850407 0.326585
0.432730 0.853570 0.329711
0.474814 0.856733 0.332835
0.516820 0.859896 0.335960
0.558749 0.863057 0.339084
0.600597 0.866219 0.342207
0.642363 0.869380 0.345331
0.684047 0.872540 0.348454
0.725646 0.875700 0.351576
0.767160 0.878859 0.354698
0.808586 0.882017 0.357820
0.849925 0.885176 0.360941
0.891175 0.888333 0.364062
0.231702 0.886626 0.324598
0.274124 0.889783 0.327723
0.316479 0.892940 0.330848
0.358765 0.896096 0.333973
0.400979 0.899252 0.337097
0.443119 0.902407 0.340221
0.485184 0.905562 0.343345
0.527171 0.908716 0.346468
0.569080 0.911870 0.349590
0.610908 0.915023 0.352713
0.652654 0.918176 0.355835
0.694317 0.921328 0.358956
0.735895 0.924480 0.362077
0.777387 0.927631 0.365198
0.818792 0.930781 0.368319
0.860109 0.933931 0.371438
0.901337 0.937080 0.374558
0.064730 0.092060 0.196320
0.107383 0.095327 0.199460
0.149983 0.098594 0.202600
0.192525 0.101860 0.205740
0.235007 0.105126 0.208879
0.277423 0.108392 0.212018
0.319773 0.111658 0.215156
0.362053 0.114923 0.218294
0.404261 0.118188 0.221432
0.446396 0.121453 0.224569
0.488455 0.124717 0.227707
0.530436 0.127981 0.230843
0.572338 0.131245 0.233980
0.614160 0.134508 0.237116
0.655900 0.137771 0.240251
0.697556 0.141034 0.243387
0.739128 0.144297 0.246522
0.075257 0.142532 0.206883
0.117897 0.145795 0.210022
0.160483 0.149056 0.213160
0.203011 0.152318 0.216299
0.245477 0.155579 0.219437
0.287877 0.158840 0.222574
0.330210 0.162101 0.225712
0.372472 0.165361 0.228849
0.414663 0.168621 0.231985
0.456779 0.171880 0.235122
0.498818 0.175139 0.238257
0.540781 0.178398 0.241393
0.582663 0.181657 0.244528
0.624465 0.184915 0.247663
0.666184 0.188172 0.250798
0.707820 0.191430 0.253932
0.749370 0.194687 0.257066
0.085781 0.192926 0.217441
0.128408 0.196182 0.220579
0.170980 0.199439 0.223717
0.213493 0.202695 0.226854
0.255943 0.205951 0.229991
0.298327 0.209206 0.233127
0.340642 0.212461 0.236263
0.382887 0.215716 0.239399
0.425059 0.218970 0.242534
0.467157 0.222224 0.245670
0.509177 0.225478 0.248804
0.551120 0.228731 0.251939
0.592983 0.231984 0.255073
0.634764 0.235236 0.258206
0.676463 0.238488 0.261340
0.718078 0.241740 0.264473
0.759607 0.244991 0.267605
0.096301 0.243233 0.227996
0.138916 0.246484 0.231133
0.181473 0.249735 0.234269
0.223971 0.252985 0.237405
0.266405 0.256235 0.240541
0.308772 0.259485 0.243676
0.351070 0.262734 0.246811
0.393297 0.265983 0.249945
0.435451 0.269231 0.253080
0.477530 0.272479 0.256214
0.519532 0.275727 0.259347
0.561455 0.278974 0.262480
0.603298 0.282221 0.265613
0.645059 0.285467 0.268745
0.686737 0.288713 0.271878
0.728331 0.291959 0.275009
0.769839 0.295204 0.278141
0.106819 0.293449 0.238547
0.149420 0.296694 0.241682
0.191963 0.299939 0.244817
0.234445 0.303183 0.247952
0.276862 0.306427 0.251087
0.319213 0.309670 0.254221
0.361494 0.312913 0.257354
0.403703 0.316156 0.260488
0.445839 0.319398 0.263621
0.487899 0.322640 0.266753
0.529881 0.325882 0.269886
0.571784 0.329123 0.273018
0.613607 0.332363 0.276149
0.655348 0.335603 0.279281
0.697006 0.338843 0.282411
0.738578 0.342082 0.285542
0.780065 0.345321 0.288672
0.117333 0.343570 0.249093
0.159920 0.346809 0.252228
0.202449 0.350047 0.255362
0.244915 0.353285 0.258495
0.287316 0.356522 0.261628
0.329650 0.359759 0.264761
0.371914 0.362996 0.267894
0.414105 0.366232 0.271026
0.456222 0.369468 0.274158
0.498263 0.372704 0.277289
0.540226 0.375938 0.280420
0.582109 0.379173 0.283551
0.623912 0.382407 0.286681
0.665632 0.385641 0.289811
0.707269 0.388874 0.292941
0.748821 0.392107 0.296070
0.790286 0.395339 0.299199
0.127844 0.393591 0.259636
0.170417 0.396823 0.262769
0.212931 0.400055 0.265902
0.255381 0.403287 0.269034
0.297766 0.406517 0.272166
0.340083 0.409748 0.275298
0.382329 0.412978 0.278429
0.424502 0.416208 0.281560
0.466600 0.419437 0.284691
0.508622 0.422665 0.287821
0.550565 0.425894 0.290951
0.592429 0.429122 0.294080
0.634212 0.432349 0.297209
0.675912 0.435576 0.300338
0.717527 0.438802 0.303467
0.759058 0.442028 0.306594
0.800502 0.445254 0.309722
0.138352 0.443510 0.270175
0.180910 0.446735 0.273306
0.223409 0.449960 0.276438
0.265843 0.453185 0.279569
0.308212 0.456409 0.282700
0.350511 0.459632 0.285830
0.392739 0.462856 0.288961
0.434894 0.466078 0.292090
0.476974 0.469301 0.295220
0.518976 0.472523 0.298349
0.560900 0.475744 0.301477
0.602744 0.478965 0.304605
0.644507 0.482185 0.307733
0.686186 0.485405 0.310861
0.727781 0.488625 0.313988
0.769290 0.491844 0.317114
0.810712 0.495063 0.320241
0.148856 0.493322 0.280709
0.191400 0.496541 0.283840
0.233883 0.499759 0.286970
0.276302 0.502976 0.290100
0.318653 0.506193 0.293230
0.360935 0.509410 0.296359
0.403145 0.512626 0.299488
0.445282 0.515842 0.302616
0.487343 0.519057 0.305744
0.529326 0.522272 0.308872
0.571230 0.525486 0.311999
0.613054 0.528700 0.315126
0.654796 0.531914 0.318253
0.696455 0.535127 0.321379
0.738029 0.538339 0.324505
0.779516 0.541551 0.327630
0.820917 0.544763 0.330755
0.159357 0.543026 0.291239
0.201886 0.546237 0.294369
0.244353 0.549448 0.297498
0.286756 0.552659 0.300627
0.329090 0.555868 0.303755
0.371355 0.559078 0.306883
0.413547 0.562287 0.310010
0.455665 0.565495 0.313138
0.497707 0.568704 0.316264
0.539671 0.571911 0.319391
0.581556 0.575118 0.322517
0.623359 0.578325 0.325643
0.665081 0.581531 0.328768
0.706719 0.584737 0.331893
0.748271 0.587942 0.335017
0.789738 0.591147 0.338141
0.831117 0.594351 0.341265
0.169854 0.592618 0.301766
0.212368 0.595822 0.304894
0.254820 0.599026 0.308022
0.297206 0.602229 0.311149
0.339523 0.605431 0.314276
0.381770 0.608633 0.317403
0.423944 0.611835 0.320529
0.466043 0.615036 0.323655
0.508066 0.618237 0.326780
0.550011 0.621437 0.329906
0.591876 0.624637 0.333030
0.633659 0.627836 0.336155
0.675360 0.631035 0.339279
0.716977 0.634233 0.342402
0.758509 0.637431 0.345526
0.799954 0.640628 0.348648
0.841311 0.643825 0.351771
0.180348 0.642096 0.312287
0.222847 0.645293 0.315414
0.265282 0.648489 0.318541
0.307651 0.651684 0.321667
0.349952 0.654879 0.324793
0.392181 0.658074 0.327918
0.434337 0.661268 0.331043
0.476417 0.664462 0.334168
0.518421 0.667655 0.337292
0.560346 0.670848 0.340416
0.602191 0.674040 0.343539
0.643954 0.677231 0.346663
0.685635 0.680423 0.349785
0.727231 0.683613 0.352908
0.768741 0.686804 0.356029
0.810165 0.689993 0.359151
0.851500 0.693182 0.362272
0.190838 0.691458 0.322805
0.233321 0.694647 0.325931
0.275741 0.697835 0.329056
0.318093 0.701023 0.332181
0.360376 0.704211 0.335305
0.402587 0.707398 0.338429
0.444725 0.710584 0.341553
0.486786 0.713770 0.344676
0.528771 0.716956 0.347799
0.570676 0.720141 0.350922
0.612501 0.723325 0.354044
0.654244 0.726509 0.357166
0.695904 0.729692 0.360287
0.737479 0.732875 0.363408
0.778968 0.736058 0.366529
0.820370 0.739240 0.369649
0.861683 0.742421 0.372769
0.201324 0.740701 0.333318
0.243792 0.743882 0.336443
0.286195 0.747063 0.339567
0.328530 0.750243 0.342690
0.370796 0.753423 0.345813
0.412989 0.756602 0.348936
0.455108 0.759781 0.352059
0.497151 0.762959 0.355181
0.539116 0.766136 0.358302
0.581002 0.769314 0.361424
0.622807 0.772490 0.364544
0.664529 0.775666 0.367665
0.706168 0.778842 0.370785
0.747722 0.782017 0.373905
0.789190 0.785192 0.377024
0.830570 0.788366 0.380143
0.871861 0.791539 0.383261
0.211806 0.789823 0.343827
0.254258 0.792997 0.346950
0.296645 0.796169 0.350073
0.338964 0.799342 0.353195
0.381211 0.802514 0.356317
0.423386 0.805685 0.359439
0.465487 0.808856 0.362560
0.507511 0.812026 0.365681
0.549456 0.815196 0.368801
0.591322 0.818365 0.371921
0.633107 0.821533 0.375040
0.674809 0.824702 0.378159
0.716427 0.827869 0.381278
0.757960 0.831036 0.384397
0.799406 0.834203 0.387514
0.840764 0.837369 0.390632
0.882034 0.840535 0.393749
0.222285 0.838823 0.354332
0.264721 0.841988 0.357454
0.307091 0.845153 0.360575
0.349392 0.848317 0.363696
0.391622 0.851481 0.366817
0.433779 0.854644 0.369937
0.475861 0.857807 0.373057
0.517866 0.860969 0.376176
0.559792 0.864131 0.379295
0.601638 0.867292 0.382414
0.643402 0.870453 0.385532
0.685084 0.873613 0.388650
0.726681 0.876772 0.391767
0.768192 0.879932 0.394884
0.809617 0.883090 0.398001
0.850954 0.886248 0.401117
0.892201 0.889406 0.404232
0.232759 0.887698 0.364832
0.275180 0.890855 0.367953
0.317533 0.894012 0.371073
0.359817 0.897168 0.374192
0.402029 0.900324 0.377311
0.444167 0.903479 0.380430
0.486230 0.906633 0.383549
0.528216 0.909787 0.386667
0.570122 0.912941 0.389784
0.611948 0.916094 0.392902
0.653693 0.919246 0.396019
0.695353 0.922398 0.399135
0.736929 0.925550 0.402251
0.778419 0.928701 0.405367
0.819822 0.931851 0.408482
0.861137 0.935001 0.411597
0.902363 0.938150 0.414711
0.065793 0.093169 0.236748
0.108445 0.096436 0.239884
0.151043 0.099703 0.243019
0.193584 0.102969 0.246154
0.236064 0.106236 0.249289
0.278479 0.109501 0.252423
0.320827 0.112767 0.255557
0.363105 0.116032 0.258691
0.405312 0.119297 0.261824
0.447444 0.122562 0.264957
0.489501 0.125826 0.268089
0.531481 0.129090 0.271222
0.573381 0.132353 0.274353
0.615201 0.135617 0.277485
0.656938 0.138880 0.280616
