working/Infinite_Arch_Leica_Looks_v1.2/looks/americannegative/look.CUBE
#Created by: Infinite Arch Leica Looks v1.0
#Unique Leica Look ID: 1006
#Based Filmstyle Mode: Standard
TITLE "IA American Negative"
#LUT size
LUT_3D_SIZE 5
#data domain
DOMAIN_MIN 0.0 0.0 0.0
DOMAIN_MAX 1.0 1.0 1.0
#LUT data points
0.000000 0.000000 0.004475
0.180129 0.000000 0.005456
0.446767 0.000000 0.007680
0.707484 0.013885 0.013199
0.947706 0.038508 0.030170
0.014825 0.240422 0.035534
0.237932 0.245996 0.028343
0.500425 0.250768 0.020603
0.751852 0.248136 0.018121
0.971510 0.245195 0.029672
0.106043 0.511893 0.066390
0.313432 0.518487 0.060757
0.564936 0.527310 0.052482
0.816102 0.536744 0.051107
0.990690 0.525011 0.057435
0.231533 0.768402 0.139178
0.413791 0.773943 0.130922
0.628424 0.781697 0.106171
0.849349 0.785586 0.100641
1.000000 0.786056 0.117837
0.281992 0.990235 0.191351
0.444346 0.994138 0.181805
0.648880 1.000000 0.173697
0.864027 1.000000 0.195347
1.000000 1.000000 0.217751
0.000000 0.000000 0.220768
0.188629 0.000000 0.214929
0.445750 0.007375 0.209859
0.705154 0.028364 0.206555
0.934979 0.053976 0.213703
0.018883 0.244383 0.241806
0.241031 0.250814 0.238336
0.496563 0.258357 0.230384
0.750608 0.256784 0.219241
0.975946 0.254966 0.223238
0.112393 0.516571 0.269177
0.326668 0.527432 0.265347
0.569188 0.536621 0.260419
0.817418 0.543481 0.260550
0.992265 0.531279 0.263419
0.255766 0.772524 0.317239
0.428928 0.778872 0.309186
0.630076 0.787269 0.292745
0.847527 0.790390 0.309540
1.000000 0.787424 0.328184
0.302671 0.990020 0.363021
0.458377 0.995957 0.351920
0.680390 0.993814 0.379706
0.863939 1.000000 0.362967
1.000000 1.000000 0.374547
0.000000 0.001643 0.440266
0.206747 0.014535 0.431725
0.451766 0.024481 0.418153
0.707371 0.040444 0.410435
0.944022 0.067326 0.421228
0.031206 0.248588 0.458126
0.250945 0.258404 0.454666
0.506806 0.270488 0.444041
0.755647 0.267702 0.429276
0.978075 0.270741 0.429294
0.101910 0.524894 0.488923
0.328322 0.538344 0.489421
0.575790 0.548886 0.485354
0.815616 0.554556 0.483360
0.993979 0.538866 0.479956
0.210314 0.785720 0.522318
0.412986 0.789658 0.532407
0.619691 0.789522 0.535592
0.831761 0.794822 0.541514
1.000000 0.789045 0.546117
0.341311 0.995468 0.528551
0.474180 0.999667 0.516485
0.689749 0.999204 0.532259
0.869346 1.000000 0.536685
1.000000 1.000000 0.581502
0.006664 0.013232 0.653295
0.223939 0.024490 0.640352
0.476676 0.050780 0.631794
0.717340 0.076753 0.617307
0.938522 0.118432 0.603425
0.069364 0.256848 0.664029
0.270094 0.263358 0.654008
0.529356 0.284626 0.650200
0.765056 0.288050 0.633425
0.980907 0.299462 0.626866
0.137386 0.533809 0.694967
0.344679 0.545003 0.692038
0.586033 0.556725 0.691296
0.820045 0.568085 0.692528
0.995737 0.548781 0.680928
0.220527 0.785538 0.733734
0.402368 0.790855 0.740107
0.617909 0.796739 0.748610
0.825665 0.799404 0.751612
1.000000 0.797592 0.755379
0.326526 0.999503 0.756677
0.469906 1.000000 0.752730
0.666421 1.000000 0.760083
0.863774 1.000000 0.779992
1.000000 1.000000 0.788731
0.051536 0.029281 0.853074
0.260816 0.037976 0.846857
0.505925 0.068798 0.840799
0.743101 0.098478 0.827930
0.959087 0.121534 0.816425
0.133973 0.276464 0.847201
0.320123 0.282741 0.833772
0.555544 0.298582 0.828377
0.787055 0.311396 0.825698
0.983088 0.317190 0.822381
0.201966 0.549542 0.889257
0.387097 0.556199 0.879960
0.605008 0.562389 0.881233
0.830000 0.576280 0.877057
0.996983 0.552475 0.856438
0.270610 0.786797 0.925928
0.436626 0.791941 0.931813
0.628443 0.796370 0.938504
0.824465 0.798560 0.940508
1.000000 0.799392 0.938498
0.313123 1.000000 0.967836
0.471731 1.000000 0.973714
0.644461 1.000000 0.980889
0.841123 1.000000 0.987294
1.000000 1.000000 0.990528
