working/Infinite_Arch_Leica_Looks_v1.2/looks/americannegative/look.CUBE
#Created by: Infinite Arch Leica Looks v1.0
#Unique Leica Look ID: 1006
#Based Filmstyle Mode: Standard
TITLE "IA American Negative"
#LUT size
LUT_3D_SIZE 17
#data domain
DOMAIN_MIN 0.0 0.0 0.0
DOMAIN_MAX 1.0 1.0 1.0
#LUT data points
0.000000 0.000000 0.004475
0.007296 0.000000 0.004356
0.063980 0.000000 0.004678
0.117216 0.000000 0.005109
0.180129 0.000000 0.005456
0.247176 0.000000 0.005689
0.312565 0.000000 0.006361
0.379773 0.000000 0.007170
0.446767 0.000000 0.007680
0.513855 0.002622 0.008715
0.579902 0.006157 0.009696
0.645356 0.010372 0.011272
0.707484 0.013885 0.013199
0.768382 0.018406 0.015905
0.829552 0.025449 0.019617
0.888264 0.031781 0.024309
0.947706 0.038508 0.030170
0.000000 0.042288 0.008789
0.018782 0.043150 0.007700
0.076925 0.044131 0.006422
0.133844 0.045051 0.006335
0.196141 0.045370 0.006047
0.259602 0.046537 0.006232
0.322199 0.045041 0.006630
0.388177 0.045781 0.006850
0.451722 0.046651 0.007344
0.520876 0.048543 0.007815
0.584558 0.050896 0.008542
0.651518 0.056221 0.009757
0.713158 0.060248 0.011252
0.773595 0.069550 0.014160
0.836118 0.075481 0.017602
0.892418 0.084008 0.022286
0.954148 0.089650 0.028184
0.000000 0.110102 0.019537
0.035184 0.110733 0.017912
0.091771 0.112080 0.015618
0.149889 0.113221 0.012999
0.211771 0.113477 0.010636
0.274451 0.114231 0.009562
0.335635 0.114309 0.009018
0.403150 0.114224 0.008376
0.465398 0.113236 0.008464
0.531654 0.112889 0.008866
0.596804 0.112128 0.008556
0.660149 0.113576 0.010256
0.724487 0.117095 0.010990
0.781064 0.122682 0.014351
0.842808 0.128250 0.016881
0.898583 0.134888 0.021565
0.962030 0.140577 0.027081
0.000000 0.175424 0.027215
0.050862 0.175450 0.026398
0.104188 0.176023 0.024799
0.162805 0.177843 0.022565
0.224117 0.180964 0.019272
0.289259 0.181538 0.016846
0.351229 0.181447 0.015390
0.417899 0.182547 0.013154
0.482689 0.182387 0.012040
0.548398 0.182814 0.011906
0.614213 0.181816 0.012159
0.673723 0.180240 0.013745
0.736620 0.180191 0.013396
0.791684 0.180525 0.016054
0.847704 0.181376 0.018528
0.907149 0.185837 0.021673
0.969341 0.190884 0.027728
0.014825 0.240422 0.035534
0.064463 0.238401 0.038230
0.116565 0.240652 0.036601
0.176712 0.244067 0.030375
0.237932 0.245996 0.028343
0.303406 0.249153 0.026344
0.368272 0.250421 0.024481
0.433255 0.250272 0.023502
0.500425 0.250768 0.020603
0.563912 0.250489 0.019793
0.629904 0.250420 0.018350
0.690771 0.249620 0.018347
0.751852 0.248136 0.018121
0.807593 0.246317 0.018939
0.860051 0.244747 0.020097
0.920116 0.243776 0.022731
0.971510 0.245195 0.029672
0.032828 0.304670 0.045181
0.081915 0.306751 0.042923
0.136118 0.308587 0.042263
0.190664 0.310702 0.037821
0.255183 0.314225 0.035311
0.315985 0.314198 0.037909
0.384448 0.320182 0.032275
0.446857 0.319547 0.034261
0.515900 0.322730 0.028323
0.579160 0.321392 0.028902
0.646458 0.322023 0.025677
0.707213 0.320886 0.025868
0.768536 0.319968 0.024283
0.824273 0.316996 0.024640
0.878286 0.313055 0.026384
0.929904 0.309155 0.028326
0.977801 0.306165 0.031759
0.059232 0.373165 0.052430
0.108197 0.374427 0.050861
0.158386 0.374631 0.053310
0.213378 0.378404 0.048829
0.274383 0.382677 0.041057
0.336989 0.385739 0.038612
0.400294 0.387180 0.038838
0.468216 0.391670 0.036883
0.532999 0.392826 0.036519
0.599773 0.394217 0.035905
0.663788 0.394490 0.034929
0.726737 0.394286 0.034435
0.786000 0.392859 0.034770
0.843332 0.390671 0.033356
0.892772 0.385130 0.037229
0.945983 0.381753 0.036703
0.981767 0.373760 0.037183
0.082032 0.441115 0.061363
0.131917 0.442620 0.059484
0.180686 0.444504 0.058332
0.234212 0.447841 0.054451
0.294110 0.452686 0.042942
0.355886 0.453345 0.046554
0.419462 0.455809 0.045069
0.484070 0.458279 0.045082
0.550988 0.461467 0.047435
0.617269 0.464871 0.043770
0.679301 0.464451 0.048983
0.742953 0.466703 0.043305
0.800947 0.464582 0.049557
0.858209 0.464498 0.044559
0.912448 0.461509 0.047197
0.967887 0.457512 0.045355
0.986194 0.449212 0.043116
0.106043 0.511893 0.066390
0.157041 0.511493 0.068239
0.204430 0.515474 0.062496
0.258258 0.514659 0.067800
0.313432 0.518487 0.060757
0.374022 0.519517 0.057472
0.437692 0.521998 0.055444
0.501851 0.526221 0.051191
0.564936 0.527310 0.052482
0.632792 0.533480 0.046968
0.695309 0.534507 0.051155
0.758806 0.537047 0.048018
0.816102 0.536744 0.051107
0.874094 0.537016 0.051521
0.927293 0.535408 0.056555
0.979943 0.532334 0.063596
0.990690 0.525011 0.057435
0.129750 0.579984 0.073150
0.184788 0.579386 0.080798
0.237309 0.580709 0.084083
0.283984 0.584227 0.072919
0.334377 0.587161 0.067083
0.395847 0.591244 0.055538
0.459192 0.592520 0.060365
0.522073 0.594215 0.059778
0.586102 0.597728 0.054393
0.648379 0.598712 0.055580
0.713412 0.603064 0.053350
0.772969 0.604308 0.056632
0.830610 0.605771 0.057222
0.884552 0.605587 0.061533
0.935911 0.604914 0.068190
0.984173 0.602061 0.075790
0.995037 0.597802 0.076124
0.158064 0.646073 0.082403
0.213231 0.643874 0.095509
0.265439 0.644431 0.098910
0.307775 0.650443 0.084205
0.362472 0.652971 0.082415
0.418916 0.654577 0.082893
0.481232 0.657613 0.075423
0.539146 0.659326 0.068358
0.603494 0.661829 0.078622
0.663450 0.663975 0.069963
0.724513 0.666251 0.075117
0.783748 0.668560 0.071561
0.838908 0.670424 0.073293
0.891896 0.670445 0.076038
0.940140 0.670226 0.081515
0.987897 0.668455 0.086228
0.998998 0.664403 0.090623
0.186790 0.710569 0.098148
0.232314 0.710413 0.099470
0.285148 0.710793 0.106304
0.336612 0.712990 0.103250
0.389233 0.715842 0.099382
0.443986 0.716423 0.106918
0.498678 0.720921 0.088881
0.556981 0.721916 0.088060
0.614614 0.722719 0.093298
0.673772 0.724949 0.086995
0.731133 0.726266 0.086730
0.789120 0.727568 0.086326
0.844217 0.729829 0.081681
0.895753 0.731212 0.084983
0.942831 0.731150 0.089158
0.985000 0.731529 0.106071
1.000000 0.727544 0.108858
0.231533 0.768402 0.139178
0.263705 0.770311 0.124553
0.303466 0.771786 0.119081
0.367833 0.771790 0.143403
0.413791 0.773943 0.130922
0.462577 0.775847 0.120487
0.514207 0.780163 0.103944
0.566870 0.780435 0.098860
0.628424 0.781697 0.106171
0.683929 0.782739 0.102669
0.740768 0.784050 0.102261
0.796033 0.784794 0.102515
0.849349 0.785586 0.100641
0.898641 0.788103 0.101522
0.942624 0.788610 0.101651
0.986081 0.788624 0.112477
1.000000 0.786056 0.117837
0.266813 0.824620 0.167394
0.299989 0.826383 0.154513
0.329687 0.828859 0.141004
0.384828 0.828270 0.163297
0.431332 0.830038 0.152986
0.477624 0.832048 0.140642
0.529000 0.832933 0.135865
0.583395 0.837589 0.131287
0.642938 0.836511 0.144822
0.695237 0.837302 0.132413
0.753841 0.839388 0.142581
0.807440 0.840128 0.138593
0.856984 0.840429 0.131054
0.900952 0.841627 0.128402
0.942809 0.843307 0.125128
0.986103 0.843474 0.126255
1.000000 0.842354 0.134819
0.271776 0.881362 0.165131
0.314918 0.881141 0.165974
0.343316 0.883630 0.150438
0.388193 0.884495 0.154818
0.443117 0.884757 0.167605
0.500910 0.884140 0.183633
0.550010 0.885204 0.177701
0.595531 0.890597 0.153852
0.651092 0.889567 0.169114
0.713586 0.888935 0.193263
0.758406 0.891046 0.163880
0.813245 0.892617 0.175308
0.866658 0.893498 0.182353
0.902477 0.894726 0.159930
0.943147 0.896041 0.161461
0.984499 0.896427 0.156302
1.000000 0.895431 0.161065
0.288424 0.934424 0.186589
0.348042 0.931640 0.207824
0.370001 0.934922 0.182966
0.389560 0.939585 0.155981
0.447219 0.938834 0.178118
0.514426 0.936370 0.216298
0.561617 0.937561 0.203848
0.596856 0.941378 0.171558
0.655951 0.944502 0.180031
0.714810 0.942725 0.205524
0.761892 0.943552 0.182720
0.815657 0.944482 0.188882
0.864204 0.946553 0.186761
0.901536 0.947813 0.181473
0.940433 0.948429 0.195752
0.981316 0.947803 0.195993
1.000000 0.948581 0.185277
0.281992 0.990235 0.191351
0.336063 0.988339 0.203860
0.363631 0.990823 0.188319
0.390506 0.994271 0.168278
0.444346 0.994138 0.181805
0.499587 0.994059 0.197185
0.551070 0.994717 0.195935
0.600772 0.995989 0.190650
0.648880 1.000000 0.173697
0.705299 0.998600 0.189337
0.765439 0.997856 0.210040
0.825002 0.997006 0.227581
0.864027 1.000000 0.195347
0.904130 1.000000 0.208979
0.937837 1.000000 0.197086
0.978844 1.000000 0.222662
1.000000 1.000000 0.217751
0.000000 0.000000 0.053850
0.007629 0.000000 0.053155
0.065734 0.000000 0.051783
0.124307 0.000000 0.051354
0.184890 0.000000 0.050589
0.245418 0.000000 0.048169
0.308420 0.000000 0.047760
0.377124 0.000000 0.050474
0.441067 0.000000 0.048100
0.509125 0.001102 0.050507
0.573595 0.005423 0.048502
0.636465 0.010527 0.048746
0.699597 0.013537 0.051393
0.760831 0.019395 0.055309
0.821377 0.026000 0.058096
0.879545 0.034341 0.063812
0.940664 0.040715 0.069046
0.000000 0.044351 0.062339
0.020818 0.045610 0.062439
0.079193 0.046236 0.060114
0.137331 0.046792 0.058468
0.198960 0.047698 0.056729
0.257801 0.047555 0.054921
0.322029 0.046806 0.053212
0.387447 0.046918 0.052581
0.449510 0.048029 0.050243
0.518067 0.050386 0.051778
0.580302 0.052694 0.049901
0.647228 0.057513 0.053346
0.707313 0.063080 0.052916
0.766690 0.072736 0.055866
0.829392 0.078420 0.058676
0.883738 0.088913 0.064825
0.947642 0.094173 0.069370
0.000000 0.110992 0.073492
0.036903 0.111924 0.071849
0.092192 0.113380 0.069441
0.149867 0.113519 0.067021
0.212800 0.114305 0.065055
0.273366 0.115513 0.062536
0.335258 0.115112 0.061327
0.402169 0.115374 0.058895
0.464130 0.115001 0.056791
0.532051 0.114344 0.057186
0.594984 0.114022 0.054175
0.659673 0.115926 0.056222
0.721908 0.119035 0.055680
0.777800 0.125832 0.058638
0.835291 0.131221 0.060629
0.890148 0.138318 0.064102
0.957383 0.144805 0.068464
0.001149 0.175847 0.079987
0.052700 0.175886 0.079976
0.104984 0.177394 0.077956
0.163387 0.178896 0.075779
0.224642 0.180629 0.072595
0.288193 0.181484 0.069428
0.349948 0.182021 0.067604
0.416525 0.182456 0.066024
0.480489 0.183078 0.063467
0.546302 0.182817 0.061316
0.611787 0.182406 0.060118
0.673385 0.181292 0.061086
0.735827 0.180962 0.059778
0.790304 0.180491 0.060319
0.846022 0.183916 0.065555
0.903097 0.189098 0.065717
0.967947 0.194529 0.072141
0.016648 0.240865 0.086602
0.067844 0.239215 0.088870
0.117270 0.241838 0.086402
0.177441 0.244420 0.082217
0.237192 0.245689 0.081183
0.303274 0.249524 0.077180
0.367629 0.250378 0.075437
0.432639 0.250897 0.072712
0.498782 0.251686 0.071267
0.563213 0.251749 0.068530
0.629251 0.251978 0.067312
0.690362 0.250381 0.066520
0.751549 0.249259 0.065680
0.807243 0.246620 0.064631
0.859274 0.244951 0.067029
0.917179 0.244967 0.069290
0.966287 0.246630 0.079172
0.035286 0.304023 0.098463
0.083901 0.307873 0.093619
0.136412 0.309214 0.092020
0.191772 0.310779 0.091439
0.256162 0.314972 0.085878
0.316504 0.315445 0.086158
0.385712 0.320899 0.081315
0.446805 0.320606 0.080962
0.516834 0.323157 0.077230
0.578477 0.321806 0.075992
0.646541 0.322991 0.074268
0.706707 0.321831 0.073598
0.768094 0.320386 0.073063
0.824757 0.317619 0.072122
0.879166 0.313983 0.072338
0.930049 0.310370 0.075619
0.978169 0.307623 0.079936
0.059991 0.374523 0.101338
0.109649 0.376407 0.101038
0.158360 0.376636 0.099888
0.213427 0.379973 0.097000
0.272724 0.380508 0.095148
0.337002 0.385111 0.090247
0.398043 0.385712 0.091833
0.467067 0.391411 0.086129
0.531197 0.392022 0.087153
0.597702 0.393924 0.084471
0.661934 0.393850 0.084319
0.725004 0.393918 0.082987
0.782891 0.392063 0.081971
0.841601 0.390795 0.081847
0.894491 0.386884 0.081954
0.948620 0.382881 0.083153
0.982097 0.374743 0.083571
0.085102 0.442559 0.108401
0.137079 0.444032 0.109180
0.182554 0.445228 0.106478
0.235282 0.448610 0.103391
0.294003 0.450021 0.103145
0.356781 0.454343 0.095818
0.420216 0.456771 0.094827
0.485147 0.460084 0.091793
0.551011 0.463081 0.091876
0.617508 0.466077 0.090018
0.679663 0.466053 0.091822
0.742984 0.467716 0.089697
0.801240 0.466521 0.092246
0.858362 0.465249 0.091461
0.912412 0.462334 0.094117
0.962618 0.458145 0.095614
0.986512 0.449763 0.091856
0.110786 0.511380 0.116240
0.171869 0.508320 0.128739
0.209214 0.515345 0.113534
0.258589 0.513927 0.118018
0.316452 0.518975 0.109658
0.377214 0.521609 0.103801
0.439048 0.524422 0.101580
0.503893 0.528148 0.098799
0.566142 0.529611 0.099028
0.633864 0.534503 0.096443
0.696657 0.536116 0.097079
0.758865 0.537731 0.098367
0.817074 0.538288 0.097752
0.872833 0.537587 0.102720
0.927851 0.536232 0.103356
0.979502 0.533061 0.107512
0.991046 0.526336 0.104955
0.133508 0.579906 0.119589
0.189116 0.579838 0.126856
0.236656 0.582733 0.124488
0.284541 0.584988 0.120236
0.341150 0.585905 0.124296
0.400713 0.591657 0.109649
0.460946 0.591904 0.112939
0.523288 0.592524 0.115771
0.587435 0.597989 0.105799
0.648619 0.597697 0.114099
0.712604 0.603003 0.105413
0.772601 0.604511 0.110617
0.828930 0.605788 0.108143
0.882735 0.606103 0.114318
0.936220 0.605659 0.116832
0.985282 0.603369 0.122006
0.995405 0.599029 0.126666
0.160350 0.647163 0.129213
0.217155 0.645870 0.138886
0.263720 0.647354 0.136082
0.308329 0.651022 0.126742
0.364019 0.651135 0.132182
0.420605 0.654838 0.128709
0.482941 0.658406 0.123987
0.542312 0.659235 0.122369
0.603185 0.662274 0.122738
0.663347 0.664151 0.118225
0.724180 0.666309 0.120259
0.782904 0.669090 0.118834
0.838417 0.670584 0.122602
0.891296 0.670941 0.126159
0.939457 0.671103 0.135898
0.986110 0.669300 0.135938
0.999415 0.666169 0.144061
0.187107 0.711162 0.139849
0.239828 0.711068 0.146951
0.297734 0.709819 0.164918
0.346588 0.712344 0.155941
0.389092 0.716362 0.140188
0.444284 0.716733 0.154761
0.499460 0.721006 0.136917
0.557055 0.721973 0.133515
0.615781 0.723420 0.140088
0.673729 0.725748 0.132138
0.732047 0.726887 0.133672
0.789903 0.729083 0.133783
0.846343 0.731404 0.135478
0.895866 0.732255 0.137340
0.942824 0.732624 0.146106
0.986140 0.731518 0.152777
1.000000 0.727575 0.154810
0.237548 0.768718 0.183323
0.271924 0.771020 0.172374
0.313066 0.771025 0.169098
0.365412 0.773488 0.174084
0.415893 0.774912 0.169441
0.463271 0.776959 0.162836
0.519040 0.778601 0.169852
0.576670 0.780610 0.162603
0.629447 0.782134 0.150849
0.687672 0.784610 0.159028
0.742375 0.785114 0.153685
0.797131 0.786324 0.152077
0.850238 0.787599 0.151757
0.898827 0.788819 0.150950
0.943330 0.790170 0.154041
0.985888 0.789400 0.163809
1.000000 0.786336 0.166676
0.275737 0.824315 0.217213
0.308849 0.826267 0.203885
0.330637 0.829564 0.181446
0.380719 0.830085 0.190824
0.440088 0.829865 0.206193
0.488229 0.831146 0.197475
0.532886 0.833707 0.188641
0.589072 0.837995 0.186066
0.649490 0.836264 0.204481
0.696929 0.838207 0.176825
0.754446 0.840174 0.189738
0.807442 0.840929 0.184166
0.856600 0.841435 0.175568
0.902703 0.842552 0.177086
0.942625 0.844746 0.171283
0.984992 0.845057 0.176819
1.000000 0.843208 0.184160
0.300341 0.878862 0.232792
0.330867 0.880120 0.221694
0.355009 0.882747 0.203672
0.393686 0.884557 0.206560
0.456741 0.883770 0.235097
0.504189 0.884196 0.226304
0.550250 0.885626 0.216557
0.599547 0.887664 0.219420
0.653849 0.889653 0.217424
0.708458 0.890302 0.215322
0.759597 0.891422 0.208652
0.811135 0.893053 0.205899
0.861677 0.894601 0.204339
0.902918 0.894505 0.200653
0.941407 0.896164 0.198277
0.982880 0.898506 0.196720
1.000000 0.897600 0.202517
0.299361 0.933237 0.238517
0.371672 0.928528 0.281416
0.381451 0.933479 0.235405
0.397028 0.938653 0.208255
0.449266 0.938760 0.221632
0.515473 0.936492 0.254363
0.564445 0.936890 0.247489
0.613123 0.938435 0.242018
0.654607 0.944990 0.214983
0.712533 0.942760 0.236690
0.775606 0.941205 0.259846
0.819281 0.943453 0.239087
0.867754 0.945357 0.243688
0.907846 0.946553 0.247296
0.942700 0.948398 0.228136
0.982487 0.947589 0.250341
1.000000 0.948914 0.225636
0.289169 0.989314 0.241245
0.348379 0.986418 0.260251
0.389979 0.986499 0.255615
0.408325 0.991738 0.227613
0.446106 0.994156 0.225324
0.504045 0.993392 0.240687
0.567175 0.991461 0.266669
0.617646 0.992740 0.262579
0.651119 1.000000 0.217847
0.710283 0.997939 0.241966
0.770967 0.997088 0.263248
0.831859 0.994966 0.289107
0.865818 1.000000 0.245784
0.908368 1.000000 0.271677
0.942195 1.000000 0.251841
0.979732 1.000000 0.262226
1.000000 1.000000 0.256383
0.000000 0.000000 0.107570
0.009888 0.000000 0.107065
0.066129 0.000000 0.106725
0.124488 0.000000 0.106002
0.184247 0.000000 0.104246
0.247312 0.000000 0.104042
0.315798 0.000000 0.104864
0.377809 0.000000 0.102204
0.444033 0.000000 0.101848
0.508737 0.003255 0.099374
0.574492 0.007596 0.098196
0.639137 0.010547 0.099929
0.699535 0.016388 0.100618
0.759914 0.021581 0.105650
0.815967 0.028437 0.104024
0.870816 0.041663 0.105823
0.934740 0.044974 0.112212
0.000000 0.045777 0.116828
0.021134 0.046963 0.116059
0.080377 0.048630 0.115480
0.139421 0.048879 0.113671
0.197095 0.049080 0.111108
0.258055 0.048305 0.109564
0.324844 0.047894 0.108490
0.384815 0.047487 0.103573
0.451383 0.048314 0.101766
0.515835 0.049929 0.099462
0.582455 0.053835 0.097813
0.647558 0.058728 0.097517
0.706665 0.064185 0.096841
0.767588 0.071090 0.105003
0.825136 0.076925 0.101178
0.877002 0.091666 0.105949
0.942592 0.095858 0.111954
0.000000 0.111143 0.123950
0.037807 0.112926 0.123767
0.093321 0.114242 0.122747
0.150539 0.115012 0.120665
0.212685 0.116277 0.118889
0.271994 0.117397 0.117209
0.335727 0.117065 0.114852
0.400644 0.117548 0.112695
0.463527 0.117523 0.109860
0.532526 0.117312 0.108973
0.594863 0.117609 0.104661
0.660021 0.118776 0.104455
0.720586 0.121930 0.103305
0.778758 0.126706 0.104902
0.837426 0.133712 0.107088
0.887012 0.141753 0.108064
0.955321 0.148261 0.116747
0.002111 0.176873 0.131725
0.053344 0.177225 0.131461
0.107342 0.178811 0.129151
0.163703 0.180218 0.127439
0.224958 0.181811 0.125114
0.288489 0.183167 0.122713
0.349729 0.183238 0.121598
0.417587 0.184679 0.119018
0.479762 0.184965 0.116852
0.547344 0.184757 0.114897
0.610576 0.184588 0.112465
0.674099 0.183779 0.110677
0.735131 0.182982 0.108652
0.790292 0.181657 0.108693
0.849915 0.185584 0.110138
0.902031 0.191342 0.111267
0.968294 0.197514 0.118331
0.017428 0.241860 0.138329
0.070340 0.241239 0.139813
0.119269 0.243392 0.137361
0.179295 0.246829 0.132446
0.239153 0.248063 0.132277
0.304809 0.251121 0.129993
0.368111 0.252143 0.126969
0.433665 0.252979 0.125647
0.498600 0.253754 0.123616
0.564013 0.253957 0.121210
0.628638 0.253749 0.119492
0.690923 0.252818 0.117865
0.752214 0.251428 0.116631
0.808007 0.248353 0.114445
0.861739 0.245914 0.113899
0.917265 0.245788 0.117838
0.975001 0.248427 0.127154
0.035212 0.306238 0.147565
0.084754 0.309423 0.144669
0.138381 0.311431 0.142408
0.194245 0.313336 0.140879
0.257868 0.316846 0.137360
0.318688 0.318422 0.136407
0.386611 0.322550 0.133801
0.447990 0.322622 0.130896
0.516922 0.324572 0.128576
0.579205 0.323710 0.125691
0.647103 0.325077 0.125454
0.707664 0.324404 0.123810
0.768898 0.322758 0.124073
0.825592 0.319786 0.122592
0.880391 0.316045 0.122073
0.934567 0.311433 0.123503
0.978551 0.309064 0.130793
0.060523 0.375645 0.152328
0.109351 0.378531 0.150098
0.160408 0.379605 0.149219
0.213615 0.382422 0.146224
0.275088 0.384704 0.141680
0.339089 0.387162 0.142142
0.400005 0.388421 0.140889
0.467900 0.392614 0.138849
0.532430 0.394603 0.136383
0.597147 0.395157 0.134895
0.662858 0.396215 0.132232
0.724123 0.395339 0.131327
0.784270 0.395372 0.130284
0.841912 0.393066 0.130399
0.896344 0.389819 0.129834
0.950956 0.384743 0.132490
0.982499 0.376679 0.132795
0.085030 0.444263 0.157603
0.136620 0.446083 0.158244
0.186097 0.447468 0.155733
0.236120 0.450921 0.152474
0.296368 0.452131 0.152008
0.358074 0.456082 0.146902
0.421214 0.458526 0.145976
0.485663 0.461674 0.143916
0.551442 0.464739 0.144197
0.617210 0.467744 0.139855
0.680055 0.467906 0.141855
0.743645 0.469507 0.138641
0.800614 0.467488 0.141064
0.859079 0.466980 0.140107
0.912492 0.463830 0.142612
0.964097 0.460491 0.142893
0.986911 0.451566 0.141872
0.113177 0.512658 0.162484
0.170847 0.512149 0.166993
0.210378 0.517673 0.160524
0.261073 0.515341 0.163800
0.321648 0.521088 0.159183
0.378666 0.524511 0.151295
0.440777 0.525763 0.153516
0.505211 0.530098 0.150335
0.567400 0.531288 0.151997
0.634477 0.536357 0.148097
0.696837 0.537640 0.149768
0.759115 0.539806 0.148970
0.816659 0.539498 0.149489
0.873125 0.539044 0.150622
0.927731 0.537141 0.150593
0.979673 0.533862 0.153976
0.991380 0.527065 0.154613
0.136601 0.580804 0.167626
0.192202 0.581291 0.172616
0.241263 0.583783 0.171910
0.284790 0.586132 0.164216
0.343849 0.588326 0.167546
0.403020 0.591687 0.163500
0.463250 0.593977 0.158161
0.525113 0.596114 0.158327
0.587825 0.599488 0.155483
0.650080 0.600954 0.159082
0.712617 0.604665 0.156926
0.773150 0.607157 0.161079
0.828593 0.607622 0.162650
0.882993 0.608008 0.166208
0.936285 0.607005 0.167942
0.985968 0.604670 0.171307
0.995732 0.599880 0.173936
0.159164 0.647745 0.173429
0.219880 0.646294 0.185757
0.271219 0.648298 0.186402
0.311929 0.652694 0.172872
0.367449 0.653793 0.177482
0.424496 0.656566 0.176317
0.483873 0.661031 0.163874
0.544271 0.661400 0.169094
0.606227 0.664077 0.173446
0.664344 0.665917 0.166431
0.724652 0.668512 0.171747
0.783974 0.671146 0.174502
0.838224 0.672687 0.178102
0.891514 0.672755 0.182539
0.939915 0.673259 0.188068
0.987293 0.670461 0.188376
0.999735 0.666846 0.191740
0.192372 0.712414 0.188146
0.240795 0.712449 0.189623
0.299377 0.712640 0.198498
0.344969 0.714868 0.191909
0.388957 0.717403 0.184098
0.447213 0.718855 0.196563
0.502959 0.720502 0.193311
0.558246 0.723272 0.180513
0.617595 0.725045 0.186508
0.674981 0.727153 0.179522
0.733460 0.729052 0.181753
0.790238 0.730201 0.182328
0.844049 0.732286 0.183046
0.896195 0.733120 0.189472
0.942523 0.732986 0.196836
0.985942 0.733114 0.209105
1.000000 0.728600 0.207969
0.246425 0.769831 0.226256
0.279507 0.771651 0.214875
0.319594 0.772986 0.211248
0.378923 0.773923 0.227223
0.425118 0.775338 0.217579
0.464324 0.778102 0.204373
0.520453 0.779528 0.214774
0.578443 0.782985 0.205974
0.629002 0.782790 0.195333
0.687990 0.785006 0.204263
0.741980 0.786156 0.198037
0.796615 0.786881 0.196825
0.848620 0.788168 0.195904
0.898376 0.789988 0.200774
0.943320 0.790510 0.205751
0.986584 0.789992 0.213786
1.000000 0.786793 0.219762
0.280651 0.825233 0.252902
0.315205 0.827098 0.241966
0.336317 0.830237 0.224934
0.389832 0.830331 0.240441
0.438410 0.831330 0.235664
0.484994 0.832707 0.229909
0.534338 0.834532 0.228946
0.589017 0.835924 0.231926
0.648719 0.837319 0.232690
0.696677 0.838718 0.215841
0.753873 0.841269 0.224026
0.807169 0.841798 0.222806
0.855326 0.842415 0.215859
0.901686 0.844023 0.218559
0.943309 0.844883 0.215852
0.984690 0.845461 0.224990
1.000000 0.843860 0.234870
0.308991 0.878598 0.281463
0.337412 0.880234 0.264836
0.362125 0.883117 0.245156
0.392733 0.885686 0.239663
0.450390 0.885376 0.257077
0.509961 0.884058 0.270801
0.556798 0.884956 0.263107
0.599409 0.888129 0.251956
0.654422 0.892024 0.247865
0.719317 0.889292 0.274865
0.761555 0.891298 0.249075
0.816240 0.893502 0.256041
0.867155 0.895142 0.260503
0.904054 0.895244 0.245633
0.943929 0.897553 0.244635
0.983710 0.898812 0.240445
1.000000 0.898395 0.247445
0.301602 0.933613 0.278073
0.362798 0.930665 0.296099
0.394872 0.932074 0.285348
0.408153 0.937581 0.254403
0.453545 0.938816 0.265373
0.523248 0.936368 0.297339
0.569999 0.936561 0.290558
0.618172 0.937665 0.286688
0.659261 0.944929 0.262731
0.718362 0.942736 0.284949
0.773891 0.941899 0.292575
0.823108 0.943452 0.282540
0.865341 0.946787 0.275904
0.908135 0.946753 0.283342
0.944137 0.948966 0.271073
0.982776 0.948925 0.271022
1.000000 0.950345 0.265917
0.291482 0.989669 0.281336
0.368691 0.982531 0.322798
0.416794 0.981950 0.325179
0.418897 0.990591 0.280203
0.447057 0.994540 0.267893
0.505230 0.993775 0.282413
0.572924 0.990699 0.310994
0.622175 0.992186 0.305741
0.656734 0.996917 0.276149
0.710074 1.000000 0.274231
0.771830 0.997636 0.300914
0.831793 0.997060 0.315443
0.863789 1.000000 0.283295
0.907586 1.000000 0.298753
0.944914 1.000000 0.285854
0.980870 1.000000 0.300773
1.000000 1.000000 0.298290
0.000000 0.000000 0.165197
0.009982 0.000000 0.163289
0.070805 0.000000 0.163914
0.126398 0.000000 0.161766
0.185286 0.000000 0.160430
0.248670 0.000000 0.159838
0.315085 0.000000 0.158797
0.377640 0.000623 0.156204
0.447197 0.002766 0.157964
0.507969 0.007760 0.152485
0.578121 0.010844 0.156083
0.640615 0.017694 0.152611
0.702464 0.023007 0.152837
