working/Infinite_Arch_Leica_Looks_v1.2/looks/americannegative/look.CUBE
#Created by: Infinite Arch Leica Looks v1.0
#Unique Leica Look ID: 1006
#Based Filmstyle Mode: Standard
TITLE "IA American Negative"
#LUT size
LUT_3D_SIZE 9
#data domain
DOMAIN_MIN 0.0 0.0 0.0
DOMAIN_MAX 1.0 1.0 1.0
#LUT data points
0.000000 0.000000 0.004475
0.063980 0.000000 0.004678
0.180129 0.000000 0.005456
0.312565 0.000000 0.006361
0.446767 0.000000 0.007680
0.579902 0.006157 0.009696
0.707484 0.013885 0.013199
0.829552 0.025449 0.019617
0.947706 0.038508 0.030170
0.000000 0.110102 0.019537
0.091771 0.112080 0.015618
0.211771 0.113477 0.010636
0.335635 0.114309 0.009018
0.465398 0.113236 0.008464
0.596804 0.112128 0.008556
0.724487 0.117095 0.010990
0.842808 0.128250 0.016881
0.962030 0.140577 0.027081
0.014825 0.240422 0.035534
0.116565 0.240652 0.036601
0.237932 0.245996 0.028343
0.368272 0.250421 0.024481
0.500425 0.250768 0.020603
0.629904 0.250420 0.018350
0.751852 0.248136 0.018121
0.860051 0.244747 0.020097
0.971510 0.245195 0.029672
0.059232 0.373165 0.052430
0.158386 0.374631 0.053310
0.274383 0.382677 0.041057
0.400294 0.387180 0.038838
0.532999 0.392826 0.036519
0.663788 0.394490 0.034929
0.786000 0.392859 0.034770
0.892772 0.385130 0.037229
0.981767 0.373760 0.037183
0.106043 0.511893 0.066390
0.204430 0.515474 0.062496
0.313432 0.518487 0.060757
0.437692 0.521998 0.055444
0.564936 0.527310 0.052482
0.695309 0.534507 0.051155
0.816102 0.536744 0.051107
0.927293 0.535408 0.056555
0.990690 0.525011 0.057435
0.158064 0.646073 0.082403
0.265439 0.644431 0.098910
0.362472 0.652971 0.082415
0.481232 0.657613 0.075423
0.603494 0.661829 0.078622
0.724513 0.666251 0.075117
0.838908 0.670424 0.073293
0.940140 0.670226 0.081515
0.998998 0.664403 0.090623
0.231533 0.768402 0.139178
0.303466 0.771786 0.119081
0.413791 0.773943 0.130922
0.514207 0.780163 0.103944
0.628424 0.781697 0.106171
0.740768 0.784050 0.102261
0.849349 0.785586 0.100641
0.942624 0.788610 0.101651
1.000000 0.786056 0.117837
0.271776 0.881362 0.165131
0.343316 0.883630 0.150438
0.443117 0.884757 0.167605
0.550010 0.885204 0.177701
0.651092 0.889567 0.169114
0.758406 0.891046 0.163880
0.866658 0.893498 0.182353
0.943147 0.896041 0.161461
1.000000 0.895431 0.161065
0.281992 0.990235 0.191351
0.363631 0.990823 0.188319
0.444346 0.994138 0.181805
0.551070 0.994717 0.195935
0.648880 1.000000 0.173697
0.765439 0.997856 0.210040
0.864027 1.000000 0.195347
0.937837 1.000000 0.197086
1.000000 1.000000 0.217751
0.000000 0.000000 0.107570
0.066129 0.000000 0.106725
0.184247 0.000000 0.104246
0.315798 0.000000 0.104864
0.444033 0.000000 0.101848
0.574492 0.007596 0.098196
0.699535 0.016388 0.100618
0.815967 0.028437 0.104024
0.934740 0.044974 0.112212
0.000000 0.111143 0.123950
0.093321 0.114242 0.122747
0.212685 0.116277 0.118889
0.335727 0.117065 0.114852
0.463527 0.117523 0.109860
0.594863 0.117609 0.104661
0.720586 0.121930 0.103305
0.837426 0.133712 0.107088
0.955321 0.148261 0.116747
0.017428 0.241860 0.138329
0.119269 0.243392 0.137361
0.239153 0.248063 0.132277
0.368111 0.252143 0.126969
0.498600 0.253754 0.123616
0.628638 0.253749 0.119492
0.752214 0.251428 0.116631
0.861739 0.245914 0.113899
0.975001 0.248427 0.127154
0.060523 0.375645 0.152328
0.160408 0.379605 0.149219
0.275088 0.384704 0.141680
0.400005 0.388421 0.140889
0.532430 0.394603 0.136383
0.662858 0.396215 0.132232
0.784270 0.395372 0.130284
0.896344 0.389819 0.129834
0.982499 0.376679 0.132795
0.113177 0.512658 0.162484
0.210378 0.517673 0.160524
0.321648 0.521088 0.159183
0.440777 0.525763 0.153516
0.567400 0.531288 0.151997
0.696837 0.537640 0.149768
0.816659 0.539498 0.149489
0.927731 0.537141 0.150593
0.991380 0.527065 0.154613
0.159164 0.647745 0.173429
0.271219 0.648298 0.186402
0.367449 0.653793 0.177482
0.483873 0.661031 0.163874
0.606227 0.664077 0.173446
0.724652 0.668512 0.171747
0.838224 0.672687 0.178102
0.939915 0.673259 0.188068
0.999735 0.666846 0.191740
0.246425 0.769831 0.226256
0.319594 0.772986 0.211248
0.425118 0.775338 0.217579
0.520453 0.779528 0.214774
0.629002 0.782790 0.195333
0.741980 0.786156 0.198037
0.848620 0.788168 0.195904
0.943320 0.790510 0.205751
1.000000 0.786793 0.219762
0.308991 0.878598 0.281463
0.362125 0.883117 0.245156
0.450390 0.885376 0.257077
0.556798 0.884956 0.263107
0.654422 0.892024 0.247865
0.761555 0.891298 0.249075
0.867155 0.895142 0.260503
0.943929 0.897553 0.244635
1.000000 0.898395 0.247445
0.291482 0.989669 0.281336
0.416794 0.981950 0.325179
0.447057 0.994540 0.267893
0.572924 0.990699 0.310994
0.656734 0.996917 0.276149
0.771830 0.997636 0.300914
0.863789 1.000000 0.283295
0.944914 1.000000 0.285854
1.000000 1.000000 0.298290
0.000000 0.000000 0.220768
0.073494 0.000000 0.219686
0.188629 0.000000 0.214929
0.313676 0.000689 0.210836
0.445750 0.007375 0.209859
0.579112 0.014939 0.207544
0.705154 0.028364 0.206555
0.818427 0.039780 0.202045
0.934979 0.053976 0.213703
0.000000 0.113625 0.229211
0.092007 0.116312 0.227239
0.213686 0.121348 0.226303
0.339642 0.121775 0.223077
0.467380 0.121438 0.217320
0.597006 0.121874 0.209645
0.720960 0.127111 0.205231
0.837133 0.135600 0.204003
0.952043 0.152838 0.207845
0.018883 0.244383 0.241806
0.121425 0.247661 0.240966
0.241031 0.250814 0.238336
0.367099 0.255827 0.235182
0.496563 0.258357 0.230384
0.626755 0.258751 0.224670
0.750608 0.256784 0.219241
0.864342 0.252199 0.217867
0.975946 0.254966 0.223238
0.056831 0.382338 0.256181
0.158405 0.385044 0.251600
0.280383 0.388580 0.253255
0.403579 0.393887 0.248548
0.536234 0.399416 0.244669
0.665126 0.401542 0.242223
0.786916 0.401198 0.239701
0.897489 0.394645 0.236441
0.983445 0.382800 0.233110
0.112393 0.516571 0.269177
0.210397 0.522368 0.264978
0.326668 0.527432 0.265347
0.443659 0.533676 0.259310
0.569188 0.536621 0.260419
0.697331 0.542477 0.260392
0.817418 0.543481 0.260550
0.927333 0.541040 0.261657
0.992265 0.531279 0.263419
0.164445 0.651892 0.276427
0.275499 0.654496 0.281598
0.375934 0.658610 0.278380
0.486581 0.663415 0.277841
0.605235 0.668050 0.280044
0.721917 0.671863 0.282494
0.834465 0.675510 0.288943
0.938500 0.675422 0.296133
1.000000 0.668995 0.300318
0.255766 0.772524 0.317239
0.327973 0.776340 0.304918
0.428928 0.778872 0.309186
0.521042 0.782702 0.304531
0.630076 0.787269 0.292745
0.740339 0.788264 0.300010
0.847527 0.790390 0.309540
0.941439 0.792458 0.320989
1.000000 0.787424 0.328184
0.310193 0.880823 0.350324
0.369325 0.884619 0.325457
0.463838 0.887002 0.338481
0.561903 0.886851 0.340612
0.661602 0.890149 0.342196
0.763099 0.892596 0.330710
0.863165 0.896210 0.340645
0.943656 0.898415 0.339618
1.000000 0.899867 0.353220
0.302671 0.990020 0.363021
0.420368 0.984744 0.390706
0.458377 0.995957 0.351920
0.576809 0.992461 0.382005
0.680390 0.993814 0.379706
0.776249 1.000000 0.373627
0.863939 1.000000 0.362967
0.947275 1.000000 0.374730
1.000000 1.000000 0.374547
0.000000 0.000000 0.330342
0.073125 0.000000 0.327052
0.200082 0.005107 0.325174
0.317207 0.007463 0.316872
0.444221 0.013770 0.311722
0.579310 0.022737 0.309653
0.706107 0.035368 0.308927
0.824874 0.046020 0.312485
0.937221 0.062745 0.314316
0.000000 0.116838 0.338503
0.094484 0.119110 0.336086
0.222483 0.127581 0.336607
0.343439 0.127970 0.330759
0.471445 0.126561 0.326484
0.601577 0.127535 0.320711
0.724260 0.134874 0.312177
0.839274 0.144267 0.308915
0.954607 0.163280 0.314245
0.025107 0.245376 0.352298
0.121541 0.248839 0.347354
0.244719 0.255380 0.346525
0.373733 0.262551 0.345149
0.502651 0.264281 0.340545
0.631081 0.263673 0.332478
0.753377 0.261267 0.326245
0.866649 0.257698 0.322432
0.976881 0.260835 0.324181
0.053061 0.382981 0.365627
0.159215 0.387584 0.362875
0.283394 0.395638 0.362632
0.407020 0.399029 0.358417
0.538595 0.404956 0.357150
0.666078 0.407918 0.352917
0.786999 0.407465 0.348499
0.899054 0.401345 0.343856
0.984422 0.388778 0.340160
0.104620 0.523038 0.379345
0.212342 0.529819 0.378478
0.323212 0.534946 0.375685
0.446581 0.536515 0.376168
0.570903 0.541926 0.374170
0.697562 0.547150 0.371710
0.816870 0.548421 0.371504
0.925077 0.546696 0.372946
0.993149 0.535424 0.372731
0.171579 0.659551 0.392105
0.263213 0.661555 0.388298
0.375049 0.663526 0.394972
0.485405 0.667814 0.394778
0.602174 0.674150 0.394569
0.716552 0.675216 0.397252
0.829374 0.677559 0.400876
0.934391 0.676757 0.405689
1.000000 0.670178 0.407038
0.238402 0.778412 0.413803
0.332200 0.780047 0.416415
0.423772 0.782262 0.414789
0.522593 0.785916 0.418360
0.626165 0.787218 0.416817
0.734387 0.790633 0.420001
0.838898 0.792630 0.428526
0.938351 0.793791 0.436831
1.000000 0.788599 0.438108
0.312029 0.882466 0.445040
0.366677 0.887352 0.420764
0.467898 0.888817 0.437711
0.565715 0.888492 0.443008
0.659900 0.892226 0.442615
0.759099 0.896200 0.436058
0.854921 0.897591 0.447752
0.940375 0.899357 0.449221
1.000000 0.900971 0.467862
0.318520 0.991014 0.446459
0.420218 0.989073 0.457834
0.466297 0.997863 0.432624
0.586091 0.994237 0.460257
0.686553 0.995627 0.457633
0.780843 1.000000 0.460678
0.869729 1.000000 0.447358
0.947533 1.000000 0.450598
1.000000 1.000000 0.466222
0.000000 0.001643 0.440266
0.077711 0.002631 0.433816
0.206747 0.014535 0.431725
0.331267 0.019058 0.430443
0.451766 0.024481 0.418153
0.579587 0.030801 0.411457
0.707371 0.040444 0.410435
0.827031 0.051276 0.417780
0.944022 0.067326 0.421228
0.001926 0.121322 0.448193
0.101403 0.121518 0.442332
0.222750 0.128849 0.438755
0.351227 0.137781 0.434130
0.473373 0.136914 0.425722
0.601302 0.134934 0.421483
0.727308 0.140674 0.419430
0.844344 0.153396 0.416981
0.955649 0.173663 0.416665
0.031206 0.248588 0.458126
0.132390 0.252717 0.456990
0.250945 0.258404 0.454666
0.383976 0.269190 0.453204
0.506806 0.270488 0.444041
0.633405 0.268830 0.436613
0.755647 0.267702 0.429276
0.868880 0.266258 0.426883
0.978075 0.270741 0.429294
0.060934 0.385539 0.471432
0.167614 0.390854 0.472581
0.288555 0.398438 0.471297
0.410939 0.403300 0.466186
0.543262 0.412549 0.464675
0.669760 0.414535 0.460673
0.790089 0.412578 0.456763
0.900245 0.405846 0.449622
0.985194 0.391198 0.447608
0.101910 0.524894 0.488923
0.208502 0.530243 0.486562
0.328322 0.538344 0.489421
0.451703 0.544289 0.487977
0.575790 0.548886 0.485354
0.699325 0.553564 0.483346
0.815616 0.554556 0.483360
0.923356 0.551598 0.483395
0.993979 0.538866 0.479956
0.166322 0.662273 0.507526
0.263303 0.666402 0.508288
0.375229 0.670965 0.510942
0.481233 0.674871 0.507918
0.599292 0.675299 0.510264
0.714120 0.678765 0.511348
0.827171 0.681036 0.514321
0.931234 0.680733 0.517559
1.000000 0.674208 0.516624
0.210314 0.785720 0.522318
0.324328 0.787184 0.533891
0.412986 0.789658 0.532407
0.517873 0.789072 0.538098
0.619691 0.789522 0.535592
0.727339 0.794068 0.536502
0.831761 0.794822 0.541514
0.932241 0.794822 0.545595
1.000000 0.789045 0.546117
0.307378 0.889190 0.553398
0.366660 0.894506 0.539248
0.465429 0.890394 0.551701
0.558032 0.890767 0.551183
0.656153 0.894452 0.555809
0.753149 0.894545 0.559633
0.846815 0.898669 0.563329
0.937994 0.901171 0.571058
1.000000 0.903612 0.579280
0.341311 0.995468 0.528551
0.404845 0.996168 0.513936
0.474180 0.999667 0.516485
0.596425 0.996254 0.538991
0.689749 0.999204 0.532259
0.781410 1.000000 0.541880
0.869346 1.000000 0.536685
0.950936 1.000000 0.557936
1.000000 1.000000 0.581502
0.000000 0.007132 0.548410
0.089687 0.007530 0.543246
0.212715 0.019493 0.537485
0.340201 0.028487 0.534494
0.466744 0.039209 0.530378
0.588267 0.049905 0.517842
0.708136 0.060914 0.510850
0.826667 0.080515 0.506773
0.946986 0.083840 0.520035
0.018054 0.126221 0.552710
0.111261 0.126557 0.544100
0.226227 0.129970 0.539723
0.358543 0.143385 0.535788
0.483064 0.148808 0.526325
0.605664 0.152033 0.516449
0.727206 0.156436 0.515912
0.846424 0.169324 0.519261
0.962975 0.180931 0.523377
0.050751 0.252126 0.561098
0.144955 0.254943 0.559405
0.258255 0.260392 0.557383
0.388686 0.270607 0.556343
0.518855 0.277614 0.551612
0.639945 0.276513 0.540755
0.757767 0.274269 0.532323
0.869133 0.278932 0.526126
0.979540 0.285987 0.527560
0.082301 0.388694 0.578318
0.181810 0.394557 0.578322
0.293948 0.399938 0.573955
0.417637 0.406623 0.570378
0.553154 0.419849 0.569184
0.675342 0.421963 0.563047
0.794083 0.419053 0.560565
0.904710 0.412782 0.555463
0.986280 0.399360 0.551704
0.114319 0.529026 0.596130
0.217987 0.533350 0.593434
0.333993 0.540713 0.592065
0.455984 0.547588 0.593423
0.580443 0.553197 0.590406
0.705165 0.560939 0.592992
0.818081 0.560559 0.593349
0.924194 0.555630 0.590119
0.994706 0.540937 0.583205
0.173443 0.661984 0.613250
0.260828 0.666742 0.613238
0.374085 0.671367 0.615554
0.486489 0.677867 0.618631
0.601356 0.681293 0.619786
0.714799 0.683411 0.619907
0.824343 0.685174 0.622092
0.927003 0.685531 0.624025
1.000000 0.679074 0.622923
0.205592 0.787400 0.631265
0.319734 0.788695 0.644179
0.403115 0.791859 0.641810
0.519481 0.795610 0.648157
0.614107 0.795229 0.642088
0.722184 0.793759 0.645078
0.827370 0.796746 0.649079
0.927340 0.795888 0.650586
1.000000 0.789349 0.650696
0.301274 0.889725 0.667555
0.358309 0.895990 0.657314
0.463729 0.896259 0.671775
0.551458 0.897509 0.667658
0.646206 0.895774 0.668208
0.744417 0.896645 0.672314
0.839791 0.902435 0.675275
0.930978 0.902309 0.676172
1.000000 0.902786 0.679178
0.341117 0.997227 0.647277
0.442357 0.995163 0.656023
0.477315 1.000000 0.636883
0.594282 0.998371 0.656373
0.692503 1.000000 0.656569
0.772406 1.000000 0.657066
0.861067 1.000000 0.660426
0.948220 1.000000 0.668386
1.000000 1.000000 0.677754
0.006664 0.013232 0.653295
0.106747 0.013849 0.647024
0.223939 0.024490 0.640352
0.352830 0.037771 0.636834
0.476676 0.050780 0.631794
0.602577 0.064971 0.626801
0.717340 0.076753 0.617307
0.827668 0.096490 0.607877
0.938522 0.118432 0.603425
0.038391 0.131609 0.648045
0.130402 0.131780 0.639014
0.237492 0.134454 0.635975
0.371009 0.150859 0.635886
0.496100 0.159920 0.628188
0.620385 0.169218 0.621452
0.733766 0.179526 0.610869
0.846863 0.190957 0.610894
0.963484 0.199774 0.618846
0.069364 0.256848 0.664029
0.162285 0.258787 0.658398
0.270094 0.263358 0.654008
0.394065 0.271747 0.650121
0.529356 0.284626 0.650200
0.653630 0.288661 0.642952
0.765056 0.288050 0.633425
0.872240 0.291027 0.628222
0.980907 0.299462 0.626866
0.098378 0.393387 0.679354
0.195274 0.398003 0.675308
0.305782 0.404491 0.672018
0.427711 0.411530 0.670378
0.561243 0.423345 0.667838
0.688372 0.431573 0.664227
0.798613 0.428292 0.657804
0.903532 0.418651 0.653089
0.987352 0.407903 0.649514
0.137386 0.533809 0.694967
0.232423 0.538343 0.696119
0.344679 0.545003 0.692038
0.459765 0.549444 0.691175
0.586033 0.556725 0.691296
0.712624 0.567802 0.695686
0.820045 0.568085 0.692528
0.923018 0.564261 0.688892
0.995737 0.548781 0.680928
0.187886 0.664761 0.713557
0.269652 0.668475 0.712290
0.377440 0.673355 0.716040
0.489527 0.679155 0.718956
0.598037 0.679373 0.716150
0.714921 0.685258 0.719340
0.826718 0.690962 0.726515
0.927084 0.689249 0.727462
1.000000 0.681067 0.722886
0.220527 0.785538 0.733734
0.319888 0.786756 0.739592
0.402368 0.790855 0.740107
0.519662 0.793476 0.745902
0.617909 0.796739 0.748610
0.723152 0.798733 0.750003
0.825665 0.799404 0.751612
0.924920 0.798275 0.753239
1.000000 0.797592 0.755379
0.298762 0.890546 0.773514
0.360688 0.897263 0.764594
0.460422 0.897169 0.774849
0.541792 0.899248 0.770647
0.647944 0.903709 0.774926
0.735484 0.901727 0.771972
0.831007 0.901006 0.774012
0.925578 0.903941 0.774931
1.000000 0.904234 0.779228
0.326526 0.999503 0.756677
0.412462 1.000000 0.758538
0.469906 1.000000 0.752730
0.586310 1.000000 0.766293
0.666421 1.000000 0.760083
0.760513 1.000000 0.769335
0.863774 1.000000 0.779992
0.946678 1.000000 0.787092
1.000000 1.000000 0.788731
0.027935 0.019810 0.755957
0.129915 0.021191 0.749782
0.241181 0.030508 0.743240
0.370177 0.048241 0.741239
0.491397 0.061135 0.735773
0.615648 0.076769 0.728584
0.735147 0.092469 0.722941
0.839450 0.106763 0.714544
0.951728 0.113212 0.715209
0.074630 0.139286 0.734693
0.160576 0.141756 0.730039
0.257821 0.144534 0.726585
0.383989 0.159333 0.727212
0.511085 0.173294 0.726147
0.634610 0.184548 0.721443
0.752524 0.199275 0.715238
0.855617 0.212517 0.706050
0.964687 0.220663 0.708396
0.108899 0.265980 0.747429
0.192276 0.267745 0.748702
0.293509 0.271966 0.745193
0.407997 0.277406 0.736728
0.543570 0.295530 0.737278
0.665238 0.299662 0.735363
0.780224 0.305857 0.730542
0.881204 0.305750 0.724326
0.982091 0.310023 0.723655
0.130309 0.403508 0.770543
0.226441 0.406876 0.770794
0.331465 0.412919 0.762970
0.444596 0.419436 0.758705
0.570899 0.426879 0.760793
0.700003 0.438647 0.759072
0.809702 0.437749 0.754036
0.908142 0.431439 0.742872
0.988504 0.418716 0.738321
0.178798 0.542963 0.788927
0.264784 0.546630 0.789959
0.363151 0.549582 0.784851
0.476138 0.556208 0.785486
0.593583 0.559651 0.785394
0.716438 0.570905 0.786160
0.828530 0.578272 0.787418
0.923863 0.575310 0.777906
0.996555 0.554077 0.767700
0.196290 0.669743 0.810285
0.291216 0.673195 0.808361
0.389142 0.676759 0.812113
0.501864 0.682711 0.811491
0.605811 0.682875 0.812239
0.717437 0.686249 0.814431
0.831032 0.696344 0.821427
0.926697 0.692227 0.819477
1.000000 0.684811 0.811417
0.248752 0.786083 0.831354
0.318832 0.788637 0.834241
0.416217 0.791769 0.833524
0.521085 0.793387 0.839262
0.619774 0.797096 0.841012
0.719947 0.795917 0.841535
0.824035 0.799157 0.845428
0.926348 0.804667 0.851459
1.000000 0.798197 0.848706
0.283040 0.892410 0.857922
0.374571 0.894833 0.857971
0.461771 0.895424 0.864478
0.542285 0.899318 0.862639
0.650870 0.902096 0.868348
0.733218 0.904987 0.870669
0.836143 0.908205 0.875920
0.927472 0.908854 0.875844
1.000000 0.907475 0.874573
0.329270 0.999829 0.873519
0.379754 1.000000 0.869743
0.461529 1.000000 0.870237
0.584602 1.000000 0.881488
0.653309 1.000000 0.878774
0.754371 1.000000 0.886141
0.838973 1.000000 0.883043
0.935038 1.000000 0.888559
1.000000 1.000000 0.890894
0.051536 0.029281 0.853074
0.153219 0.030637 0.849773
0.260816 0.037976 0.846857
0.384455 0.053897 0.845029
0.505925 0.068798 0.840799
0.626651 0.083484 0.834255
0.743101 0.098478 0.827930
0.855031 0.116168 0.821348
0.959087 0.121534 0.816425
0.102912 0.151175 0.832557
0.187064 0.152714 0.827766
0.282883 0.157925 0.817879
0.400587 0.172401 0.815183
0.526014 0.188079 0.812729
0.646931 0.204505 0.806118
0.760808 0.216219 0.805576
0.871485 0.225742 0.809408
0.972246 0.233603 0.804240
0.133973 0.276464 0.847201
0.228430 0.278410 0.839776
0.320123 0.282741 0.833772
0.426754 0.283661 0.833785
0.555544 0.298582 0.828377
0.675307 0.307626 0.826371
0.787055 0.311396 0.825698
0.891930 0.314832 0.824596
0.983088 0.317190 0.822381
0.174623 0.413630 0.862857
0.266167 0.417297 0.857473
0.357008 0.420376 0.858371
0.469226 0.426825 0.849420
0.582009 0.429630 0.850578
0.704929 0.437471 0.850536
0.813303 0.435050 0.847541
0.914552 0.431789 0.842847
0.989622 0.429120 0.825645
0.201966 0.549542 0.889257
0.294785 0.552818 0.879381
0.387097 0.556199 0.879960
0.495843 0.560566 0.878309
0.605008 0.562389 0.881233
0.721940 0.569010 0.881215
0.830000 0.576280 0.877057
0.928614 0.572007 0.868837
0.996983 0.552475 0.856438
0.240585 0.674351 0.903288
0.320492 0.676623 0.906748
0.415626 0.679261 0.909457
0.506609 0.680690 0.910306
0.620659 0.687040 0.907425
0.723483 0.687314 0.908519
0.831020 0.693635 0.911509
0.929104 0.696405 0.906396
1.000000 0.686787 0.897571
0.270610 0.786797 0.925928
0.353718 0.789945 0.927305
0.436626 0.791941 0.931813
0.531635 0.793750 0.936525
0.628443 0.796370 0.938504
0.726634 0.796966 0.937850
0.824465 0.798560 0.940508
0.929130 0.807473 0.939043
1.000000 0.799392 0.938498
0.297371 0.894056 0.948120
0.399896 0.894154 0.947105
0.462921 0.896810 0.955147
0.552070 0.899107 0.957381
0.656045 0.901800 0.960243
0.739237 0.905577 0.964812
0.830920 0.904811 0.965839
0.922776 0.906863 0.966754
1.000000 0.908481 0.969381
0.313123 1.000000 0.967836
0.378380 1.000000 0.969802
0.471731 1.000000 0.973714
0.597316 1.000000 0.975728
0.644461 1.000000 0.980889
0.752379 1.000000 0.984806
0.841123 1.000000 0.987294
0.932893 1.000000 0.989601
1.000000 1.000000 0.990528
