working/Infinite_Arch_Leica_Looks_v1.2/looks/threshold/look.CUBE
#Created by: Infinite Arch Leica Looks v1.0
#Unique Leica Look ID: 1005
#Based Filmstyle Mode: Standard
#Source: Proven IA Threshold: Fuji Superia 400 3+ + IA split-tone shaping
TITLE "IA Threshold"
LUT_3D_SIZE 17
DOMAIN_MIN 0.0 0.0 0.0
DOMAIN_MAX 1.0 1.0 1.0
0.012000 0.085689 0.096295
0.012000 0.087493 0.096390
0.044680 0.090833 0.095115
0.102284 0.095089 0.093440
0.167799 0.097233 0.090437
0.246826 0.095752 0.086986
0.342333 0.084527 0.080909
0.449781 0.052695 0.073829
0.558341 0.016889 0.063028
0.662129 0.014406 0.045525
0.760192 0.013376 0.027473
0.834043 0.012578 0.024526
0.895435 0.012000 0.023085
0.951865 0.044491 0.019662
1.000000 0.133205 0.012830
1.000000 0.200625 0.012000
1.000000 0.263684 0.012000
0.012000 0.101188 0.100057
0.012000 0.107104 0.096841
0.047978 0.112927 0.091931
0.107079 0.114541 0.089828
0.173737 0.116589 0.086501
0.253617 0.116292 0.082709
0.348830 0.109335 0.076062
0.454570 0.090154 0.067467
0.559883 0.052813 0.056500
0.665023 0.020520 0.039323
0.759584 0.016528 0.026286
0.832876 0.019006 0.024149
0.895389 0.044623 0.021029
0.952640 0.110460 0.015479
1.000000 0.169918 0.012000
1.000000 0.224567 0.012000
1.000000 0.280489 0.012000
0.012000 0.132759 0.105779
0.012000 0.136199 0.104383
0.033948 0.147891 0.094115
0.115163 0.156789 0.083286
0.186534 0.152664 0.078860
0.267290 0.150510 0.074495
0.362975 0.147503 0.066559
0.467537 0.138529 0.055975
0.573766 0.123568 0.040771
0.681431 0.109565 0.023877
0.769354 0.107929 0.019988
0.839232 0.121084 0.017515
0.900791 0.148047 0.014335
0.956242 0.183628 0.012000
1.000000 0.224402 0.012000
1.000000 0.266286 0.012000
1.000000 0.313737 0.012000
0.012000 0.174599 0.115917
0.012000 0.175325 0.116512
0.015412 0.184663 0.108674
0.094394 0.202361 0.090723
0.202161 0.222485 0.065835
0.290021 0.215567 0.056593
0.378985 0.203682 0.049235
0.485488 0.200640 0.034045
0.598762 0.201124 0.019447
0.696526 0.202091 0.015569
0.777854 0.206893 0.013418
0.844816 0.216607 0.012000
0.904491 0.233162 0.012000
0.958963 0.256817 0.012000
1.000000 0.286020 0.012000
1.000000 0.318183 0.012000
1.000000 0.357317 0.012000
0.012000 0.225652 0.127737
0.012000 0.227138 0.129122
0.012000 0.230470 0.125893
0.068549 0.248883 0.109555
0.169774 0.277740 0.078567
0.318539 0.321497 0.021906
0.429591 0.317504 0.014886
0.525917 0.300447 0.013025
0.615189 0.285814 0.012000
0.705572 0.288046 0.012000
0.782010 0.293493 0.012000
0.846623 0.299831 0.012000
0.905535 0.311651 0.012000
0.959334 0.328421 0.012000
1.000000 0.349809 0.012000
1.000000 0.374104 0.012000
1.000000 0.404794 0.012000
0.012000 0.289884 0.139777
0.012000 0.294686 0.141660
0.012000 0.295432 0.142637
0.047060 0.314400 0.129279
0.144430 0.348310 0.098322
0.282892 0.394337 0.029325
0.471018 0.455915 0.012000
0.579267 0.446933 0.012000
0.654533 0.418157 0.012000
0.715294 0.385545 0.012000
0.779441 0.372969 0.012000
0.844605 0.377206 0.012000
0.903471 0.385633 0.012000
0.956709 0.397006 0.012000
1.000000 0.412430 0.012000
1.000000 0.430290 0.012000
1.000000 0.453865 0.012000
0.012000 0.379275 0.154283
0.012000 0.388030 0.157403
0.012000 0.385891 0.158772
0.012062 0.391780 0.153866
0.119707 0.419693 0.125510
0.248286 0.460207 0.070023
0.405488 0.506747 0.012000
0.589113 0.560646 0.012000
0.691863 0.556049 0.012000
0.751540 0.524309 0.012000
0.801236 0.490555 0.012000
0.844773 0.459094 0.012000
0.901149 0.457430 0.012000
0.955378 0.464802 0.012000
1.000000 0.475548 0.012000
1.000000 0.488932 0.012000
1.000000 0.507537 0.012000
0.012000 0.464609 0.174084
0.012000 0.472923 0.178357
0.012000 0.471061 0.179867
0.012000 0.469640 0.181677
0.105111 0.486739 0.162634
0.228570 0.519202 0.124701
0.366812 0.557629 0.050340
0.520110 0.597317 0.012000
0.681867 0.639866 0.012000
0.780343 0.641435 0.012000
0.829121 0.610773 0.012000
0.871828 0.579722 0.012000
0.911119 0.550062 0.012000
0.952923 0.531988 0.012000
1.000000 0.535222 0.012000
1.000000 0.545662 0.012000
1.000000 0.560183 0.012000
0.012000 0.540804 0.205079
0.012000 0.549130 0.211436
0.012000 0.547210 0.212959
0.012000 0.545054 0.215153
0.124629 0.548803 0.209330
0.233517 0.573276 0.184705
0.352932 0.604352 0.146193
0.483210 0.637075 0.076964
0.617051 0.668633 0.012000
0.755686 0.702218 0.012000
0.851023 0.710084 0.012000
0.893650 0.682772 0.012000
0.931530 0.655377 0.012000
0.968274 0.630098 0.012000
1.000000 0.608290 0.012000
1.000000 0.600954 0.012000
1.000000 0.610259 0.012000
0.012000 0.605465 0.248422
0.012000 0.613108 0.256681
0.012000 0.611923 0.258033
0.070140 0.609530 0.258629
0.177985 0.607179 0.259243
0.263259 0.621020 0.247312
0.360476 0.646414 0.224680
0.468217 0.673150 0.192050
0.582025 0.700175 0.141102
0.697695 0.726651 0.058275
0.815264 0.752752 0.012000
0.910037 0.769590 0.012000
0.947959 0.746114 0.012000
0.983332 0.723072 0.012000
1.000000 0.701666 0.012000
1.000000 0.682152 0.012000
1.000000 0.668485 0.012000
0.012000 0.665364 0.303865
0.061329 0.670351 0.310686
0.123202 0.668930 0.310505
0.189687 0.667053 0.310657
0.252081 0.664892 0.312260
0.314031 0.666992 0.310825
0.389214 0.687375 0.297195
0.475736 0.709855 0.278595
0.570352 0.733116 0.253352
0.669692 0.756267 0.219150
0.770211 0.779133 0.170401
0.868954 0.800176 0.093008
0.958526 0.822515 0.012000
0.994386 0.804041 0.012000
1.000000 0.783841 0.012000
1.000000 0.764834 0.012000
1.000000 0.748260 0.012000
0.221054 0.722919 0.369638
0.245402 0.724945 0.374001
0.268119 0.723564 0.373300
0.300203 0.721694 0.373317
0.339200 0.719575 0.374157
0.382883 0.717806 0.376029
0.438040 0.730111 0.371285
0.506081 0.748911 0.361200
0.582865 0.769222 0.348240
0.665559 0.789699 0.331630
0.751593 0.809949 0.309938
0.836001 0.828454 0.279808
0.917638 0.845586 0.239856
0.995764 0.867787 0.193207
1.000000 0.855235 0.115568
1.000000 0.836626 0.012391
1.000000 0.820000 0.012000
0.356897 0.774312 0.439427
0.370804 0.775919 0.443070
0.384528 0.774966 0.442795
0.405587 0.773926 0.443597
0.433015 0.772977 0.444722
0.464655 0.771947 0.446813
0.502054 0.774373 0.447674
0.553338 0.789163 0.442339
0.612721 0.805890 0.435373
0.678122 0.822701 0.425707
0.747534 0.839496 0.413546
0.818490 0.855914 0.397593
0.887725 0.870965 0.376608
0.954629 0.885057 0.350186
1.000000 0.904819 0.326222
1.000000 0.897437 0.284161
1.000000 0.882162 0.234559
0.478673 0.825177 0.515464
0.487424 0.826065 0.517844
0.496221 0.825523 0.517938
0.510362 0.824738 0.518319
0.529276 0.824050 0.519604
0.552392 0.823790 0.521397
0.578823 0.823075 0.523399
0.614398 0.831039 0.522553
0.658887 0.844267 0.519169
0.708850 0.858223 0.514292
0.762623 0.872106 0.507763
0.818594 0.885476 0.498555
0.875312 0.898675 0.487611
0.931133 0.910565 0.473327
0.985693 0.921934 0.455808
1.000000 0.938210 0.442310
1.000000 0.935625 0.422267
0.598144 0.875316 0.597320
0.604108 0.876027 0.599245
0.609458 0.875804 0.599234
0.618832 0.875389 0.599596
0.631631 0.875144 0.600599
0.648061 0.874665 0.602227
0.667391 0.874446 0.604604
0.690482 0.875967 0.606348
0.720659 0.885442 0.604521
0.756060 0.896103 0.602198
0.795036 0.907184 0.598924
0.836513 0.917812 0.594288
0.879180 0.928163 0.588168
0.922988 0.938133 0.580444
0.966884 0.947070 0.570652
1.000000 0.954928 0.557282
1.000000 0.967220 0.549414
0.710067 0.922842 0.680367
0.714070 0.923445 0.682105
0.717783 0.923141 0.682120
0.723336 0.922504 0.682436
0.732119 0.922570 0.683496
0.742805 0.922102 0.684678
0.757309 0.922593 0.687435
0.772422 0.922497 0.690156
0.791734 0.926891 0.690921
0.814076 0.934489 0.689324
0.839168 0.942492 0.687139
0.867015 0.950110 0.684307
0.896715 0.957632 0.680513
0.928236 0.964891 0.675758
0.960842 0.971626 0.669018
0.994212 0.977649 0.659859
1.000000 0.982089 0.647625
0.808813 0.963267 0.759860
0.811304 0.963777 0.761172
0.813663 0.963732 0.761709
0.818022 0.963778 0.762451
0.824129 0.963823 0.764106
0.830973 0.963817 0.765477
0.840912 0.964556 0.768439
0.851567 0.964698 0.771089
0.863644 0.966159 0.774079
0.876255 0.970252 0.773163
0.890964 0.975704 0.771697
0.907631 0.980690 0.769684
0.926395 0.985844 0.766900
0.946608 0.990745 0.764072
0.968590 0.995283 0.759744
0.992063 0.999585 0.754541
1.000000 1.000000 0.748310
0.012000 0.086903 0.112813
0.012000 0.089250 0.112201
0.039963 0.089569 0.113510
0.100936 0.090698 0.112419
0.168220 0.096463 0.113091
0.248560 0.098519 0.112725
0.344533 0.088506 0.109645
0.451936 0.057629 0.104954
0.559672 0.018021 0.097624
0.666272 0.014241 0.082982
0.759682 0.013275 0.062697
0.831083 0.012567 0.039515
0.892352 0.012000 0.025804
0.949144 0.045485 0.019811
1.000000 0.133205 0.012871
1.000000 0.199352 0.012000
1.000000 0.262166 0.012000
0.012000 0.105536 0.114539
0.012000 0.109315 0.116281
0.047822 0.112532 0.114605
0.107103 0.116048 0.113779
0.174840 0.119168 0.112365
0.255763 0.119343 0.109994
0.351430 0.112523 0.105728
0.456175 0.092971 0.099625
0.561730 0.056166 0.091077
0.668663 0.021507 0.076605
0.759361 0.016873 0.054973
0.831004 0.019628 0.032824
0.893294 0.046577 0.022261
0.950498 0.111015 0.015502
1.000000 0.169548 0.012000
1.000000 0.224230 0.012000
1.000000 0.280017 0.012000
0.012000 0.139793 0.123779
0.012000 0.141642 0.124615
0.042027 0.149386 0.118539
0.116116 0.153731 0.110489
0.187875 0.152341 0.106751
0.269834 0.152486 0.103353
0.365948 0.149579 0.097629
0.470265 0.140147 0.089464
0.579098 0.125009 0.076397
0.684242 0.111493 0.056637
0.769170 0.109459 0.033958
0.837846 0.122335 0.020011
0.899496 0.148878 0.014447
0.954910 0.183943 0.012000
1.000000 0.223945 0.012000
1.000000 0.265969 0.012000
1.000000 0.312990 0.012000
0.012000 0.183060 0.135125
0.012000 0.183411 0.135564
0.033600 0.187317 0.131983
0.102617 0.203861 0.117773
0.203142 0.218918 0.099560
0.289565 0.211073 0.090732
0.382001 0.202813 0.082149
0.492428 0.202475 0.067926
0.603220 0.202321 0.047782
0.698158 0.202603 0.026561
0.777607 0.206760 0.015404
0.843415 0.216252 0.012000
0.903505 0.233194 0.012000
0.958251 0.256887 0.012000
1.000000 0.286059 0.012000
1.000000 0.317871 0.012000
1.000000 0.356989 0.012000
0.012000 0.234420 0.146025
0.012000 0.235506 0.147311
0.031153 0.235455 0.146335
0.083162 0.251092 0.134226
0.177798 0.278862 0.108997
0.321391 0.318876 0.060509
0.429488 0.312057 0.037732
0.525294 0.294603 0.025785
0.617842 0.284804 0.015373
0.706761 0.287785 0.012000
0.782008 0.292666 0.012000
0.845892 0.299117 0.012000
0.904906 0.311318 0.012000
0.958787 0.328207 0.012000
1.000000 0.349448 0.012000
1.000000 0.373540 0.012000
1.000000 0.404979 0.012000
0.012000 0.299819 0.157771
0.012000 0.304691 0.160218
0.012000 0.304598 0.161452
0.072616 0.318004 0.153823
0.157448 0.350733 0.128916
0.290706 0.395936 0.077988
0.473592 0.453195 0.012000
0.576315 0.440010 0.012000
0.651017 0.410327 0.012000
0.712154 0.378755 0.012000
0.780309 0.372254 0.012000
0.844811 0.376855 0.012000
0.903561 0.385295 0.012000
0.956572 0.396849 0.012000
1.000000 0.411848 0.012000
1.000000 0.429662 0.012000
1.000000 0.453612 0.012000
0.012000 0.388132 0.173813
0.012000 0.396257 0.177731
0.012000 0.394412 0.179129
0.049698 0.395731 0.177024
0.139333 0.421687 0.155171
0.258319 0.461051 0.114046
0.411278 0.506911 0.028402
0.591184 0.559167 0.012000
0.689024 0.550495 0.012000
0.748439 0.518544 0.012000
0.797391 0.483444 0.012000
0.843248 0.455360 0.012000
0.901632 0.456891 0.012000
0.955619 0.464464 0.012000
1.000000 0.475156 0.012000
1.000000 0.488363 0.012000
1.000000 0.507905 0.012000
0.012000 0.472216 0.195305
0.012000 0.480121 0.199928
0.012000 0.478571 0.201421
0.023028 0.475644 0.202896
0.132914 0.488515 0.190101
0.241688 0.520252 0.159651
0.374500 0.558287 0.106070
0.524261 0.597569 0.016161
0.683546 0.639164 0.012000
0.778086 0.637665 0.012000
0.826336 0.606384 0.012000
0.869460 0.575048 0.012000
0.908938 0.545420 0.012000
0.952795 0.530489 0.012000
1.000000 0.535104 0.012000
1.000000 0.545562 0.012000
1.000000 0.560147 0.012000
0.012000 0.546373 0.226363
0.012000 0.554647 0.232718
0.012000 0.553308 0.234474
0.033683 0.550595 0.235698
0.152812 0.551192 0.233151
0.248859 0.574355 0.212910
0.361780 0.605024 0.181049
0.488137 0.637355 0.130323
0.619982 0.668508 0.042870
0.756826 0.701526 0.012000
0.849106 0.707372 0.012000
0.891326 0.679774 0.012000
0.929976 0.652316 0.012000
0.966948 0.626974 0.012000
1.000000 0.605646 0.012000
1.000000 0.600094 0.012000
1.000000 0.610451 0.012000
0.012000 0.609763 0.267983
0.012000 0.617637 0.276715
0.013409 0.616388 0.277518
0.113291 0.613916 0.277683
0.201619 0.611133 0.278569
0.278597 0.621792 0.270232
0.369870 0.646847 0.250423
0.474072 0.673549 0.222347
0.585043 0.700133 0.181547
0.699286 0.726199 0.115232
0.815974 0.752484 0.020785
0.908753 0.767717 0.012000
0.946624 0.744140 0.012000
0.982275 0.721167 0.012000
1.000000 0.699635 0.012000
1.000000 0.679601 0.012000
1.000000 0.666663 0.012000
0.043651 0.667944 0.320305
0.109679 0.673587 0.327661
0.159794 0.672172 0.327393
0.214952 0.670637 0.328101
0.271140 0.668462 0.329164
0.327935 0.668225 0.329289
0.398974 0.687797 0.317434
0.482012 0.710063 0.300940
0.574104 0.733364 0.278547
0.671804 0.756192 0.248638
0.771334 0.778845 0.208465
0.870023 0.800181 0.147308
0.958098 0.821579 0.062751
0.993579 0.802845 0.012000
1.000000 0.782641 0.012000
1.000000 0.763611 0.012000
1.000000 0.746910 0.012000
0.242274 0.724986 0.383940
0.265289 0.727414 0.388230
0.286063 0.725985 0.387546
0.316210 0.724370 0.387724
0.352987 0.722296 0.388350
0.394849 0.720438 0.390092
0.446275 0.730093 0.387099
0.512085 0.749095 0.378188
0.586823 0.769266 0.366579
0.668131 0.789598 0.351252
0.752650 0.809626 0.331799
0.836281 0.828076 0.304735
0.917726 0.845643 0.270502
0.995255 0.867522 0.231665
1.000000 0.854482 0.167542
1.000000 0.836007 0.068987
1.000000 0.819593 0.012000
0.369109 0.775924 0.450856
0.383043 0.777759 0.454311
0.396173 0.776708 0.454255
0.416556 0.775939 0.455072
0.442601 0.774436 0.456211
0.473486 0.773548 0.457846
0.509015 0.774660 0.459233
0.558370 0.789120 0.454750
0.616391 0.805788 0.448223
0.680476 0.822555 0.439397
0.749083 0.839409 0.428226
0.819108 0.855591 0.413548
0.888273 0.871002 0.394684
0.954747 0.885024 0.371036
1.000000 0.904735 0.349403
1.000000 0.896964 0.309028
1.000000 0.881776 0.262122
0.486532 0.826145 0.523757
0.495558 0.827235 0.526264
0.503989 0.826605 0.526220
0.517820 0.825906 0.526920
0.536147 0.825176 0.528044
0.558483 0.824777 0.529418
0.584537 0.824247 0.531600
0.618613 0.830984 0.531519
0.662146 0.844197 0.528185
0.711138 0.858018 0.523647
0.764145 0.871905 0.517548
0.819771 0.885427 0.509334
0.875990 0.898648 0.498876
0.931321 0.910629 0.485959
0.985557 0.921855 0.469692
1.000000 0.938209 0.457710
1.000000 0.935447 0.437545
0.602801 0.876022 0.602825
0.608974 0.876832 0.605036
0.614292 0.876458 0.604979
0.623653 0.876238 0.605508
0.636157 0.875807 0.606447
0.652336 0.875611 0.608050
0.671278 0.875173 0.610091
0.693596 0.876131 0.611977
0.723153 0.885167 0.610621
0.758007 0.895969 0.608390
0.796553 0.906830 0.605313
0.837316 0.917514 0.600979
0.880005 0.928092 0.595201
0.923474 0.937978 0.588273
0.967099 0.947148 0.579177
1.000000 0.954871 0.566467
1.000000 0.967416 0.559731
0.712635 0.923138 0.683729
0.716720 0.923570 0.685289
0.720191 0.923162 0.685577
0.726131 0.923035 0.686191
0.734461 0.922768 0.686943
0.745753 0.922782 0.688642
0.759131 0.922843 0.690988
0.774640 0.922796 0.693652
0.793122 0.926694 0.694491
0.815238 0.934205 0.693088
0.840147 0.941964 0.691112
0.867758 0.949906 0.688397
0.897380 0.957599 0.684776
0.928626 0.964766 0.680161
0.961105 0.971682 0.673893
0.994137 0.977299 0.664964
1.000000 0.982344 0.653722
0.810126 0.963631 0.762042
0.812239 0.963758 0.763285
0.814967 0.963986 0.763652
0.819344 0.963963 0.764762
0.825168 0.964229 0.765980
0.832884 0.964472 0.767999
0.842174 0.964735 0.770272
0.852539 0.964858 0.773131
0.864417 0.965821 0.775999
0.877155 0.970261 0.775364
0.891851 0.975295 0.773804
0.908301 0.980401 0.771966
0.926867 0.985842 0.769423
0.946918 0.990675 0.766307
0.969000 0.995150 0.762497
0.992030 0.999307 0.757251
1.000000 1.000000 0.751377
0.012000 0.088855 0.144428
0.012000 0.091036 0.143988
0.041921 0.094014 0.142102
0.091068 0.096884 0.142687
0.161167 0.096833 0.143641
0.248007 0.087902 0.142327
0.348573 0.074860 0.143148
0.458093 0.054047 0.145346
0.565733 0.019362 0.143502
0.674769 0.013981 0.135410
0.763112 0.013054 0.123252
0.832763 0.012348 0.108196
0.893764 0.012146 0.089040
0.950447 0.058809 0.062381
1.000000 0.141514 0.034744
1.000000 0.206113 0.018060
1.000000 0.267867 0.012000
0.012000 0.108072 0.148783
0.012000 0.112596 0.148714
0.045607 0.117346 0.146106
0.100197 0.120140 0.146312
0.173113 0.119787 0.146161
0.258775 0.118649 0.145923
0.357078 0.113391 0.145187
0.462506 0.097702 0.143135
0.570033 0.060456 0.138011
0.676298 0.023149 0.130886
0.763398 0.018064 0.118006
0.833128 0.022075 0.101483
0.894971 0.057131 0.078542
0.951679 0.119481 0.050235
1.000000 0.175525 0.027016
1.000000 0.229410 0.013394
1.000000 0.284943 0.012000
0.012000 0.145151 0.149454
0.012000 0.148122 0.152051
0.051817 0.152219 0.152452
0.116044 0.155154 0.149587
0.189978 0.156612 0.147669
0.274678 0.157687 0.145417
0.372276 0.154099 0.141448
0.477071 0.143575 0.135704
0.588953 0.128186 0.127833
0.690307 0.115004 0.117023
0.772145 0.113302 0.101865
0.840021 0.126845 0.082482
0.900899 0.153856 0.057650
0.956072 0.188996 0.033366
1.000000 0.228413 0.016709
1.000000 0.270068 0.012000
1.000000 0.317515 0.012000
0.012000 0.190181 0.160157
0.025406 0.193582 0.162589
0.059380 0.194713 0.163054
0.114566 0.205523 0.154347
0.205784 0.213353 0.142298
0.292370 0.207299 0.134872
0.390612 0.205421 0.128761
0.502924 0.205944 0.120843
0.610124 0.204379 0.109301
0.702942 0.204297 0.093841
0.780299 0.208538 0.074351
0.845454 0.218159 0.052088
0.905103 0.235783 0.030518
0.959378 0.259965 0.015337
1.000000 0.289077 0.012000
1.000000 0.320978 0.012000
1.000000 0.360312 0.012000
0.012000 0.246179 0.176036
0.027067 0.248646 0.176002
0.062384 0.247109 0.175288
0.105068 0.254671 0.169643
0.191016 0.282133 0.151249
0.326233 0.313191 0.122548
0.430825 0.302517 0.105969
0.527551 0.287882 0.091451
0.624444 0.286375 0.073337
0.710694 0.289000 0.052202
0.784406 0.293455 0.032990
0.847503 0.300329 0.018562
0.906236 0.312669 0.012000
0.959948 0.330221 0.012000
1.000000 0.351287 0.012000
1.000000 0.375832 0.012000
1.000000 0.407254 0.012000
0.012000 0.316037 0.188704
0.012000 0.321467 0.190756
0.049117 0.321392 0.191563
0.106984 0.325788 0.190648
0.178181 0.355254 0.173825
0.303946 0.398466 0.139457
0.477645 0.448496 0.066163
0.572632 0.428447 0.033520
0.646440 0.397407 0.019233
0.712176 0.372866 0.012000
0.783391 0.373151 0.012000
0.846822 0.377752 0.012000
0.905068 0.386165 0.012000
0.957868 0.398029 0.012000
1.000000 0.412935 0.012000
1.000000 0.431448 0.012000
1.000000 0.455263 0.012000
0.012000 0.402828 0.206780
0.012000 0.411047 0.211460
0.012000 0.408873 0.211925
0.096342 0.406729 0.212401
0.169647 0.425355 0.199883
0.274677 0.463713 0.170884
0.421277 0.508167 0.117183
0.594909 0.556381 0.018856
0.685273 0.542022 0.012000
0.744745 0.508829 0.012000
0.793173 0.473202 0.012000
0.844865 0.453816 0.012000
0.903951 0.457856 0.012000
0.956974 0.465531 0.012000
1.000000 0.475840 0.012000
1.000000 0.489571 0.012000
1.000000 0.509177 0.012000
0.012000 0.484810 0.230023
0.012000 0.492548 0.235482
0.012000 0.490642 0.236519
0.080395 0.486970 0.236537
0.170954 0.491627 0.232050
0.262552 0.521699 0.209510
0.385992 0.559464 0.173500
0.531168 0.597763 0.110661
0.686338 0.637475 0.014562
0.774873 0.631398 0.012000
0.823162 0.599617 0.012000
0.866299 0.567683 0.012000
0.906695 0.538840 0.012000
0.953519 0.529611 0.012000
1.000000 0.535654 0.012000
1.000000 0.546111 0.012000
1.000000 0.560874 0.012000
0.012000 0.556265 0.261146
0.012000 0.564268 0.268371
0.012000 0.562738 0.269266
0.101745 0.559766 0.269111
0.192490 0.557056 0.269285
0.273019 0.575152 0.256351
0.375715 0.605682 0.232052
0.495931 0.637361 0.196384
0.624322 0.668187 0.139489
0.759283 0.700888 0.045654
0.846350 0.703122 0.012000
0.888704 0.675271 0.012000
0.928056 0.647733 0.012000
0.965187 0.622093 0.012000
1.000000 0.602218 0.012000
1.000000 0.600182 0.012000
1.000000 0.610831 0.012000
0.012000 0.617090 0.300475
0.022073 0.624679 0.309197
0.088554 0.623221 0.309038
0.168884 0.621016 0.309180
0.237508 0.618207 0.310136
0.302991 0.622806 0.306426
0.385405 0.647043 0.290803
0.482973 0.673585 0.268477
0.590262 0.700059 0.237516
0.702404 0.725994 0.193781
0.818196 0.752344 0.122435
0.906813 0.764834 0.033342
0.944795 0.741283 0.012000
0.980761 0.718210 0.012000
1.000000 0.696275 0.012000
1.000000 0.676271 0.012000
1.000000 0.664762 0.012000
0.121706 0.673353 0.348399
0.171640 0.678606 0.355472
0.207103 0.677485 0.355628
0.251258 0.675885 0.356023
0.299994 0.673527 0.357112
0.350456 0.671357 0.358184
0.413718 0.687817 0.349705
0.491845 0.710206 0.336188
0.580142 0.733159 0.317790
0.675252 0.756092 0.293975
0.773281 0.778673 0.263122
0.871366 0.800221 0.221520
0.956954 0.820255 0.166143
0.992310 0.800991 0.080723
1.000000 0.780647 0.012000
1.000000 0.761404 0.012000
1.000000 0.744825 0.012000
0.275369 0.728729 0.407366
0.295299 0.730935 0.411306
0.313417 0.729513 0.410863
0.340621 0.728057 0.411157
0.374869 0.726175 0.412006
0.414063 0.724479 0.413911
0.459682 0.730152 0.412660
0.521625 0.748978 0.405238
0.593366 0.769090 0.395701
0.672294 0.789438 0.383326
0.755195 0.809542 0.367000
0.837384 0.827965 0.345012
0.918281 0.845917 0.317744
0.994448 0.867078 0.287862
1.000000 0.853395 0.233494
1.000000 0.834953 0.162113
1.000000 0.818457 0.067519
0.389401 0.778556 0.469322
0.402430 0.780214 0.472800
0.414655 0.779315 0.472858
0.433798 0.778601 0.473662
0.458502 0.777282 0.474629
0.487821 0.776430 0.476376
0.520762 0.776141 0.477858
0.566764 0.789002 0.474688
0.622354 0.805239 0.469265
0.684738 0.822217 0.461881
0.751682 0.839283 0.452311
0.820571 0.855516 0.439975
0.888838 0.870757 0.424142
0.954934 0.885309 0.404607
1.000000 0.904497 0.386925
1.000000 0.896106 0.348538
1.000000 0.881133 0.304515
0.499596 0.827906 0.537541
0.508135 0.828967 0.540111
0.516312 0.828425 0.540021
0.529454 0.827657 0.540515
0.547146 0.827046 0.541630
0.568505 0.826291 0.542811
0.593785 0.825967 0.544995
0.625343 0.830549 0.545606
0.667313 0.843840 0.543006
0.714956 0.857652 0.539147
0.766855 0.871545 0.533756
0.821437 0.885341 0.527095
0.877014 0.898467 0.517984
0.931820 0.910693 0.506958
0.985527 0.921962 0.492934
1.000000 0.938337 0.483112
1.000000 0.934872 0.463014
0.610615 0.877069 0.612373
0.616433 0.877635 0.614179
0.622065 0.877457 0.614181
0.630763 0.877174 0.614746
0.643264 0.876921 0.615943
0.658883 0.876459 0.617161
0.677359 0.876131 0.619133
0.698529 0.876428 0.621116
0.727109 0.884758 0.620550
0.761244 0.895585 0.618926
0.798919 0.906475 0.616052
0.839148 0.917305 0.612507
0.881094 0.927782 0.607489
0.924147 0.938049 0.601348
0.967263 0.947101 0.593431
1.000000 0.955042 0.582255
1.000000 0.967559 0.576701
0.716816 0.923227 0.689629
0.720899 0.924020 0.691440
0.724351 0.923787 0.691385
0.730118 0.923431 0.691916
0.738546 0.923379 0.692835
0.749511 0.923180 0.694487
0.762555 0.923203 0.696495
0.777776 0.923237 0.699050
0.795709 0.926124 0.700613
0.817327 0.933801 0.699578
0.842131 0.941658 0.697789
0.869115 0.949546 0.695564
0.898514 0.957284 0.692242
0.929466 0.964728 0.688107
0.961606 0.971607 0.682523
0.994237 0.977280 0.674053
1.000000 0.982455 0.663668
0.812118 0.963728 0.765544
0.814684 0.964129 0.766549
0.817292 0.964108 0.767294
0.821311 0.964049 0.767849
0.827091 0.964307 0.769529
0.834479 0.964386 0.771110
0.843620 0.964728 0.773159
0.854256 0.964915 0.776320
0.865991 0.965714 0.779073
0.878414 0.969946 0.779016
0.892978 0.974990 0.777677
0.909296 0.980325 0.775765
0.927678 0.985596 0.773440
0.947833 0.990513 0.770674
0.969348 0.995121 0.766986
0.992344 0.999046 0.762022
1.000000 1.000000 0.756496
0.012000 0.091290 0.188224
0.012862 0.093338 0.188077
0.053584 0.097903 0.184508
0.098987 0.103661 0.182797
0.155186 0.105919 0.183665
0.237981 0.103981 0.188336
0.342741 0.078474 0.191192
0.456717 0.022449 0.188451
0.572354 0.014951 0.184406
0.682605 0.013723 0.189428
0.767788 0.012795 0.191688
0.835291 0.012098 0.184080
