working/Infinite_Arch_Leica_Looks_v1.2/looks/threshold/look.CUBE
#Created by: Infinite Arch Leica Looks v1.0
#Unique Leica Look ID: 1005
#Based Filmstyle Mode: Standard
#Source: Proven IA Threshold: Fuji Superia 400 3+ + IA split-tone shaping
TITLE "IA Threshold"
LUT_3D_SIZE 9
DOMAIN_MIN 0.0 0.0 0.0
DOMAIN_MAX 1.0 1.0 1.0
0.012000 0.085689 0.096295
0.044680 0.090833 0.095115
0.167799 0.097233 0.090437
0.342333 0.084527 0.080909
0.558341 0.016889 0.063028
0.760192 0.013376 0.027473
0.895435 0.012000 0.023085
1.000000 0.133205 0.012830
1.000000 0.263684 0.012000
0.012000 0.132759 0.105779
0.033948 0.147891 0.094115
0.186534 0.152664 0.078860
0.362975 0.147503 0.066559
0.573766 0.123568 0.040771
0.769354 0.107929 0.019988
0.900791 0.148047 0.014335
1.000000 0.224402 0.012000
1.000000 0.313737 0.012000
0.012000 0.225652 0.127737
0.012000 0.230470 0.125893
0.169774 0.277740 0.078567
0.429591 0.317504 0.014886
0.615189 0.285814 0.012000
0.782010 0.293493 0.012000
0.905535 0.311651 0.012000
1.000000 0.349809 0.012000
1.000000 0.404794 0.012000
0.012000 0.379275 0.154283
0.012000 0.385891 0.158772
0.119707 0.419693 0.125510
0.405488 0.506747 0.012000
0.691863 0.556049 0.012000
0.801236 0.490555 0.012000
0.901149 0.457430 0.012000
1.000000 0.475548 0.012000
1.000000 0.507537 0.012000
0.012000 0.540804 0.205079
0.012000 0.547210 0.212959
0.124629 0.548803 0.209330
0.352932 0.604352 0.146193
0.617051 0.668633 0.012000
0.851023 0.710084 0.012000
0.931530 0.655377 0.012000
1.000000 0.608290 0.012000
1.000000 0.610259 0.012000
0.012000 0.665364 0.303865
0.123202 0.668930 0.310505
0.252081 0.664892 0.312260
0.389214 0.687375 0.297195
0.570352 0.733116 0.253352
0.770211 0.779133 0.170401
0.958526 0.822515 0.012000
1.000000 0.783841 0.012000
1.000000 0.748260 0.012000
0.356897 0.774312 0.439427
0.384528 0.774966 0.442795
0.433015 0.772977 0.444722
0.502054 0.774373 0.447674
0.612721 0.805890 0.435373
0.747534 0.839496 0.413546
0.887725 0.870965 0.376608
1.000000 0.904819 0.326222
1.000000 0.882162 0.234559
0.598144 0.875316 0.597320
0.609458 0.875804 0.599234
0.631631 0.875144 0.600599
0.667391 0.874446 0.604604
0.720659 0.885442 0.604521
0.795036 0.907184 0.598924
0.879180 0.928163 0.588168
0.966884 0.947070 0.570652
1.000000 0.967220 0.549414
0.808813 0.963267 0.759860
0.813663 0.963732 0.761709
0.824129 0.963823 0.764106
0.840912 0.964556 0.768439
0.863644 0.966159 0.774079
0.890964 0.975704 0.771697
0.926395 0.985844 0.766900
0.968590 0.995283 0.759744
1.000000 1.000000 0.748310
0.012000 0.088855 0.144428
0.041921 0.094014 0.142102
0.161167 0.096833 0.143641
0.348573 0.074860 0.143148
0.565733 0.019362 0.143502
0.763112 0.013054 0.123252
0.893764 0.012146 0.089040
1.000000 0.141514 0.034744
1.000000 0.267867 0.012000
0.012000 0.145151 0.149454
0.051817 0.152219 0.152452
0.189978 0.156612 0.147669
0.372276 0.154099 0.141448
0.588953 0.128186 0.127833
0.772145 0.113302 0.101865
0.900899 0.153856 0.057650
1.000000 0.228413 0.016709
1.000000 0.317515 0.012000
0.012000 0.246179 0.176036
0.062384 0.247109 0.175288
0.191016 0.282133 0.151249
0.430825 0.302517 0.105969
0.624444 0.286375 0.073337
0.784406 0.293455 0.032990
0.906236 0.312669 0.012000
1.000000 0.351287 0.012000
1.000000 0.407254 0.012000
0.012000 0.402828 0.206780
0.012000 0.408873 0.211925
0.169647 0.425355 0.199883
0.421277 0.508167 0.117183
0.685273 0.542022 0.012000
0.793173 0.473202 0.012000
0.903951 0.457856 0.012000
1.000000 0.475840 0.012000
1.000000 0.509177 0.012000
0.012000 0.556265 0.261146
0.012000 0.562738 0.269266
0.192490 0.557056 0.269285
0.375715 0.605682 0.232052
0.624322 0.668187 0.139489
0.846350 0.703122 0.012000
0.928056 0.647733 0.012000
1.000000 0.602218 0.012000
1.000000 0.610831 0.012000
0.121706 0.673353 0.348399
0.207103 0.677485 0.355628
0.299994 0.673527 0.357112
0.413718 0.687817 0.349705
0.580142 0.733159 0.317790
0.773281 0.778673 0.263122
0.956954 0.820255 0.166143
1.000000 0.780647 0.012000
1.000000 0.744825 0.012000
0.389401 0.778556 0.469322
0.414655 0.779315 0.472858
0.458502 0.777282 0.474629
0.520762 0.776141 0.477858
0.622354 0.805239 0.469265
0.751682 0.839283 0.452311
0.888838 0.870757 0.424142
1.000000 0.904497 0.386925
1.000000 0.881133 0.304515
0.610615 0.877069 0.612373
0.622065 0.877457 0.614181
0.643264 0.876921 0.615943
0.677359 0.876131 0.619133
0.727109 0.884758 0.620550
0.798919 0.906475 0.616052
0.881094 0.927782 0.607489
0.967263 0.947101 0.593431
1.000000 0.967559 0.576701
0.812118 0.963728 0.765544
0.817292 0.964108 0.767294
0.827091 0.964307 0.769529
0.843620 0.964728 0.773159
0.865991 0.965714 0.779073
0.892978 0.974990 0.777677
0.927678 0.985596 0.773440
0.969348 0.995121 0.766986
1.000000 1.000000 0.756496
0.012000 0.093658 0.245632
0.062152 0.100264 0.243177
0.172500 0.113249 0.239986
0.333869 0.102575 0.250198
0.568944 0.014923 0.258749
0.771431 0.012610 0.239186
0.899859 0.038941 0.255697
1.000000 0.194300 0.243313
1.000000 0.302422 0.235020
0.012000 0.148934 0.261356
0.066104 0.159079 0.260427
0.194441 0.172073 0.254414
0.366564 0.165111 0.261045
0.603158 0.083948 0.261023
0.780137 0.094388 0.257448
0.906044 0.196791 0.252188
1.000000 0.261256 0.233156
1.000000 0.344951 0.227299
0.012000 0.265003 0.261854
0.059058 0.273458 0.268411
0.227567 0.293091 0.280556
0.443705 0.302126 0.274967
0.641034 0.305175 0.262224
0.792222 0.310734 0.243451
0.911176 0.331949 0.225545
1.000000 0.369472 0.208863
1.000000 0.424889 0.207902
0.020374 0.437125 0.316257
0.153292 0.451936 0.330459
0.261160 0.452606 0.329213
0.450991 0.510339 0.302191
0.670755 0.507032 0.233226
0.791669 0.460616 0.188121
0.909507 0.467185 0.171256
1.000000 0.485167 0.156815
1.000000 0.518655 0.163337
0.147311 0.587762 0.380797
0.202443 0.593806 0.381043
0.300079 0.587650 0.379491
0.421564 0.605812 0.369784
0.637705 0.667291 0.332168
0.835221 0.686645 0.258469
0.919445 0.629355 0.153588
1.000000 0.598247 0.071503
1.000000 0.615559 0.076697
0.279174 0.692016 0.439089
0.324829 0.695777 0.446020
0.386189 0.691838 0.446167
0.464499 0.688574 0.445648
0.600605 0.732040 0.430042
0.779693 0.778103 0.404096
0.950686 0.813519 0.358728
1.000000 0.772720 0.250561
1.000000 0.735149 0.112671
0.453328 0.788147 0.530009
0.474081 0.788928 0.533010
0.510080 0.787031 0.533961
0.562141 0.784450 0.535927
0.643045 0.803399 0.533782
0.761058 0.837899 0.525355
0.891311 0.870814 0.510942
1.000000 0.903478 0.490098
1.000000 0.878264 0.416383
0.637535 0.880822 0.644404
0.647831 0.881398 0.646265
0.667464 0.880571 0.647454
0.697954 0.879648 0.649675
0.740556 0.882867 0.652839
0.806788 0.904980 0.651109
0.885207 0.927233 0.646880
0.968318 0.947151 0.639017
1.000000 0.968142 0.629442
0.819861 0.965115 0.777906
0.824855 0.965461 0.779398
0.834325 0.965409 0.781312
0.850006 0.965886 0.784832
0.871235 0.966448 0.789963
0.897173 0.974168 0.790605
0.930736 0.984920 0.787908
0.971274 0.994767 0.782829
1.000000 1.000000 0.774114
0.012000 0.100370 0.420447
0.040385 0.104432 0.421838
0.214648 0.114447 0.418421
0.372677 0.118464 0.418266
0.557015 0.066339 0.432269
0.749367 0.014342 0.443284
0.894937 0.012000 0.423441
1.000000 0.012828 0.398237
1.000000 0.311016 0.423716
0.012000 0.161150 0.438214
0.040673 0.165827 0.439490
0.233629 0.176440 0.434248
0.399738 0.189659 0.434539
0.583902 0.176059 0.444092
0.765546 0.145133 0.445310
0.903888 0.108519 0.423788
1.000000 0.197476 0.404034
1.000000 0.395930 0.444105
0.012000 0.266565 0.452587
0.012000 0.274681 0.465927
0.251275 0.303679 0.471934
0.449917 0.335554 0.468715
0.625708 0.338702 0.466549
0.790111 0.321827 0.447819
0.914496 0.342765 0.431764
1.000000 0.423459 0.443852
1.000000 0.478318 0.448612
0.012000 0.465345 0.458703
0.012000 0.481117 0.473369
0.275916 0.492946 0.481394
0.479236 0.507538 0.490959
0.657961 0.502868 0.469293
0.794908 0.501304 0.450821
0.909181 0.506764 0.434359
1.000000 0.520415 0.420833
1.000000 0.550213 0.422860
0.230324 0.612552 0.497479
0.312567 0.621966 0.510759
0.423052 0.625421 0.522335
0.504503 0.621099 0.518988
0.654970 0.665151 0.508209
0.812042 0.656311 0.453601
0.906874 0.611914 0.389897
1.000000 0.614863 0.377458
1.000000 0.632056 0.383326
0.437114 0.714664 0.561213
0.474856 0.720337 0.570578
0.497568 0.718779 0.561402
0.547049 0.711530 0.555530
0.631537 0.728724 0.551853
0.788537 0.776911 0.545864
0.937103 0.799628 0.514354
1.000000 0.757050 0.426658
1.000000 0.721461 0.344945
0.544029 0.803045 0.613276
0.554134 0.804191 0.612976
0.579608 0.802206 0.611707
0.620564 0.798643 0.611653
0.674000 0.799948 0.611376
0.774547 0.835872 0.611274
0.895415 0.870516 0.608835
1.000000 0.899836 0.597024
1.000000 0.872164 0.528214
0.675380 0.887795 0.689761
0.684677 0.888019 0.691382
0.701023 0.887104 0.691657
0.727427 0.885985 0.692599
0.762850 0.885015 0.695213
0.817864 0.902121 0.697007
0.891047 0.926129 0.697700
0.970390 0.947252 0.696242
1.000000 0.968790 0.693649
0.830422 0.966779 0.796040
0.835357 0.967437 0.797505
0.844098 0.967371 0.799103
0.858508 0.967492 0.801944
0.878607 0.968210 0.806187
0.903359 0.972624 0.809892
0.935295 0.984152 0.808417
0.974354 0.994571 0.805395
1.000000 1.000000 0.799301
0.012000 0.104274 0.616619
0.012000 0.105393 0.618738
0.241826 0.105147 0.614175
0.433997 0.117823 0.612460
0.601255 0.128466 0.615436
0.729893 0.115966 0.601003
0.875029 0.193503 0.602581
0.990926 0.251272 0.596469
1.000000 0.333100 0.589582
0.012000 0.167898 0.622635
0.012000 0.170785 0.624839
0.261228 0.176268 0.621746
0.459138 0.200885 0.623936
0.616579 0.224534 0.619956
0.743674 0.228177 0.605423
0.881747 0.284655 0.606179
0.993047 0.318214 0.597157
1.000000 0.381539 0.590753
0.012000 0.273842 0.642601
0.012000 0.295541 0.649179
0.285879 0.312389 0.644215
0.488900 0.343913 0.636590
0.638815 0.376587 0.628059
0.761080 0.386121 0.614939
0.890896 0.417654 0.613697
0.997117 0.428905 0.600679
1.000000 0.467164 0.593075
0.012000 0.454220 0.633998
0.012000 0.463629 0.644039
0.195473 0.467368 0.644641
0.493150 0.503041 0.640997
0.651296 0.533346 0.632685
0.775177 0.540491 0.626962
0.899454 0.538481 0.616469
0.999037 0.544743 0.602487
1.000000 0.592191 0.613413
0.049807 0.628869 0.621214
0.190622 0.637424 0.628038
0.371039 0.641071 0.629907
0.529620 0.647246 0.635725
0.668082 0.657830 0.642327
0.793581 0.651164 0.625042
0.902289 0.649717 0.611761
0.993780 0.653722 0.599659
1.000000 0.667085 0.595540
0.457074 0.732611 0.641614
0.496337 0.737759 0.648900
0.554464 0.738495 0.653567
0.630860 0.739792 0.661748
0.686338 0.736939 0.658564
0.800221 0.775111 0.661295
0.918528 0.772620 0.624021
0.995078 0.731707 0.560309
1.000000 0.734355 0.552252
0.610222 0.816871 0.690912
0.629070 0.818714 0.694936
0.661626 0.819133 0.698822
0.691958 0.818554 0.695902
0.725076 0.813937 0.689237
0.790155 0.831062 0.690768
0.901729 0.870416 0.697461
1.000000 0.890072 0.682700
1.000000 0.858142 0.617059
0.737491 0.896324 0.752260
0.743140 0.896788 0.752342
0.747731 0.896547 0.747390
0.763059 0.895872 0.743466
0.792598 0.894015 0.743566
0.830605 0.896722 0.744818
0.897873 0.924159 0.750726
0.973782 0.947673 0.755262
1.000000 0.967750 0.754807
0.846544 0.970260 0.821764
0.849336 0.970500 0.821803
0.856292 0.970529 0.822373
0.869981 0.970813 0.824288
0.888327 0.971074 0.827196
0.911425 0.971897 0.831977
0.940924 0.982637 0.833598
0.978054 0.994100 0.832405
1.000000 1.000000 0.829418
0.012000 0.105915 0.760816
0.093365 0.103972 0.760078
0.305095 0.102005 0.760270
0.486863 0.118443 0.758421
0.641738 0.188102 0.747825
0.766294 0.235028 0.742055
0.860418 0.258091 0.724394
0.972325 0.361523 0.726181
1.000000 0.466368 0.732402
0.012000 0.176367 0.764229
0.137175 0.179380 0.766376
0.328442 0.186021 0.764281
0.501470 0.209089 0.758801
0.653026 0.269990 0.749186
0.774186 0.313663 0.742985
0.865680 0.332687 0.726007
0.973060 0.414228 0.727493
1.000000 0.498077 0.733777
0.012000 0.302661 0.770882
0.155378 0.310532 0.771423
0.348223 0.323063 0.765919
0.520426 0.350684 0.758542
0.667195 0.402248 0.748907
0.782696 0.441634 0.743398
0.872436 0.455608 0.729309
0.974283 0.509090 0.732502
1.000000 0.558098 0.737372
0.012000 0.426968 0.759502
0.012000 0.440861 0.765792
0.309976 0.471333 0.760089
0.522383 0.501192 0.752800
0.676107 0.539247 0.746420
0.787799 0.570883 0.742741
0.877538 0.579130 0.734488
0.975210 0.608180 0.738743
1.000000 0.625380 0.737867
0.012000 0.610014 0.742188
0.038184 0.616145 0.746945
0.289537 0.616779 0.744961
0.477903 0.619816 0.745152
0.673553 0.649748 0.745652
0.794583 0.677254 0.744561
0.888326 0.684247 0.743717
0.982393 0.685134 0.738640
1.000000 0.691731 0.731373
0.361321 0.741304 0.729932
0.413996 0.745331 0.733610
0.495271 0.747317 0.734839
0.596576 0.750744 0.738191
0.704991 0.757703 0.744496
0.809949 0.769916 0.753791
0.903836 0.765404 0.741580
0.985564 0.764596 0.731161
1.000000 0.770168 0.725102
0.628330 0.831242 0.754233
0.646490 0.833107 0.756712
0.678542 0.833702 0.759136
0.726120 0.834779 0.763236
0.782990 0.836774 0.769181
0.824105 0.834957 0.766736
0.909377 0.869565 0.775771
0.993905 0.867866 0.748156
1.000000 0.834136 0.695405
0.753483 0.904899 0.796085
0.763060 0.905652 0.798015
0.781300 0.906015 0.800117
0.809529 0.906625 0.803543
0.836485 0.907127 0.803255
0.859410 0.904719 0.798258
0.906305 0.919920 0.803118
0.978683 0.948167 0.813458
1.000000 0.961940 0.808006
0.870566 0.973220 0.855928
0.874983 0.973643 0.856953
0.883427 0.973949 0.858126
0.892427 0.974657 0.857043
0.901636 0.975451 0.854158
0.922828 0.975914 0.857226
0.948318 0.979737 0.861485
0.982635 0.993309 0.862543
1.000000 1.000000 0.862383
0.209628 0.120995 0.872548
0.287832 0.123150 0.872237
0.410087 0.131510 0.868467
0.549296 0.162393 0.862035
0.684227 0.233969 0.853112
0.801721 0.342037 0.841814
0.895269 0.393046 0.836279
0.966370 0.417765 0.824215
1.000000 0.520011 0.823819
0.230336 0.198396 0.869820
0.306261 0.203923 0.870203
0.423979 0.214943 0.866158
0.560044 0.244756 0.860063
0.691802 0.305869 0.851656
0.806175 0.397896 0.841016
0.896324 0.440777 0.835391
0.965470 0.459687 0.822931
1.000000 0.549454 0.824249
0.242443 0.323846 0.865094
0.319565 0.332130 0.865297
0.436719 0.345309 0.860961
0.570998 0.373918 0.854993
0.700767 0.423975 0.847444
0.812164 0.493891 0.838498
0.898375 0.527424 0.833857
0.965300 0.540376 0.822616
1.000000 0.608447 0.826813
0.109583 0.450452 0.855922
0.277901 0.470763 0.855637
0.425893 0.486543 0.851276
0.570204 0.509646 0.846450
0.703618 0.545058 0.840327
0.814920 0.593407 0.834104
0.898952 0.622457 0.831549
0.964059 0.631146 0.822992
1.000000 0.677004 0.829145
0.012000 0.576279 0.842736
0.012000 0.582049 0.845695
0.296556 0.587979 0.841795
0.523197 0.613056 0.838683
0.694793 0.645976 0.834574
0.817249 0.681980 0.831975
0.900649 0.708938 0.831334
0.966226 0.716808 0.826680
1.000000 0.746652 0.833078
0.263425 0.729479 0.826775
0.327456 0.731604 0.828070
0.421282 0.731472 0.827624
0.533116 0.730880 0.827841
0.654868 0.731319 0.829423
0.812456 0.761311 0.832160
0.905476 0.789972 0.834306
0.971948 0.798069 0.834373
1.000000 0.804636 0.833366
0.546043 0.836273 0.820999
0.570242 0.837897 0.822314
0.614961 0.838857 0.823051
0.680550 0.840993 0.824843
0.758530 0.845214 0.828125
0.839137 0.852134 0.833853
0.914154 0.863500 0.841595
0.981644 0.860810 0.831596
1.000000 0.863336 0.826646
0.764396 0.915466 0.843762
0.774141 0.916098 0.844978
0.793257 0.916646 0.846364
0.821907 0.917605 0.848762
0.857790 0.919124 0.852352
0.897310 0.921621 0.857020
0.926027 0.920760 0.855440
0.985016 0.948708 0.866793
1.000000 0.947922 0.848380
0.876589 0.977760 0.883084
0.880449 0.977861 0.883833
0.889118 0.978192 0.884948
0.903437 0.979297 0.886902
0.923050 0.980442 0.889663
0.942296 0.982017 0.890722
0.959992 0.982784 0.890397
0.988516 0.991835 0.894022
1.000000 1.000000 0.897567
0.415607 0.199829 0.950927
0.455311 0.208557 0.949911
0.531635 0.228566 0.946351
0.632167 0.269695 0.940175
0.739189 0.336984 0.931894
0.838862 0.426669 0.921861
0.921812 0.525184 0.911631
0.987789 0.558955 0.908639
1.000000 0.575336 0.902288
0.425618 0.266799 0.947617
0.466713 0.277183 0.947257
0.540888 0.295300 0.943611
0.638863 0.331137 0.937860
0.743140 0.388621 0.929771
0.840782 0.466156 0.920204
0.921791 0.552583 0.910130
0.986600 0.583029 0.907178
1.000000 0.597428 0.900980
0.433986 0.379103 0.941302
0.475279 0.389163 0.941011
0.548830 0.405262 0.937512
0.645700 0.434709 0.932272
0.748102 0.479349 0.924831
0.843787 0.538422 0.916401
0.923275 0.607963 0.908062
0.985615 0.633653 0.905508
1.000000 0.644318 0.899036
0.413057 0.498589 0.931542
0.461204 0.508815 0.931471
0.540739 0.521011 0.928694
0.642540 0.542697 0.923846
0.748540 0.575558 0.918264
0.845226 0.619406 0.911746
0.923548 0.672310 0.905122
0.983424 0.694324 0.903032
1.000000 0.701796 0.896410
0.224946 0.580213 0.926912
0.321337 0.587584 0.926125
0.466399 0.606718 0.922350
0.617957 0.635300 0.917099
0.738035 0.659793 0.912543
0.841734 0.692856 0.907441
0.922464 0.734718 0.902745
0.981210 0.757114 0.901384
1.000000 0.764768 0.895311
0.211536 0.707351 0.914336
0.279396 0.707249 0.914019
0.378402 0.704386 0.913119
0.517090 0.705155 0.911785
0.687694 0.726161 0.908716
0.829774 0.761390 0.904328
0.920940 0.796513 0.901752
0.980575 0.821722 0.901355
1.000000 0.831584 0.898844
0.500774 0.831057 0.900409
0.523510 0.831274 0.900714
0.567880 0.830799 0.900398
0.632923 0.830044 0.900145
0.710287 0.828457 0.900208
0.795130 0.826672 0.900356
0.912972 0.855725 0.901266
0.981688 0.884874 0.903820
1.000000 0.895576 0.905667
0.703671 0.919887 0.896613
0.714646 0.920041 0.896716
0.738916 0.920539 0.897016
0.776775 0.921696 0.897567
0.825156 0.923944 0.898853
0.879153 0.927607 0.901129
0.935141 0.934074 0.905414
0.988071 0.944782 0.911862
1.000000 0.943568 0.904617
0.877011 0.982962 0.913921
0.881725 0.983165 0.914383
0.892223 0.983603 0.915198
0.908805 0.984744 0.916795
0.929658 0.985885 0.919146
0.952745 0.987727 0.921809
0.978115 0.990227 0.925402
0.998557 0.992246 0.925762
1.000000 1.000000 0.931076
0.606105 0.398277 1.000000
0.627812 0.408554 1.000000
0.673277 0.430217 0.999960
0.738783 0.467148 0.995011
0.813874 0.517813 0.988211
0.887268 0.578586 0.980214
0.951071 0.643714 0.970998
1.000000 0.707833 0.962194
1.000000 0.724395 0.960788
0.610026 0.437382 1.000000
0.632326 0.447715 1.000000
0.677078 0.466911 0.997647
0.741326 0.498763 0.992727
0.815565 0.544008 0.986304
0.888151 0.599093 0.978604
0.950948 0.658587 0.970033
1.000000 0.718224 0.961179
1.000000 0.734506 0.960140
0.617980 0.511776 0.996850
0.640060 0.520584 0.995901
0.684058 0.535399 0.993129
0.747228 0.560487 0.988852
0.819487 0.596689 0.982761
0.890016 0.641768 0.975786
0.951403 0.692193 0.968023
1.000000 0.744304 0.959918
1.000000 0.759435 0.958963
0.613099 0.590223 0.990879
0.637233 0.597832 0.990252
0.682296 0.608906 0.987719
0.746485 0.628057 0.983842
0.819247 0.656257 0.978549
0.889702 0.692060 0.972365
0.950684 0.733118 0.965476
0.999398 0.777154 0.958281
1.000000 0.791928 0.957237
0.568577 0.655584 0.987265
0.603112 0.664572 0.986062
0.660278 0.676028 0.983591
0.731953 0.691070 0.980168
0.810836 0.713104 0.975264
0.885337 0.742212 0.969686
0.948661 0.777044 0.963611
0.998702 0.815711 0.957381
1.000000 0.831207 0.956060
0.444035 0.713513 0.986289
0.484761 0.716683 0.985463
0.559948 0.722354 0.983543
0.662255 0.735209 0.979829
0.785406 0.766782 0.973100
0.874147 0.792788 0.968210
0.944834 0.823773 0.962412
0.997808 0.857793 0.956816
1.000000 0.875724 0.955448
0.552004 0.827186 0.974076
0.566607 0.826530 0.973906
0.597790 0.824479 0.973751
0.646097 0.820198 0.973702
0.721198 0.818406 0.973285
0.836592 0.837437 0.968645
0.935345 0.870979 0.962365
0.996785 0.901900 0.957630
1.000000 0.920923 0.955781
0.734823 0.927123 0.963348
0.741503 0.927111 0.963222
0.758071 0.926629 0.963011
0.784939 0.926379 0.963011
0.821038 0.925787 0.962918
0.863937 0.924700 0.963124
0.913348 0.922507 0.963596
0.990472 0.943610 0.959831
1.000000 0.964704 0.957448
0.856091 0.992154 0.957295
0.859952 0.992172 0.957286
0.869593 0.992493 0.957438
0.886231 0.993318 0.957537
0.908868 0.994256 0.957623
0.936490 0.995283 0.957644
0.968275 0.997447 0.958531
1.000000 1.000000 0.959782
1.000000 1.000000 0.962579
