working/Infinite_Arch_Leica_Looks_v1.2/looks/threshold/look.CUBE
#Created by: Infinite Arch Leica Looks v1.0
#Unique Leica Look ID: 1005
#Based Filmstyle Mode: Standard
#Source: Proven IA Threshold: Fuji Superia 400 3+ + IA split-tone shaping
TITLE "IA Threshold"
LUT_3D_SIZE 5
DOMAIN_MIN 0.0 0.0 0.0
DOMAIN_MAX 1.0 1.0 1.0
0.012000 0.085689 0.096295
0.167799 0.097233 0.090437
0.558341 0.016889 0.063028
0.895435 0.012000 0.023085
1.000000 0.263684 0.012000
0.012000 0.225652 0.127737
0.169774 0.277740 0.078567
0.615189 0.285814 0.012000
0.905535 0.311651 0.012000
1.000000 0.404794 0.012000
0.012000 0.540804 0.205079
0.124629 0.548803 0.209330
0.617051 0.668633 0.012000
0.931530 0.655377 0.012000
1.000000 0.610259 0.012000
0.356897 0.774312 0.439427
0.433015 0.772977 0.444722
0.612721 0.805890 0.435373
0.887725 0.870965 0.376608
1.000000 0.882162 0.234559
0.808813 0.963267 0.759860
0.824129 0.963823 0.764106
0.863644 0.966159 0.774079
0.926395 0.985844 0.766900
1.000000 1.000000 0.748310
0.012000 0.093658 0.245632
0.172500 0.113249 0.239986
0.568944 0.014923 0.258749
0.899859 0.038941 0.255697
1.000000 0.302422 0.235020
0.012000 0.265003 0.261854
0.227567 0.293091 0.280556
0.641034 0.305175 0.262224
0.911176 0.331949 0.225545
1.000000 0.424889 0.207902
0.147311 0.587762 0.380797
0.300079 0.587650 0.379491
0.637705 0.667291 0.332168
0.919445 0.629355 0.153588
1.000000 0.615559 0.076697
0.453328 0.788147 0.530009
0.510080 0.787031 0.533961
0.643045 0.803399 0.533782
0.891311 0.870814 0.510942
1.000000 0.878264 0.416383
0.819861 0.965115 0.777906
0.834325 0.965409 0.781312
0.871235 0.966448 0.789963
0.930736 0.984920 0.787908
1.000000 1.000000 0.774114
0.012000 0.104274 0.616619
0.241826 0.105147 0.614175
0.601255 0.128466 0.615436
0.875029 0.193503 0.602581
1.000000 0.333100 0.589582
0.012000 0.273842 0.642601
0.285879 0.312389 0.644215
0.638815 0.376587 0.628059
0.890896 0.417654 0.613697
1.000000 0.467164 0.593075
0.049807 0.628869 0.621214
0.371039 0.641071 0.629907
0.668082 0.657830 0.642327
0.902289 0.649717 0.611761
1.000000 0.667085 0.595540
0.610222 0.816871 0.690912
0.661626 0.819133 0.698822
0.725076 0.813937 0.689237
0.901729 0.870416 0.697461
1.000000 0.858142 0.617059
0.846544 0.970260 0.821764
0.856292 0.970529 0.822373
0.888327 0.971074 0.827196
0.940924 0.982637 0.833598
1.000000 1.000000 0.829418
0.209628 0.120995 0.872548
0.410087 0.131510 0.868467
0.684227 0.233969 0.853112
0.895269 0.393046 0.836279
1.000000 0.520011 0.823819
0.242443 0.323846 0.865094
0.436719 0.345309 0.860961
0.700767 0.423975 0.847444
0.898375 0.527424 0.833857
1.000000 0.608447 0.826813
0.012000 0.576279 0.842736
0.296556 0.587979 0.841795
0.694793 0.645976 0.834574
0.900649 0.708938 0.831334
1.000000 0.746652 0.833078
0.546043 0.836273 0.820999
0.614961 0.838857 0.823051
0.758530 0.845214 0.828125
0.914154 0.863500 0.841595
1.000000 0.863336 0.826646
0.876589 0.977760 0.883084
0.889118 0.978192 0.884948
0.923050 0.980442 0.889663
0.959992 0.982784 0.890397
1.000000 1.000000 0.897567
0.606105 0.398277 1.000000
0.673277 0.430217 0.999960
0.813874 0.517813 0.988211
0.951071 0.643714 0.970998
1.000000 0.724395 0.960788
0.617980 0.511776 0.996850
0.684058 0.535399 0.993129
0.819487 0.596689 0.982761
0.951403 0.692193 0.968023
1.000000 0.759435 0.958963
0.568577 0.655584 0.987265
0.660278 0.676028 0.983591
0.810836 0.713104 0.975264
0.948661 0.777044 0.963611
1.000000 0.831207 0.956060
0.552004 0.827186 0.974076
0.597790 0.824479 0.973751
0.721198 0.818406 0.973285
0.935345 0.870979 0.962365
1.000000 0.920923 0.955781
0.856091 0.992154 0.957295
0.869593 0.992493 0.957438
0.908868 0.994256 0.957623
0.968275 0.997447 0.958531
1.000000 1.000000 0.962579
