source/swift_cli/InfiniteArchLeicaCLI/Sources/q3test/Resources/Silver.CUBE
#Created by: Leica Camera AG | Wetzlar | Germany
#Unique Leica Look ID: 24
#Based Filmstyle Mode: Standard
TITLE "Silver"
#LUT size
LUT_3D_SIZE 17
#data domain
DOMAIN_MIN 0.0 0.0 0.0
DOMAIN_MAX 1.0 1.0 1.0
#LUT data points
0.003967 0.003967 0.003967
0.114655 0.005859 0.005859
0.214203 0.009583 0.009583
0.300385 0.014526 0.014526
0.371826 0.019745 0.019745
0.430054 0.024628 0.024628
0.478851 0.029022 0.029022
0.522980 0.033203 0.033173
0.566986 0.037598 0.037598
0.610992 0.042084 0.042084
0.654449 0.046814 0.046814
0.698608 0.051971 0.051971
0.744263 0.057526 0.057526
0.791840 0.063782 0.063782
0.840607 0.070618 0.070618
0.887573 0.077515 0.077515
0.933899 0.084595 0.084595
0.009430 0.116302 0.009430
0.116730 0.116730 0.011871
0.215027 0.117950 0.015686
0.300385 0.119629 0.020416
0.371490 0.121460 0.025330
0.429840 0.123291 0.029907
0.478882 0.125122 0.034027
0.523315 0.127289 0.037994
0.567108 0.130188 0.042084
0.610870 0.133728 0.046417
0.654449 0.137878 0.050995
0.698669 0.142670 0.055969
0.744354 0.148193 0.061432
0.791718 0.154572 0.067535
0.840057 0.161621 0.074188
0.887817 0.169189 0.081146
0.934021 0.177216 0.088135
0.019531 0.218048 0.019531
0.122284 0.217712 0.021698
0.218353 0.218323 0.025208
0.302917 0.218292 0.029572
0.373260 0.217133 0.033875
0.431030 0.215912 0.037872
0.479706 0.215210 0.041565
0.523895 0.215485 0.045105
0.567383 0.217072 0.048889
0.610931 0.219788 0.052948
0.654449 0.223572 0.057434
0.698669 0.228333 0.062256
0.744324 0.234161 0.067627
0.791626 0.241089 0.073730
0.840057 0.248932 0.080444
0.888153 0.257751 0.087555
0.934540 0.268066 0.094879
0.032013 0.306305 0.032013
0.130035 0.305359 0.033813
0.222870 0.306122 0.037018
0.306519 0.306519 0.041016
0.376740 0.304230 0.044922
0.433685 0.300049 0.048065
0.481506 0.296295 0.050873
0.525085 0.294128 0.053711
0.568176 0.294006 0.057068
0.611450 0.295654 0.060852
0.654816 0.298798 0.065063
0.699005 0.303375 0.069824
0.744598 0.309387 0.075256
0.791809 0.316681 0.081390
0.840302 0.325073 0.088196
0.888763 0.334808 0.095673
0.935638 0.347290 0.103607
0.044586 0.379517 0.044586
0.138245 0.378265 0.045959
0.226959 0.378815 0.048798
0.308472 0.379974 0.052643
0.379272 0.379272 0.056366
0.436859 0.374725 0.059113
0.484100 0.368195 0.060974
0.526917 0.362885 0.062897
0.569427 0.360199 0.065521
0.612366 0.360046 0.068817
0.655548 0.362030 0.072693
0.699585 0.365967 0.077271
0.745056 0.371429 0.082611
0.792236 0.378204 0.088654
0.840698 0.385925 0.095428
0.889404 0.394592 0.102875
0.936859 0.404602 0.110626
0.055573 0.438782 0.055573
0.145569 0.437683 0.056763
0.230591 0.437988 0.059174
0.308533 0.439056 0.062622
0.378387 0.439819 0.066345
0.438141 0.438141 0.069489
0.486786 0.432098 0.071167
0.529205 0.424561 0.072235
0.571075 0.418823 0.073914
0.613495 0.415771 0.076385
0.656372 0.415436 0.079651
0.700195 0.417664 0.083832
0.745575 0.421875 0.088837
0.792572 0.427429 0.094696
0.841034 0.433899 0.101288
0.889923 0.440918 0.108429
0.937958 0.447968 0.115845
0.064789 0.487915 0.064758
0.151978 0.487244 0.065887
0.234039 0.487427 0.068054
0.308533 0.488068 0.070984
0.375275 0.488922 0.074371
0.435242 0.489380 0.077789
0.487152 0.487152 0.080353
0.531464 0.480865 0.081573
0.573090 0.473541 0.082489
0.615021 0.467896 0.084106
0.657471 0.464508 0.086578
0.700989 0.463837 0.089996
0.746094 0.466034 0.094482
0.792999 0.470337 0.100128
0.841431 0.475983 0.106598
0.890533 0.482239 0.113678
0.938873 0.488220 0.120880
0.073090 0.532135 0.073090
0.158173 0.531891 0.074158
0.238007 0.531982 0.076111
0.309784 0.532410 0.078735
0.373199 0.532990 0.081665
0.430756 0.533630 0.084808
0.483704 0.533905 0.087891
0.531738 0.531738 0.090271
0.575378 0.526093 0.091583
0.617249 0.519409 0.092682
0.659241 0.513763 0.094330
0.702301 0.510071 0.096863
0.747040 0.509216 0.100586
0.793701 0.511749 0.105713
0.842102 0.516693 0.112091
0.891357 0.522766 0.119263
0.940308 0.528412 0.125763
0.081757 0.576202 0.081757
0.165131 0.575867 0.082672
0.243378 0.575867 0.084473
0.313232 0.576080 0.086853
0.373932 0.576538 0.089478
0.428406 0.577026 0.092255
0.479675 0.577637 0.095215
0.529114 0.577972 0.098236
0.576294 0.576263 0.100800
0.619995 0.571320 0.102356
0.661926 0.564880 0.103607
0.704498 0.559021 0.105347
0.748688 0.554962 0.108063
0.794983 0.554413 0.112335
0.843201 0.557800 0.118256
0.892700 0.563446 0.125000
0.943176 0.568512 0.128632
0.090973 0.620422 0.090973
0.173126 0.620026 0.091827
0.250275 0.619995 0.093506
0.318787 0.620209 0.095764
0.377594 0.620605 0.098236
0.429169 0.621063 0.100739
0.477783 0.621643 0.103424
0.526062 0.622375 0.106415
0.574677 0.622955 0.109650
0.621704 0.621674 0.112457
0.665314 0.617096 0.114227
0.707764 0.610657 0.115570
0.751373 0.604431 0.117432
0.797028 0.600189 0.120483
0.845001 0.600220 0.124817
0.895721 0.604187 0.128204
0.946289 0.609009 0.131744
0.100800 0.664551 0.100800
0.182190 0.664398 0.101685
0.258728 0.664459 0.103394
0.326324 0.664764 0.105591
0.383850 0.665192 0.107971
0.433075 0.665649 0.110321
0.478729 0.666138 0.112701
0.524628 0.666840 0.115387
0.572235 0.667786 0.118591
0.620758 0.668610 0.122101
0.667725 0.667725 0.124573
0.711884 0.663391 0.125549
0.755615 0.656891 0.126312
0.801025 0.650208 0.127289
0.848785 0.645752 0.128998
0.899017 0.646149 0.131714
0.949493 0.649597 0.134918
0.111786 0.709778 0.111786
0.192627 0.709778 0.112701
0.268799 0.709961 0.114410
0.335876 0.710358 0.116608
0.392487 0.710815 0.118988
0.440002 0.711243 0.121094
0.482788 0.711700 0.123230
0.525482 0.712402 0.124573
0.570679 0.713409 0.126007
0.618439 0.714661 0.127686
0.667328 0.715820 0.129608
0.715179 0.715149 0.131256
0.760895 0.710968 0.132355
0.806458 0.704163 0.133179
0.853638 0.696686 0.134216
0.902924 0.691467 0.135864
0.952881 0.690460 0.138306
0.123535 0.757080 0.123535
0.203796 0.757172 0.124054
0.279449 0.757568 0.124939
0.345917 0.758179 0.126068
0.401520 0.758820 0.127228
0.447510 0.759369 0.128265
0.488251 0.759827 0.129181
0.528259 0.760376 0.130188
0.570587 0.761169 0.131348
0.616364 0.762299 0.132843
0.665039 0.763702 0.134644
0.715149 0.765045 0.136627
0.764648 0.764648 0.138428
0.812256 0.760468 0.139679
0.859558 0.752869 0.140503
0.908112 0.743469 0.141327
0.956940 0.734222 0.142365
0.130371 0.807770 0.130371
0.211517 0.807831 0.130829
0.288239 0.808167 0.131653
0.355469 0.808807 0.132721
0.410828 0.809387 0.133789
0.455902 0.809875 0.134735
0.495636 0.810303 0.135559
0.534149 0.810760 0.136383
0.573792 0.811432 0.137390
0.616333 0.812378 0.138641
0.662842 0.813599 0.140198
0.712921 0.815186 0.142120
0.764984 0.816742 0.144257
0.816559 0.816559 0.146240
0.865997 0.812042 0.147552
0.914764 0.802856 0.148224
0.962830 0.788269 0.148254
0.137573 0.860474 0.137573
0.219788 0.860443 0.137939
0.297913 0.860840 0.138763
0.366028 0.861450 0.139801
0.421051 0.862091 0.140808
0.465179 0.862549 0.141632
0.504272 0.862976 0.142395
0.542236 0.863464 0.143219
0.580566 0.864105 0.144135
0.620239 0.864868 0.145172
0.662994 0.865875 0.146454
0.710419 0.867310 0.148132
0.762421 0.869110 0.150177
0.816925 0.870911 0.152527
0.870758 0.870758 0.154694
0.922028 0.865784 0.156067
0.970886 0.853973 0.156342
0.144958 0.914062 0.144958
0.228577 0.913940 0.145325
0.308472 0.914490 0.146118
0.377808 0.915344 0.147186
0.432251 0.916138 0.148132
0.475128 0.916748 0.148956
0.513641 0.917358 0.149689
0.551514 0.917999 0.150513
0.589630 0.918732 0.151367
0.628174 0.919586 0.152374
0.667725 0.920441 0.153473
0.710236 0.921600 0.154816
0.758545 0.923157 0.156555
0.813354 0.925262 0.158813
0.871124 0.927338 0.161407
0.927856 0.927887 0.163849
0.979706 0.922119 0.165131
0.152161 0.966766 0.152161
0.237610 0.967163 0.152588
0.320190 0.967957 0.153412
0.391907 0.969086 0.154572
0.444458 0.970001 0.155487
0.484894 0.970734 0.156219
0.522644 0.971497 0.156982
0.560455 0.972351 0.157806
0.598572 0.973267 0.158691
0.636963 0.974274 0.159698
0.675415 0.975342 0.160767
0.713989 0.976471 0.161896
0.755066 0.977783 0.163208
0.805145 0.979706 0.165100
0.865448 0.982391 0.167755
0.927765 0.985382 0.170776
0.988495 0.988525 0.173889
0.038422 0.051880 0.155579
0.114197 0.007233 0.114197
0.213196 0.010986 0.114746
0.298920 0.015808 0.116150
0.370239 0.020935 0.117981
0.428772 0.025757 0.119904
0.477997 0.030090 0.121826
0.522614 0.034241 0.124176
0.566559 0.038574 0.127197
0.610443 0.043030 0.130829
0.654083 0.047729 0.135040
0.698395 0.052795 0.139923
0.744141 0.058350 0.145538
0.791595 0.064545 0.151978
0.839966 0.071289 0.159088
0.887756 0.078308 0.166687
0.933929 0.085388 0.174774
0.055664 0.161865 0.161865
0.116821 0.116760 0.116821
0.214203 0.118164 0.118195
0.299286 0.119965 0.119965
0.370331 0.121643 0.121674
0.428802 0.123199 0.123199
0.478149 0.124664 0.124664
0.522888 0.126343 0.126373
0.566620 0.128571 0.128601
0.610321 0.131378 0.131409
0.654022 0.134705 0.134735
0.698395 0.138611 0.138611
0.744141 0.143219 0.143219
0.791504 0.148529 0.148529
0.839844 0.154510 0.154510
0.887878 0.160736 0.160736
0.934021 0.166748 0.166718
0.062714 0.254913 0.164642
0.122406 0.216827 0.122406
0.217346 0.217285 0.124207
0.301422 0.217499 0.126404
0.371857 0.216614 0.128021
0.429840 0.215271 0.129211
0.478882 0.214111 0.130280
0.523407 0.213654 0.131592
0.566895 0.214233 0.133392
0.610352 0.215759 0.135773
0.654022 0.218231 0.138763
0.698395 0.221558 0.142334
0.744080 0.225739 0.146515
0.791321 0.230865 0.151459
0.839722 0.236786 0.157074
0.888000 0.243256 0.163086
0.934418 0.249908 0.169037
0.072052 0.336121 0.169647
0.130127 0.304169 0.130127
0.222046 0.304565 0.132202
0.304840 0.304779 0.134674
0.374939 0.302948 0.136505
0.432343 0.299377 0.137421
0.480682 0.295654 0.137909
0.524597 0.292969 0.138641
0.567657 0.291901 0.140045
0.610901 0.292328 0.142151
0.654358 0.294006 0.144867
0.698639 0.296844 0.148193
0.744232 0.300903 0.152252
0.791412 0.306091 0.157104
0.839813 0.312286 0.162689
0.888367 0.319427 0.168884
0.935272 0.327393 0.175415
0.081757 0.404114 0.175415
0.138062 0.376984 0.138062
0.226288 0.377289 0.140015
0.307129 0.378113 0.142853
0.377289 0.377197 0.145172
0.435120 0.373352 0.146240
0.483154 0.367798 0.146362
0.526428 0.362823 0.146515
0.569000 0.359833 0.147491
0.611908 0.358887 0.149231
0.655151 0.359619 0.151672
0.699249 0.361969 0.154877
0.744751 0.365753 0.158875
0.791840 0.370880 0.163727
0.840240 0.377167 0.169342
0.889008 0.384644 0.175751
0.936554 0.393311 0.182678
0.090515 0.459900 0.180756
0.145142 0.436584 0.145142
0.229797 0.436707 0.146790
0.307739 0.437592 0.149536
0.376984 0.437988 0.152344
0.436127 0.436127 0.154236
0.485382 0.431000 0.154694
0.528656 0.424622 0.154541
0.570740 0.419525 0.154877
0.613190 0.416656 0.156097
0.656189 0.415924 0.158203
0.700073 0.417297 0.161163
0.745422 0.420410 0.165100
0.792419 0.425110 0.169861
0.840820 0.431091 0.175507
0.889771 0.438263 0.181976
0.937988 0.446411 0.189117
0.098053 0.506836 0.185577
0.151245 0.486481 0.151245
0.232849 0.486572 0.152618
0.307831 0.487213 0.154999
0.374817 0.487915 0.157806
0.434082 0.487915 0.160339
0.485535 0.485535 0.161896
0.530487 0.480194 0.162201
0.572723 0.474091 0.162323
0.614838 0.469299 0.163025
0.657471 0.466553 0.164612
0.701111 0.466095 0.167175
0.746216 0.467957 0.170776
0.793152 0.471924 0.175476
0.841522 0.477417 0.181122
0.890656 0.484070 0.187653
0.939240 0.491180 0.194672
0.105042 0.549377 0.190491
0.157043 0.531433 0.157043
0.236237 0.531525 0.158142
0.308685 0.531952 0.160217
0.373169 0.532532 0.162750
0.430786 0.533081 0.165405
0.483063 0.532898 0.167755
0.530640 0.530609 0.169281
0.574615 0.525879 0.169952
0.617004 0.520386 0.170502
0.659302 0.515808 0.171600
0.702545 0.513123 0.173584
0.747375 0.512848 0.176666
0.794067 0.515350 0.181030
0.842438 0.520203 0.186615
0.891663 0.526428 0.193237
0.941193 0.532532 0.198975
0.112518 0.591492 0.196381
0.163452 0.575439 0.163452
0.240753 0.575439 0.164276
0.311310 0.575714 0.166107
0.373627 0.576172 0.168457
0.429047 0.576721 0.170929
0.480164 0.577271 0.173431
0.528870 0.577179 0.175842
0.575378 0.575378 0.177673
0.619385 0.571259 0.178772
0.661896 0.566132 0.179718
0.704773 0.561615 0.181122
0.749146 0.558868 0.183563
0.795502 0.558960 0.187317
0.843658 0.562225 0.192535
0.893463 0.567627 0.198059
0.944122 0.572845 0.201874
0.120758 0.633942 0.203430
0.170837 0.619598 0.170807
0.246643 0.619568 0.171387
0.315857 0.619843 0.173126
0.376587 0.620300 0.175323
0.429993 0.620819 0.177643
0.479095 0.621429 0.180023
0.526917 0.622070 0.182617
0.574554 0.622284 0.185242
0.620911 0.620880 0.187439
0.664886 0.617188 0.188934
0.707886 0.612183 0.190155
0.751862 0.607605 0.191956
0.797668 0.604889 0.194916
0.845978 0.605286 0.198059
0.896576 0.608826 0.201355
0.947235 0.613312 0.204987
0.129822 0.676666 0.211639
0.179260 0.664124 0.179230
0.253967 0.664185 0.179596
0.322144 0.664490 0.181244
0.381744 0.664948 0.183380
0.433563 0.665497 0.185577
0.480560 0.666077 0.187836
0.526428 0.666809 0.190277
0.573334 0.667664 0.193054
0.620789 0.668121 0.195984
0.667114 0.667114 0.197937
0.711670 0.663696 0.198792
0.756012 0.658844 0.199493
0.801849 0.654022 0.200562
0.849823 0.651093 0.202271
0.899994 0.651337 0.204956
0.950439 0.653961 0.208221
0.140106 0.720428 0.221283
0.188965 0.709656 0.188965
0.262848 0.709808 0.189117
0.330261 0.710175 0.190643
0.389099 0.710693 0.192780
0.439697 0.711212 0.194885
0.484772 0.711761 0.196899
0.528076 0.712585 0.198059
0.572906 0.713562 0.199432
0.619751 0.714722 0.201050
0.667572 0.715515 0.202728
0.714752 0.714752 0.204163
0.760803 0.711548 0.205231
0.806976 0.706482 0.206146
0.854584 0.701141 0.207306
0.903961 0.697083 0.209167
0.953949 0.695465 0.211731
0.151062 0.766144 0.231964
0.199219 0.757141 0.199219
0.272095 0.757477 0.198517
0.338654 0.758026 0.199097
0.396637 0.758728 0.200165
0.446259 0.759399 0.201263
0.489899 0.760010 0.202240
0.531403 0.760681 0.203247
0.574005 0.761505 0.204437
0.619171 0.762604 0.205902
0.666748 0.763916 0.207581
0.715607 0.764893 0.209381
0.764343 0.764343 0.211029
0.812286 0.761200 0.212280
0.860199 0.755585 0.213318
0.909119 0.748566 0.214569
0.958344 0.741119 0.216064
0.157959 0.815155 0.239716
0.205994 0.807770 0.205994
0.279266 0.808075 0.204956
0.346313 0.808624 0.205383
0.404510 0.809265 0.206360
0.453888 0.809906 0.207367
0.496979 0.810516 0.208282
0.537262 0.811066 0.209167
0.577728 0.811798 0.210205
0.620422 0.812775 0.211456
0.666229 0.813995 0.212982
0.714996 0.815491 0.214813
0.765625 0.816681 0.216766
0.816315 0.816315 0.218597
0.866058 0.812897 0.220032
0.915436 0.806091 0.221161
0.964264 0.795349 0.222015
0.165253 0.865967 0.248077
0.213287 0.860352 0.213257
0.287170 0.860657 0.211884
0.354889 0.861206 0.212189
0.413483 0.861938 0.213104
0.462738 0.862579 0.214020
0.505493 0.863190 0.214905
0.545258 0.863770 0.215790
0.584442 0.864471 0.216705
0.624756 0.865295 0.217804
0.667694 0.866394 0.219116
0.714386 0.867767 0.220734
0.764832 0.869446 0.222717
0.817657 0.870850 0.224884
0.870575 0.870575 0.226898
0.922150 0.866913 0.228577
0.971832 0.857819 0.229584
0.172852 0.917572 0.256989
0.220734 0.913879 0.220734
0.295563 0.914337 0.219055
0.364410 0.915100 0.219421
0.423645 0.915985 0.220367
0.472809 0.916779 0.221283
0.515228 0.917572 0.222198
0.554657 0.918304 0.223022
0.593323 0.919067 0.223938
0.632233 0.919922 0.224976
0.672302 0.920868 0.226135
0.715149 0.922058 0.227448
0.763031 0.923615 0.229218
0.816162 0.925537 0.231384
0.872101 0.927338 0.233795
0.927887 0.927917 0.236328
0.980255 0.923523 0.238068
0.180573 0.968842 0.266296
0.227966 0.967346 0.227966
0.303955 0.967987 0.226196
0.374420 0.968964 0.226776
0.434509 0.970001 0.227844
0.483429 0.970978 0.228760
0.525146 0.971863 0.229645
0.564087 0.972778 0.230530
0.602417 0.973724 0.231445
0.640808 0.974731 0.232483
0.679321 0.975800 0.233551
0.718475 0.976959 0.234711
0.761169 0.978394 0.236145
0.811432 0.980347 0.238098
0.868866 0.982880 0.240601
0.929047 0.985748 0.243622
0.988800 0.988800 0.247040
0.069366 0.094482 0.281403
0.139862 0.050659 0.244873
0.212524 0.012939 0.212524
0.298584 0.017700 0.211670
0.369965 0.022705 0.210297
0.428436 0.027374 0.209106
0.477631 0.031647 0.208527
0.522247 0.035706 0.208984
0.566132 0.039948 0.210754
0.609924 0.044342 0.213562
0.653656 0.048981 0.217407
0.698029 0.054047 0.222260
0.743866 0.059570 0.228119
0.791321 0.065704 0.235077
0.839813 0.072449 0.242889
0.887909 0.079559 0.251648
0.933929 0.086639 0.261719
0.085480 0.196625 0.284363
0.142059 0.152069 0.244263
0.213562 0.118652 0.213531
0.298676 0.120819 0.213470
0.369812 0.122589 0.212494
0.428314 0.124023 0.211212
0.477692 0.125336 0.210144
0.522491 0.126862 0.209839
0.566162 0.128876 0.210510
0.609863 0.131439 0.212128
0.653595 0.134491 0.214630
0.698059 0.138123 0.217987
0.743866 0.142426 0.222229
0.791229 0.147430 0.227386
0.839630 0.153076 0.233307
0.887909 0.159027 0.239807
0.934052 0.164917 0.246277
0.102783 0.289246 0.289246
0.156738 0.250946 0.251007
0.216858 0.216858 0.216858
0.300751 0.217438 0.217468
0.371246 0.216827 0.216858
0.429291 0.215393 0.215454
0.478424 0.214020 0.214020
0.522980 0.213226 0.213226
0.566437 0.213287 0.213348
0.609894 0.214264 0.214264
0.653625 0.216034 0.216064
0.698059 0.218658 0.218658
0.743805 0.222015 0.222046
0.791077 0.226227 0.226227
0.839447 0.231201 0.231201
0.887939 0.236603 0.236603
0.934387 0.241821 0.241821
0.109772 0.364990 0.289612
0.162872 0.332642 0.253754
0.221863 0.303955 0.221863
0.304230 0.304230 0.223175
0.374207 0.302673 0.223206
0.431732 0.299255 0.221832
0.480225 0.295471 0.220062
0.524200 0.292450 0.218781
0.567230 0.290771 0.218414
0.610443 0.290466 0.219025
0.653992 0.291260 0.220428
0.698303 0.293091 0.222626
0.743927 0.295929 0.225616
0.791107 0.299744 0.229462
0.839508 0.304535 0.234100
0.888184 0.309967 0.239380
0.935120 0.315552 0.244904
0.116821 0.428223 0.289886
0.168854 0.400909 0.256256
0.226349 0.376740 0.226349
0.306763 0.377411 0.228302
0.376495 0.376465 0.229340
0.434357 0.372925 0.228729
0.482635 0.367676 0.226959
0.526123 0.362732 0.225311
0.568634 0.359436 0.224609
0.611481 0.357880 0.224915
0.654785 0.357788 0.226105
0.698944 0.359009 0.228119
0.744385 0.361511 0.231018
0.791504 0.365234 0.234772
0.839905 0.370056 0.239349
0.888733 0.375916 0.244873
0.936310 0.382477 0.250916
0.123260 0.480408 0.290283
0.174072 0.457031 0.258179
0.229797 0.436218 0.229797
0.307556 0.437042 0.231873
0.376465 0.437225 0.233795
0.435333 0.435303 0.234528
0.484680 0.430603 0.233612
0.528290 0.424713 0.232025
0.570465 0.419891 0.231018
0.612915 0.416901 0.231018
0.655914 0.415741 0.231964
0.699860 0.416290 0.233856
0.745178 0.418396 0.236694
0.792145 0.422028 0.240448
0.840546 0.426971 0.245148
0.889587 0.433289 0.250916
0.937836 0.440613 0.257385
0.128906 0.524719 0.291077
0.178558 0.504364 0.259979
0.232635 0.486176 0.232635
0.307556 0.486786 0.234467
0.374634 0.487427 0.236664
0.433655 0.487213 0.238434
0.484833 0.484802 0.239044
0.529968 0.479980 0.238342
0.572449 0.474487 0.237427
0.614685 0.470154 0.237152
0.657379 0.467651 0.237823
0.701050 0.467102 0.239471
0.746216 0.468536 0.242188
0.793060 0.471924 0.246002
0.841461 0.476929 0.250824
0.890656 0.483429 0.256836
0.939453 0.490875 0.263550
0.134552 0.565308 0.292969
0.183044 0.547302 0.262299
0.235718 0.531219 0.235687
0.308105 0.531616 0.237183
0.373016 0.532196 0.239258
0.430847 0.532715 0.241455
0.482819 0.532349 0.243164
0.530121 0.530090 0.243958
0.574219 0.525879 0.243896
0.616821 0.521088 0.243683
0.659302 0.517242 0.244080
0.702667 0.515137 0.245392
0.747528 0.515228 0.247864
0.794250 0.517731 0.251526
0.842590 0.522430 0.256409
0.891937 0.528809 0.262573
0.941956 0.535431 0.267822
0.140900 0.605591 0.296600
0.188293 0.589478 0.265930
0.239777 0.575134 0.239746
0.310211 0.575378 0.240997
0.373260 0.575928 0.242889
0.429352 0.576508 0.245056
0.480499 0.576996 0.247192
0.528839 0.576782 0.249054
0.575043 0.575012 0.250275
0.619110 0.571442 0.250824
0.661896 0.567169 0.251282
0.704956 0.563599 0.252228
0.749481 0.561798 0.254242
0.795868 0.562531 0.257568
0.844025 0.565979 0.262177
0.894257 0.571411 0.266907
0.945068 0.576996 0.270905
0.148254 0.646454 0.301941
0.194672 0.632050 0.271118
0.245148 0.619293 0.245148
0.314087 0.619537 0.246155
0.375671 0.620026 0.247986
0.430176 0.620605 0.250031
0.479889 0.621246 0.252197
0.527557 0.621887 0.254425
0.574738 0.621979 0.256592
0.620667 0.620667 0.258270
0.664764 0.617554 0.259338
0.708038 0.613556 0.260284
0.752197 0.610168 0.261871
0.798157 0.608673 0.264618
0.846802 0.609619 0.266937
0.897461 0.613190 0.270264
0.948212 0.617706 0.274048
0.156677 0.687775 0.308929
0.202209 0.675110 0.277679
0.251923 0.663940 0.251923
0.319672 0.664246 0.252716
0.380127 0.664764 0.254456
0.433380 0.665344 0.256470
0.481537 0.666016 0.258545
0.527710 0.666748 0.260742
0.574249 0.667572 0.263214
0.621094 0.667938 0.265686
0.667023 0.667023 0.267120
0.711700 0.664276 0.267792
0.756378 0.660522 0.268402
0.802521 0.657166 0.269409
0.850739 0.655426 0.271149
0.900879 0.656006 0.273895
0.951477 0.658478 0.277344
0.166321 0.730164 0.317596
0.211090 0.719269 0.285889
0.260223 0.709686 0.260193
0.326904 0.710022 0.260712
0.386505 0.710541 0.262390
0.438812 0.711121 0.264343
0.485596 0.711823 0.266022
0.529846 0.712677 0.267242
0.574646 0.713684 0.268585
0.620941 0.714783 0.270111
0.668030 0.715485 0.271637
0.714783 0.714813 0.272919
0.760956 0.712311 0.273865
0.807465 0.708588 0.274811
0.855377 0.704803 0.276062
0.904938 0.701904 0.278168
0.955078 0.700470 0.280945
0.176575 0.774536 0.327576
0.220398 0.765350 0.294952
0.268616 0.757416 0.268677
0.334167 0.757904 0.268158
0.392853 0.758606 0.268890
0.444397 0.759338 0.269958
0.490356 0.760071 0.270966
0.533447 0.760803 0.272034
0.576569 0.761719 0.273224
0.621399 0.762817 0.274628
0.668243 0.764069 0.276245
0.716309 0.764954 0.277954
0.764526 0.764526 0.279480
0.812500 0.762146 0.280701
0.860748 0.758057 0.281860
0.910034 0.752869 0.283417
0.959595 0.746918 0.285431
0.183655 0.822021 0.336334
0.226898 0.814453 0.302124
0.274994 0.807983 0.274994
0.340668 0.808502 0.274139
0.399506 0.809174 0.274719
0.451111 0.809875 0.275696
0.496918 0.810547 0.276672
0.539276 0.811279 0.277649
0.580841 0.812073 0.278717
0.623718 0.813080 0.279968
0.669037 0.814301 0.281464
0.716858 0.815704 0.283203
0.766479 0.816833 0.285065
0.816589 0.816589 0.286804
0.866394 0.814087 0.288300
0.916107 0.809052 0.289825
0.965515 0.800842 0.291351
0.191223 0.871216 0.346039
0.233948 0.865417 0.310028
0.282013 0.860596 0.281982
0.347931 0.861115 0.280762
0.407166 0.861786 0.281250
0.459076 0.862579 0.282166
0.504974 0.863281 0.283112
0.547119 0.864014 0.284058
0.587708 0.864746 0.285034
0.628632 0.865662 0.286163
0.671570 0.866791 0.287476
0.717651 0.868164 0.289062
0.767090 0.869751 0.290955
0.818756 0.871063 0.293030
0.870941 0.870972 0.294983
0.922546 0.868347 0.296967
0.972778 0.861389 0.298584
0.199249 0.921265 0.356750
0.241302 0.917419 0.318481
0.289368 0.914398 0.289337
0.355896 0.915100 0.287933
0.415863 0.915955 0.288452
0.468353 0.916870 0.289398
0.514587 0.917755 0.290405
0.556671 0.918579 0.291351
0.596680 0.919373 0.292328
0.636139 0.920258 0.293365
0.676453 0.921265 0.294495
0.719513 0.922455 0.295868
0.766907 0.924042 0.297577
0.818817 0.925903 0.299683
0.873383 0.927612 0.302032
0.928375 0.928375 0.304657
0.980835 0.925171 0.306885
0.207703 0.970947 0.368835
0.248596 0.969269 0.326965
0.296539 0.968262 0.296539
0.363861 0.969086 0.295288
0.424988 0.970093 0.296021
0.478241 0.971161 0.297058
0.524780 0.972198 0.298096
0.566650 0.973206 0.299072
0.606110 0.974182 0.300079
0.644714 0.975220 0.301086
0.683350 0.976349 0.302185
0.722961 0.977539 0.303375
0.766357 0.979034 0.304840
0.816284 0.980988 0.306824
0.872040 0.983429 0.309235
0.930542 0.986237 0.312256
0.989197 0.989197 0.315948
0.095673 0.130432 0.381958
0.161469 0.087769 0.350311
0.230347 0.050598 0.322266
0.297485 0.019897 0.297485
0.369812 0.024902 0.294556
0.428406 0.029449 0.290314
0.477417 0.033569 0.286743
0.521912 0.037476 0.284790
0.565704 0.041565 0.284882
0.609436 0.045929 0.286591
0.653198 0.050507 0.289703
0.697662 0.055511 0.294250
0.743530 0.061005 0.300201
