source/swift_cli/InfiniteArchLeicaCLI/Sources/q3test/Resources/Silver.CUBE
#Created by: Leica Camera AG | Wetzlar | Germany
#Unique Leica Look ID: 24
#Based Filmstyle Mode: Standard
TITLE "Silver"
#LUT size
LUT_3D_SIZE 5
#data domain
DOMAIN_MIN 0.0 0.0 0.0
DOMAIN_MAX 1.0 1.0 1.0
#LUT data points
0.003967 0.003967 0.003967
0.371826 0.019745 0.019745
0.566986 0.037598 0.037598
0.744263 0.057526 0.057526
0.933899 0.084595 0.084595
0.044586 0.379517 0.044586
0.379272 0.379272 0.056366
0.569427 0.360199 0.065521
0.745056 0.371429 0.082611
0.936859 0.404602 0.110626
0.081757 0.576202 0.081757
0.373932 0.576538 0.089478
0.576294 0.576263 0.100800
0.748688 0.554962 0.108063
0.943176 0.568512 0.128632
0.123535 0.757080 0.123535
0.401520 0.758820 0.127228
0.570587 0.761169 0.131348
0.764648 0.764648 0.138428
0.956940 0.734222 0.142365
0.152161 0.966766 0.152161
0.444458 0.970001 0.155487
0.598572 0.973267 0.158691
0.755066 0.977783 0.163208
0.988495 0.988525 0.173889
0.116730 0.158966 0.460083
0.367767 0.027161 0.367767
0.565247 0.043365 0.348969
0.743225 0.062500 0.359924
0.934082 0.089539 0.391479
0.174927 0.466675 0.466705
0.375488 0.375488 0.375488
0.568207 0.359772 0.359802
0.743958 0.358246 0.358246
0.936279 0.372406 0.372375
0.186005 0.627777 0.448975
0.373535 0.575653 0.373535
0.575287 0.575287 0.377838
0.749878 0.565338 0.377289
0.946472 0.580017 0.390228
0.215027 0.787201 0.468536
0.389771 0.758606 0.389771
0.579559 0.762085 0.393555
0.765533 0.765533 0.399353
0.962097 0.757233 0.405823
0.245392 0.974182 0.508728
0.415710 0.970825 0.415680
0.608734 0.975220 0.419006
0.775543 0.980438 0.424164
0.990204 0.990204 0.434998
0.167633 0.226654 0.654510
0.379730 0.108948 0.597046
0.560944 0.050537 0.560944
0.742310 0.067841 0.538727
0.934357 0.094055 0.549957
0.214905 0.485443 0.655212
0.387573 0.400574 0.596588
0.564453 0.359833 0.564453
0.743805 0.360565 0.554047
0.937195 0.375214 0.567444
0.249298 0.656830 0.656830
0.413788 0.604645 0.604675
0.574738 0.574738 0.574738
0.750732 0.567505 0.567474
0.947876 0.573700 0.573669
0.259888 0.801941 0.642975
0.426178 0.776825 0.605896
0.581207 0.763245 0.581207
0.767578 0.767578 0.586243
0.966370 0.771088 0.591766
0.282318 0.977722 0.664795
0.450928 0.975830 0.633484
0.602875 0.977081 0.602875
0.787964 0.983276 0.608612
0.992493 0.992493 0.617676
0.211945 0.284668 0.813660
0.408875 0.169861 0.777924
0.558075 0.122894 0.760315
0.739899 0.076447 0.739868
0.934906 0.100220 0.708984
0.255737 0.521301 0.812439
0.407440 0.431335 0.776855
0.570007 0.393890 0.758850
0.742462 0.364594 0.742432
0.938416 0.380096 0.733917
0.279907 0.661469 0.811798
0.431824 0.616150 0.780609
0.580750 0.588074 0.763000
0.751129 0.569641 0.751129
0.951324 0.577057 0.756378
0.314453 0.819183 0.819183
0.461426 0.792999 0.792999
0.605957 0.779999 0.779999
0.769623 0.769623 0.769623
0.969940 0.774902 0.774902
0.319977 0.981415 0.809570
0.479675 0.980133 0.800568
0.626831 0.982025 0.798920
0.791382 0.986450 0.791382
0.995636 0.995667 0.800323
0.261627 0.348816 0.965698
0.451660 0.231445 0.952515
0.582153 0.191772 0.946503
0.722076 0.157410 0.941315
0.936951 0.114349 0.936951
0.304413 0.570068 0.962738
0.438812 0.473541 0.951355
0.594757 0.435852 0.945221
0.742767 0.412079 0.941803
0.942322 0.389496 0.942322
0.323730 0.690643 0.963074
0.462982 0.647949 0.953613
0.599426 0.614502 0.948669
0.761566 0.597260 0.949188
0.956299 0.582428 0.956268
0.345947 0.812653 0.967316
0.486389 0.797760 0.963806
0.624084 0.793518 0.964813
0.779907 0.784180 0.967468
0.974884 0.779602 0.974854
0.387299 0.987762 0.987732
0.521606 0.986206 0.986206
0.654694 0.987762 0.987732
0.808380 0.991882 0.991882
1.000000 1.000000 1.000000
