source/swift_cli/InfiniteArchLeicaCLI/Sources/q3test/Resources/Silver.CUBE
#Created by: Leica Camera AG | Wetzlar | Germany
#Unique Leica Look ID: 24
#Based Filmstyle Mode: Standard
TITLE "Silver"
#LUT size
LUT_3D_SIZE 9
#data domain
DOMAIN_MIN 0.0 0.0 0.0
DOMAIN_MAX 1.0 1.0 1.0
#LUT data points
0.003967 0.003967 0.003967
0.214203 0.009583 0.009583
0.371826 0.019745 0.019745
0.478851 0.029022 0.029022
0.566986 0.037598 0.037598
0.654449 0.046814 0.046814
0.744263 0.057526 0.057526
0.840607 0.070618 0.070618
0.933899 0.084595 0.084595
0.019531 0.218048 0.019531
0.218353 0.218323 0.025208
0.373260 0.217133 0.033875
0.479706 0.215210 0.041565
0.567383 0.217072 0.048889
0.654449 0.223572 0.057434
0.744324 0.234161 0.067627
0.840057 0.248932 0.080444
0.934540 0.268066 0.094879
0.044586 0.379517 0.044586
0.226959 0.378815 0.048798
0.379272 0.379272 0.056366
0.484100 0.368195 0.060974
0.569427 0.360199 0.065521
0.655548 0.362030 0.072693
0.745056 0.371429 0.082611
0.840698 0.385925 0.095428
0.936859 0.404602 0.110626
0.064789 0.487915 0.064758
0.234039 0.487427 0.068054
0.375275 0.488922 0.074371
0.487152 0.487152 0.080353
0.573090 0.473541 0.082489
0.657471 0.464508 0.086578
0.746094 0.466034 0.094482
0.841431 0.475983 0.106598
0.938873 0.488220 0.120880
0.081757 0.576202 0.081757
0.243378 0.575867 0.084473
0.373932 0.576538 0.089478
0.479675 0.577637 0.095215
0.576294 0.576263 0.100800
0.661926 0.564880 0.103607
0.748688 0.554962 0.108063
0.843201 0.557800 0.118256
0.943176 0.568512 0.128632
0.100800 0.664551 0.100800
0.258728 0.664459 0.103394
0.383850 0.665192 0.107971
0.478729 0.666138 0.112701
0.572235 0.667786 0.118591
0.667725 0.667725 0.124573
0.755615 0.656891 0.126312
0.848785 0.645752 0.128998
0.949493 0.649597 0.134918
0.123535 0.757080 0.123535
0.279449 0.757568 0.124939
0.401520 0.758820 0.127228
0.488251 0.759827 0.129181
0.570587 0.761169 0.131348
0.665039 0.763702 0.134644
0.764648 0.764648 0.138428
0.859558 0.752869 0.140503
0.956940 0.734222 0.142365
0.137573 0.860474 0.137573
0.297913 0.860840 0.138763
0.421051 0.862091 0.140808
0.504272 0.862976 0.142395
0.580566 0.864105 0.144135
0.662994 0.865875 0.146454
0.762421 0.869110 0.150177
0.870758 0.870758 0.154694
0.970886 0.853973 0.156342
0.152161 0.966766 0.152161
0.320190 0.967957 0.153412
0.444458 0.970001 0.155487
0.522644 0.971497 0.156982
0.598572 0.973267 0.158691
0.675415 0.975342 0.160767
0.755066 0.977783 0.163208
0.865448 0.982391 0.167755
0.988495 0.988525 0.173889
0.069366 0.094482 0.281403
0.212524 0.012939 0.212524
0.369965 0.022705 0.210297
0.477631 0.031647 0.208527
0.566132 0.039948 0.210754
0.653656 0.048981 0.217407
0.743866 0.059570 0.228119
0.839813 0.072449 0.242889
0.933929 0.086639 0.261719
0.102783 0.289246 0.289246
0.216858 0.216858 0.216858
0.371246 0.216827 0.216858
0.478424 0.214020 0.214020
0.566437 0.213287 0.213348
0.653625 0.216034 0.216064
0.743805 0.222015 0.222046
0.839447 0.231201 0.231201
0.934387 0.241821 0.241821
0.116821 0.428223 0.289886
0.226349 0.376740 0.226349
0.376495 0.376465 0.229340
0.482635 0.367676 0.226959
0.568634 0.359436 0.224609
0.654785 0.357788 0.226105
0.744385 0.361511 0.231018
0.839905 0.370056 0.239349
0.936310 0.382477 0.250916
0.128906 0.524719 0.291077
0.232635 0.486176 0.232635
0.374634 0.487427 0.236664
0.484833 0.484802 0.239044
0.572449 0.474487 0.237427
0.657379 0.467651 0.237823
0.746216 0.468536 0.242188
0.841461 0.476929 0.250824
0.939453 0.490875 0.263550
0.140900 0.605591 0.296600
0.239777 0.575134 0.239746
0.373260 0.575928 0.242889
0.480499 0.576996 0.247192
0.575043 0.575012 0.250275
0.661896 0.567169 0.251282
0.749481 0.561798 0.254242
0.844025 0.565979 0.262177
0.945068 0.576996 0.270905
0.156677 0.687775 0.308929
0.251923 0.663940 0.251923
0.380127 0.664764 0.254456
0.481537 0.666016 0.258545
0.574249 0.667572 0.263214
0.667023 0.667023 0.267120
0.756378 0.660522 0.268402
0.850739 0.655426 0.271149
0.951477 0.658478 0.277344
0.176575 0.774536 0.327576
0.268616 0.757416 0.268677
0.392853 0.758606 0.268890
0.490356 0.760071 0.270966
0.576569 0.761719 0.273224
0.668243 0.764069 0.276245
0.764526 0.764526 0.279480
0.860748 0.758057 0.281860
0.959595 0.746918 0.285431
0.191223 0.871216 0.346039
0.282013 0.860596 0.281982
0.407166 0.861786 0.281250
0.504974 0.863281 0.283112
0.587708 0.864746 0.285034
0.671570 0.866791 0.287476
0.767090 0.869751 0.290955
0.870941 0.870972 0.294983
0.972778 0.861389 0.298584
0.207703 0.970947 0.368835
0.296539 0.968262 0.296539
0.424988 0.970093 0.296021
0.524780 0.972198 0.298096
0.606110 0.974182 0.300079
0.683350 0.976349 0.302185
0.766357 0.979034 0.304840
0.872040 0.983429 0.309235
0.989197 0.989197 0.315948
0.116730 0.158966 0.460083
0.243530 0.081573 0.408325
0.367767 0.027161 0.367767
0.477234 0.035645 0.356506
0.565247 0.043365 0.348969
0.652802 0.052063 0.350769
0.743225 0.062500 0.359924
0.839539 0.075348 0.373901
0.934082 0.089539 0.391479
0.146271 0.330322 0.462524
0.247620 0.261108 0.406616
0.368835 0.217041 0.368835
0.477997 0.215820 0.360260
0.565796 0.214630 0.352417
0.652985 0.216705 0.350861
0.743256 0.221863 0.354584
0.839172 0.230164 0.362854
0.934570 0.241272 0.374756
0.174927 0.466675 0.466705
0.270233 0.414703 0.414703
0.375488 0.375488 0.375488
0.482452 0.368347 0.368347
0.568207 0.359772 0.359802
0.654327 0.356750 0.356750
0.743958 0.358246 0.358246
0.839539 0.363892 0.363892
0.936279 0.372406 0.372375
0.180237 0.554443 0.455750
0.273865 0.516205 0.409851
0.375244 0.487274 0.375244
0.484924 0.484894 0.374908
0.572266 0.475220 0.368958
0.657288 0.468567 0.365540
0.746033 0.468048 0.366699
0.841248 0.473389 0.372284
0.939453 0.482697 0.381775
0.186005 0.627777 0.448975
0.277100 0.598328 0.406006
0.373535 0.575653 0.373535
0.481201 0.576904 0.376526
0.575287 0.575287 0.377838
0.662109 0.568756 0.376404
0.749878 0.565338 0.377289
0.844543 0.569885 0.383118
0.946472 0.580017 0.390228
0.197968 0.704742 0.454071
0.286255 0.681854 0.410706
0.379272 0.664642 0.379272
0.482452 0.666046 0.382324
0.575745 0.667755 0.386139
0.667664 0.667664 0.388580
0.757172 0.663391 0.389008
0.852173 0.662018 0.391449
0.953766 0.667450 0.397491
0.215027 0.787201 0.468536
0.299988 0.770630 0.422424
0.389771 0.758606 0.389771
0.489746 0.760223 0.391266
0.579559 0.762085 0.393555
0.670776 0.764526 0.396454
0.765533 0.765533 0.399353
0.861969 0.762421 0.401703
0.962097 0.757233 0.405823
0.229279 0.879059 0.486755
0.312347 0.868866 0.436432
0.401428 0.861938 0.401398
0.501648 0.863464 0.402313
0.590942 0.865234 0.404388
0.677429 0.867493 0.406952
0.770935 0.870483 0.410309
0.872467 0.872498 0.414215
0.974640 0.867584 0.418365
0.245392 0.974182 0.508728
0.327271 0.971588 0.453888
0.415710 0.970825 0.415680
0.517273 0.972900 0.416687
0.608734 0.975220 0.419006
0.691315 0.977600 0.421356
0.775543 0.980438 0.424164
0.877594 0.984680 0.428375
0.990204 0.990204 0.434998
0.145691 0.197632 0.569489
0.261292 0.125244 0.529419
0.374420 0.074036 0.498749
0.473389 0.039520 0.473389
0.564514 0.046967 0.459839
0.652130 0.055054 0.450836
0.742706 0.065063 0.452087
0.839203 0.077667 0.461243
0.934204 0.091675 0.472137
0.172668 0.353363 0.570740
0.264374 0.286987 0.527283
0.377106 0.245789 0.498260
0.473633 0.216125 0.473633
0.565125 0.216675 0.463470
0.652496 0.218719 0.456604
0.742889 0.223785 0.457214
0.838989 0.232147 0.464783
0.934845 0.243530 0.477234
0.197815 0.477234 0.572906
0.285950 0.428284 0.532349
0.383850 0.390991 0.501129
0.478424 0.365967 0.478424
0.567841 0.360657 0.468964
0.654144 0.357697 0.462433
0.743774 0.358978 0.461823
0.839478 0.364258 0.466736
0.936676 0.373077 0.475311
0.217651 0.573517 0.573517
0.302399 0.534515 0.534515
0.396240 0.505646 0.505676
0.483002 0.482971 0.482971
0.572174 0.475616 0.475616
0.657349 0.469116 0.469116
0.746033 0.467773 0.467773
0.841248 0.471466 0.471466
0.939606 0.478088 0.478088
0.219849 0.644318 0.561127
0.305267 0.615295 0.527069
0.396240 0.592865 0.500580
0.481659 0.576874 0.481659
0.575745 0.575714 0.481689
0.662506 0.569824 0.477997
0.750244 0.566681 0.476685
0.845001 0.569702 0.480286
0.946960 0.575806 0.485443
0.226013 0.716156 0.554749
0.311707 0.694672 0.524811
0.400452 0.677917 0.500366
0.483124 0.666290 0.483124
0.576813 0.668182 0.486237
0.668457 0.668427 0.487610
0.757965 0.665375 0.487061
0.853394 0.665955 0.488983
0.955505 0.672302 0.493958
0.238434 0.794800 0.560272
0.323059 0.779907 0.531891
0.409210 0.768402 0.507294
0.489349 0.760590 0.489349
0.580627 0.762573 0.491425
0.672516 0.765106 0.494263
0.766541 0.766541 0.496857
0.863159 0.765778 0.499054
0.964447 0.765717 0.502869
0.250732 0.883453 0.573975
0.334991 0.874725 0.545624
0.420166 0.868073 0.518951
0.499664 0.863861 0.499664
0.590607 0.865753 0.501282
0.680847 0.868286 0.503998
0.773956 0.871338 0.507294
0.873962 0.873962 0.511108
0.976410 0.872589 0.514832
0.264343 0.975983 0.589630
0.350098 0.974182 0.564301
0.434296 0.973450 0.534149
0.512878 0.973755 0.512848
0.604889 0.976074 0.514526
0.695618 0.978821 0.517273
0.783142 0.981842 0.520264
0.882080 0.985962 0.524353
0.991302 0.991302 0.529968
0.167633 0.226654 0.654510
0.276520 0.157104 0.622040
0.379730 0.108948 0.597046
0.471863 0.076996 0.579163
0.560944 0.050537 0.560944
0.651672 0.058594 0.548889
0.742310 0.067841 0.538727
0.838928 0.080078 0.540619
0.934357 0.094055 0.549957
0.193115 0.372681 0.655243
0.277771 0.307281 0.620331
0.382141 0.267120 0.596252
0.474762 0.240265 0.578888
0.561188 0.217682 0.561188
0.652100 0.220947 0.552795
0.742645 0.225861 0.547028
0.838898 0.234161 0.550140
0.935120 0.245728 0.560059
0.214905 0.485443 0.655212
0.296997 0.437531 0.622528
0.387573 0.400574 0.596588
0.479401 0.378906 0.580566
0.564453 0.359833 0.564453
0.654022 0.359161 0.557709
0.743805 0.360565 0.554047
0.839630 0.365997 0.557770
0.937195 0.375214 0.567444
0.232880 0.575348 0.656525
0.313599 0.538971 0.625549
0.401703 0.510437 0.601410
0.485260 0.489929 0.584015
0.569305 0.473633 0.569305
0.657501 0.470093 0.563354
0.746307 0.468842 0.560120
0.841614 0.472412 0.562897
0.940216 0.479279 0.569641
0.249298 0.656830 0.656830
0.328003 0.626923 0.626923
0.413788 0.604645 0.604675
0.495148 0.588928 0.588928
0.574738 0.574738 0.574738
0.662933 0.570618 0.570648
0.750732 0.567505 0.567474
0.845795 0.569458 0.569489
0.947876 0.573700 0.573669
0.253479 0.727417 0.648041
0.334076 0.705841 0.622589
0.419006 0.689362 0.602936
0.498627 0.677887 0.589020
0.577545 0.668762 0.577545
0.669220 0.669250 0.578461
0.758850 0.666656 0.576874
0.854401 0.667389 0.578064
0.956635 0.672119 0.582031
0.259888 0.801941 0.642975
0.342194 0.787750 0.622772
0.426178 0.776825 0.605896
0.503906 0.769226 0.592712
0.581207 0.763245 0.581207
0.673676 0.765839 0.583923
0.767578 0.767578 0.586243
0.864349 0.768158 0.588196
0.966370 0.771088 0.591766
0.269257 0.887329 0.650238
0.352539 0.879303 0.632355
0.436584 0.873322 0.616608
0.513580 0.869324 0.602448
0.590302 0.866486 0.590302
0.682159 0.869110 0.592834
0.776154 0.872314 0.596191
0.875366 0.875366 0.599884
0.978149 0.876587 0.603485
0.282318 0.977722 0.664795
0.366760 0.976196 0.648651
0.450928 0.975830 0.633484
0.526611 0.976105 0.616364
0.602875 0.977081 0.602875
0.695435 0.979919 0.605347
0.787964 0.983276 0.608612
0.885712 0.987335 0.612671
0.992493 0.992493 0.617676
0.189331 0.255157 0.735138
0.293976 0.186584 0.708771
0.391754 0.139984 0.688660
0.473785 0.111603 0.675354
0.558594 0.086578 0.663208
0.648865 0.062531 0.648865
0.742157 0.071808 0.637146
0.838837 0.083191 0.625763
0.934570 0.096893 0.628326
0.214050 0.394775 0.735352
0.292969 0.328796 0.707642
0.391724 0.289062 0.688080
0.478210 0.263458 0.674408
0.561829 0.242950 0.662872
0.649078 0.222961 0.649048
0.742554 0.228699 0.641663
0.838989 0.236694 0.635986
0.935486 0.248077 0.638184
0.234100 0.500763 0.734436
0.310608 0.451538 0.708344
0.395691 0.414154 0.687347
0.482574 0.392914 0.674500
0.565979 0.376282 0.663940
0.651672 0.359802 0.651672
0.744019 0.362640 0.646820
0.839966 0.368134 0.645172
0.937714 0.377472 0.650085
0.248749 0.580536 0.734375
0.325500 0.545715 0.709717
0.408691 0.517456 0.690186
0.487885 0.497101 0.676208
0.570831 0.483582 0.666565
0.655609 0.469818 0.655609
0.746826 0.470581 0.652374
0.842255 0.474335 0.652924
0.941833 0.481110 0.659424
0.264160 0.658356 0.735718
0.339996 0.630585 0.712311
0.421936 0.609070 0.694275
0.499725 0.593658 0.681519
0.577393 0.581024 0.671173
0.661438 0.569733 0.661438
0.751495 0.568878 0.658997
0.847137 0.570740 0.660126
0.949585 0.575012 0.665131
0.281494 0.737488 0.737488
0.355988 0.715118 0.715118
0.436432 0.698700 0.698700
0.512604 0.687378 0.687378
0.588501 0.678436 0.678436
0.669098 0.669128 0.669098
0.759918 0.667847 0.667816
0.855652 0.668488 0.668457
0.958069 0.672150 0.672150
0.286285 0.810974 0.732086
0.363159 0.796356 0.714050
0.443542 0.785461 0.700531
0.518799 0.778015 0.690979
0.593811 0.772095 0.682709
0.674774 0.766815 0.674774
0.768799 0.768799 0.676941
0.865692 0.769989 0.678528
0.968109 0.773438 0.682007
0.290222 0.891907 0.728760
0.370422 0.884125 0.715912
0.452240 0.878479 0.706085
0.527771 0.874878 0.698669
0.602417 0.872192 0.690887
0.683075 0.870209 0.683075
0.777832 0.873535 0.686401
0.876923 0.876923 0.690063
0.979919 0.879730 0.693817
0.300629 0.979523 0.737640
0.382019 0.978088 0.725159
0.465118 0.977936 0.718262
0.540558 0.978516 0.712524
0.614716 0.979523 0.703827
0.695435 0.981323 0.695404
0.790070 0.984741 0.698639
0.888672 0.988861 0.702728
0.993958 0.993958 0.707703
0.211945 0.284668 0.813660
0.313873 0.216064 0.793488
0.408875 0.169861 0.777924
0.483887 0.144318 0.768524
0.558075 0.122894 0.760315
0.645081 0.099396 0.751129
0.739899 0.076447 0.739868
0.839050 0.088013 0.727509
0.934906 0.100220 0.708984
0.236481 0.419769 0.813721
0.310394 0.352539 0.793182
0.405304 0.312653 0.778107
0.487732 0.287567 0.767578
0.564667 0.268677 0.759247
0.648895 0.250153 0.750793
0.740143 0.231628 0.740143
0.839264 0.240265 0.732880
0.935944 0.251068 0.721680
0.255737 0.521301 0.812439
0.326996 0.469818 0.792908
0.407440 0.431335 0.776855
0.490814 0.410034 0.766846
0.570007 0.393890 0.758850
0.653229 0.379089 0.751373
0.742462 0.364594 0.742432
0.840515 0.370941 0.738831
0.938416 0.380096 0.733917
0.268066 0.593536 0.811768
0.340698 0.558838 0.793121
0.419586 0.529785 0.778168
0.495026 0.508850 0.767365
0.574738 0.495361 0.759979
0.658020 0.483429 0.753357
0.745941 0.471863 0.745941
0.843109 0.476776 0.745117
0.943604 0.483093 0.745941
0.279907 0.661469 0.811798
0.353119 0.636353 0.794312
0.431824 0.616150 0.780609
0.506256 0.600861 0.770874
0.580750 0.588074 0.763000
0.663940 0.578796 0.757324
0.751129 0.569641 0.751129
0.848846 0.572632 0.752655
0.951324 0.577057 0.756378
0.296387 0.737762 0.814056
0.368774 0.717682 0.797729
0.446442 0.702606 0.785248
0.520050 0.692108 0.776703
0.593323 0.683502 0.770386
0.672485 0.675232 0.764862
0.759949 0.668060 0.759949
0.857300 0.670105 0.761536
0.960052 0.673950 0.765350
0.314453 0.819183 0.819183
0.385315 0.803772 0.803772
0.461426 0.792999 0.792999
0.533569 0.785736 0.785736
0.605957 0.779999 0.779999
0.684326 0.774841 0.774811
0.769623 0.769623 0.769623
0.867279 0.771606 0.771576
0.969940 0.774902 0.774902
0.317993 0.898193 0.816650
0.392151 0.890045 0.805298
0.469818 0.884277 0.797302
0.542633 0.880707 0.792267
0.615204 0.878143 0.787964
0.693542 0.876221 0.783569
0.779358 0.875031 0.779358
0.878601 0.878601 0.782990
0.981842 0.882202 0.786713
0.319977 0.981415 0.809570
0.399109 0.980194 0.803497
0.479675 0.980133 0.800568
0.553772 0.980865 0.800232
0.626831 0.982025 0.798920
0.705444 0.983826 0.795410
0.791382 0.986450 0.791382
0.890991 0.990631 0.795502
0.995636 0.995667 0.800323
0.237030 0.317230 0.892609
0.336731 0.247375 0.878540
0.429596 0.201416 0.867950
0.500153 0.177704 0.861877
0.567688 0.158752 0.856842
0.642059 0.139069 0.851440
0.733673 0.116180 0.845184
0.837067 0.093872 0.837067
0.935699 0.106415 0.819763
0.261353 0.448090 0.891968
0.330414 0.378998 0.878510
0.422455 0.338593 0.868225
0.502808 0.313507 0.860931
0.575012 0.295807 0.855438
0.650360 0.279419 0.850281
0.738342 0.261871 0.844788
0.837189 0.244537 0.837189
0.936920 0.255920 0.826874
0.280090 0.545410 0.890442
0.346252 0.491974 0.877594
0.422607 0.452087 0.866852
0.503662 0.430389 0.859924
0.580444 0.414337 0.854431
0.657623 0.400635 0.849701
0.743469 0.387329 0.845245
0.839600 0.374298 0.839600
0.939575 0.384125 0.834320
0.290985 0.612366 0.889526
0.359497 0.577698 0.877136
0.434174 0.547028 0.867126
0.506470 0.524963 0.859802
0.583862 0.511200 0.854767
0.663757 0.499634 0.850555
0.748901 0.489319 0.847046
0.843140 0.479614 0.843109
0.946045 0.485809 0.843506
0.300690 0.673767 0.889069
0.370544 0.649689 0.877502
0.445892 0.629944 0.868408
0.517181 0.613708 0.861908
0.588928 0.600098 0.856689
0.669617 0.590759 0.853180
0.755371 0.582733 0.851074
0.850067 0.574493 0.850067
0.953583 0.579559 0.852600
0.312836 0.739075 0.889862
0.383331 0.722015 0.879333
0.458832 0.709381 0.871368
0.530121 0.700470 0.866272
0.600983 0.692017 0.862976
0.677734 0.683533 0.860321
0.764191 0.677551 0.859375
0.858612 0.671753 0.858612
0.962433 0.676331 0.862244
0.330475 0.817413 0.895142
0.399445 0.804779 0.886078
0.473358 0.795990 0.879791
0.543671 0.790375 0.875885
0.614197 0.785675 0.873047
0.690460 0.780853 0.870758
0.774170 0.776276 0.869141
0.868652 0.773041 0.868622
0.972260 0.777130 0.872589
0.348969 0.903656 0.903656
0.416321 0.894806 0.894806
0.489319 0.889343 0.889343
0.558838 0.886108 0.886108
0.628693 0.883820 0.883789
0.704376 0.882080 0.882050
0.787476 0.880920 0.880920
0.880341 0.880341 0.880341
0.984009 0.884430 0.884430
0.351288 0.984406 0.899719
0.423492 0.983154 0.895355
0.499023 0.983002 0.893372
0.569550 0.983643 0.893066
0.640015 0.984741 0.893066
0.716278 0.986572 0.893036
0.799622 0.989105 0.892883
0.893066 0.992706 0.893066
0.997681 0.997681 0.897919
0.261627 0.348816 0.965698
0.361023 0.276978 0.958527
0.451660 0.231445 0.952515
0.516693 0.210388 0.949402
0.582153 0.191772 0.946503
0.650116 0.174286 0.943817
0.722076 0.157410 0.941315
0.823517 0.133942 0.938232
0.936951 0.114349 0.936951
0.286285 0.477264 0.964325
0.350342 0.405029 0.957886
0.440918 0.364380 0.952240
0.520355 0.339233 0.948212
0.589722 0.322479 0.945435
0.657898 0.308319 0.943146
0.732727 0.294006 0.940948
0.829987 0.276611 0.938843
0.938293 0.263123 0.938293
0.304413 0.570068 0.962738
0.366364 0.515015 0.956573
0.438812 0.473541 0.951355
0.518341 0.451965 0.947906
0.594757 0.435852 0.945221
0.666931 0.423431 0.943298
0.742767 0.412079 0.941803
0.836609 0.399536 0.940765
0.942322 0.389496 0.942322
0.314087 0.631348 0.962585
0.379913 0.598816 0.956604
0.450684 0.566040 0.951874
0.519501 0.542664 0.948547
0.595642 0.528961 0.946411
0.673950 0.517517 0.944824
0.752350 0.508270 0.943878
0.843903 0.498962 0.944580
0.949127 0.489410 0.949127
0.323730 0.690643 0.963074
0.390717 0.667450 0.957642
0.462982 0.647949 0.953613
0.530518 0.629364 0.950775
0.599426 0.614502 0.948669
0.678680 0.605133 0.947601
0.761566 0.597260 0.949188
0.852905 0.589752 0.952057
0.956299 0.582428 0.956268
0.334290 0.750275 0.964233
0.401550 0.732513 0.959412
0.474731 0.721680 0.956543
0.543213 0.714020 0.956055
0.611420 0.704376 0.955719
0.685974 0.694916 0.956085
0.770477 0.688904 0.957886
0.862488 0.683716 0.960785
0.964905 0.679016 0.964905
0.345947 0.812653 0.967316
0.413757 0.803070 0.964691
0.486389 0.797760 0.963806
0.555206 0.795929 0.964142
0.624084 0.793518 0.964813
0.698395 0.789093 0.965790
0.779907 0.784180 0.967468
0.872772 0.781525 0.970551
0.974884 0.779602 0.974854
0.365143 0.896912 0.976715
0.431213 0.891205 0.974640
0.502411 0.888275 0.974060
0.570160 0.887421 0.974457
0.638306 0.886993 0.975372
0.712341 0.886475 0.976807
0.793427 0.885895 0.978943
0.884460 0.885620 0.982086
0.986511 0.886780 0.986511
0.387299 0.987762 0.987732
0.451752 0.986450 0.986420
0.521606 0.986206 0.986206
0.587738 0.986755 0.986755
0.654694 0.987762 0.987732
0.727966 0.989441 0.989410
0.808380 0.991882 0.991882
0.898773 0.995392 0.995392
1.000000 1.000000 1.000000
