working/Infinite_Arch_Leica_Looks_v1.2/looks/ember/look.CUBE
#Created by: Infinite Arch Leica Looks v1.0
#Unique Leica Look ID: 1009
#Based Filmstyle Mode: Standard
TITLE "IA Ember"
#LUT size
LUT_3D_SIZE 5
#data domain
DOMAIN_MIN 0.0 0.0 0.0
DOMAIN_MAX 1.0 1.0 1.0
#LUT data points
0.000000 0.000000 0.000000
0.282497 0.000000 0.000000
0.668508 0.000000 0.000000
1.000000 0.000000 0.000000
1.000000 0.000000 0.000000
0.000000 0.254216 0.000000
0.255549 0.235602 0.000000
0.685638 0.142696 0.000000
1.000000 0.064341 0.000000
1.000000 0.014614 0.000000
0.000000 0.637851 0.000000
0.217999 0.628699 0.000000
0.648765 0.599007 0.000000
1.000000 0.468210 0.000000
1.000000 0.362962 0.000000
0.000000 0.952940 0.000000
0.247785 0.941179 0.000000
0.694761 0.923737 0.000000
0.987245 0.894998 0.000000
1.000000 0.873399 0.000000
0.000000 1.000000 0.000000
0.358967 1.000000 0.000000
0.768321 1.000000 0.000000
0.979254 1.000000 0.000000
1.000000 1.000000 0.000000
0.000000 0.000000 0.215472
0.211871 0.000000 0.214969
0.601140 0.000000 0.198190
0.957423 0.000000 0.180563
1.000000 0.000000 0.316192
0.000000 0.240286 0.236649
0.235319 0.222716 0.220160
0.670956 0.009919 0.078727
1.000000 0.000000 0.029071
1.000000 0.000000 0.030607
0.000000 0.628180 0.241955
0.175235 0.617688 0.155771
0.628727 0.587439 0.210572
1.000000 0.328428 0.000000
1.000000 0.147743 0.000000
0.000000 0.946638 0.179880
0.205204 0.936964 0.087810
0.598671 0.915817 0.062615
0.974122 0.887631 0.184291
1.000000 0.641963 0.000000
0.005711 1.000000 0.097982
0.328914 1.000000 0.027580
0.647401 1.000000 0.000000
0.975671 1.000000 0.134208
1.000000 1.000000 0.157810
0.000000 0.000000 0.551869
0.192351 0.000000 0.559339
0.573292 0.000000 0.535845
0.929019 0.000000 0.515455
1.000000 0.000000 0.504196
0.000000 0.225025 0.587640
0.197985 0.207122 0.571795
0.576238 0.177495 0.550984
0.916272 0.147722 0.522019
1.000000 0.120753 0.503848
0.000000 0.612238 0.601031
0.192818 0.603465 0.590648
0.589479 0.567680 0.567494
0.961011 0.352234 0.418670
1.000000 0.160710 0.339871
0.000000 0.934412 0.617067
0.156482 0.923124 0.567028
0.561959 0.904511 0.519472
0.925040 0.877885 0.568004
1.000000 0.620931 0.263670
0.000000 1.000000 0.486600
0.308917 1.000000 0.415686
0.617046 1.000000 0.359192
0.972373 1.000000 0.472154
1.000000 1.000000 0.497220
0.000000 0.000000 0.846112
0.184357 0.000000 0.857448
0.549664 0.000000 0.836709
0.894311 0.000000 0.802276
1.000000 0.000000 0.789537
0.000000 0.206158 0.891319
0.171350 0.188959 0.879731
0.545580 0.164671 0.852437
0.876443 0.139945 0.810523
1.000000 0.122484 0.777403
0.000000 0.592140 0.908470
0.144747 0.579143 0.895509
0.550058 0.550520 0.869690
0.880471 0.517203 0.845577
1.000000 0.466515 0.821800
0.000000 0.921144 0.912520
0.189683 0.909369 0.899834
0.578745 0.896921 0.888073
0.889914 0.860437 0.860941
1.000000 0.679941 0.723875
0.054776 1.000000 0.866714
0.246428 1.000000 0.854219
0.578311 1.000000 0.817408
0.881483 1.000000 0.794269
1.000000 1.000000 0.853347
0.000000 0.000000 1.000000
0.187723 0.000000 1.000000
0.530168 0.000000 1.000000
0.877695 0.000000 1.000000
1.000000 0.000000 0.998217
0.000000 0.183543 1.000000
0.166732 0.174487 1.000000
0.527508 0.162495 1.000000
0.859139 0.132696 1.000000
1.000000 0.114816 1.000000
0.000000 0.554738 1.000000
0.139909 0.544836 1.000000
0.528751 0.511819 1.000000
0.853267 0.478260 1.000000
1.000000 0.442172 1.000000
0.000000 0.903807 1.000000
0.158761 0.885636 1.000000
0.544164 0.871209 1.000000
0.861625 0.849297 1.000000
1.000000 0.819041 1.000000
0.003917 1.000000 1.000000
0.335165 1.000000 1.000000
0.620572 1.000000 1.000000
0.889807 1.000000 1.000000
1.000000 1.000000 1.000000
