working/Infinite_Arch_Leica_Looks_v1.2/looks/ember/look.CUBE
#Created by: Infinite Arch Leica Looks v1.0
#Unique Leica Look ID: 1009
#Based Filmstyle Mode: Standard
TITLE "IA Ember"
#LUT size
LUT_3D_SIZE 17
#data domain
DOMAIN_MIN 0.0 0.0 0.0
DOMAIN_MAX 1.0 1.0 1.0
#LUT data points
0.000000 0.000000 0.000000
0.000000 0.000000 0.000000
0.075892 0.000000 0.000000
0.179255 0.000000 0.000000
0.282497 0.000000 0.000000
0.381637 0.000000 0.000000
0.478654 0.000000 0.000000
0.574351 0.000000 0.000000
0.668508 0.000000 0.000000
0.762684 0.000000 0.000000
0.851710 0.000000 0.000000
0.938999 0.000000 0.000000
1.000000 0.000000 0.000000
1.000000 0.000000 0.000000
1.000000 0.000000 0.000000
1.000000 0.000000 0.000000
1.000000 0.000000 0.000000
0.000000 0.000000 0.000000
0.000000 0.000000 0.000000
0.084377 0.000000 0.000000
0.191948 0.000000 0.000000
0.297266 0.000000 0.000000
0.397761 0.000000 0.000000
0.495184 0.000000 0.000000
0.591010 0.000000 0.000000
0.684607 0.000000 0.000000
0.776777 0.000000 0.000000
0.863688 0.000000 0.000000
0.949701 0.000000 0.000000
1.000000 0.000000 0.000000
1.000000 0.000000 0.000000
1.000000 0.000000 0.000000
1.000000 0.000000 0.000000
1.000000 0.000000 0.000000
0.000000 0.040102 0.000000
0.000000 0.037999 0.000000
0.039436 0.030191 0.000000
0.195241 0.016600 0.000000
0.300773 0.000000 0.000000
0.399246 0.000000 0.000000
0.497857 0.000000 0.000000
0.593346 0.000000 0.000000
0.687804 0.000000 0.000000
0.781486 0.000000 0.000000
0.869305 0.000000 0.000000
0.956240 0.000000 0.000000
1.000000 0.000000 0.000000
1.000000 0.000000 0.000000
1.000000 0.000000 0.000000
1.000000 0.000000 0.000000
1.000000 0.000000 0.000000
0.000000 0.149399 0.000000
0.000000 0.147993 0.000000
0.047943 0.144574 0.000000
0.150094 0.134937 0.000000
0.303816 0.117459 0.000000
0.401076 0.090417 0.000000
0.498619 0.070057 0.000000
0.592783 0.052299 0.000000
0.686433 0.032274 0.000000
0.777723 0.012436 0.000000
0.865005 0.000000 0.000000
0.951312 0.000000 0.000000
1.000000 0.000000 0.000000
1.000000 0.000000 0.000000
1.000000 0.000000 0.000000
1.000000 0.000000 0.000000
1.000000 0.000000 0.000000
0.000000 0.254216 0.000000
0.000000 0.252392 0.000000
0.024667 0.249562 0.000000
0.159398 0.244794 0.000000
0.255549 0.235602 0.000000
0.360703 0.235694 0.000000
0.501973 0.186204 0.000000
0.594326 0.162935 0.000000
0.685638 0.142696 0.000000
0.775987 0.122481 0.000000
0.862175 0.102180 0.000000
0.947788 0.081090 0.000000
1.000000 0.064341 0.000000
1.000000 0.049578 0.000000
1.000000 0.035681 0.000000
1.000000 0.024047 0.000000
1.000000 0.014614 0.000000
0.000000 0.355807 0.000000
0.000000 0.354283 0.000000
0.004341 0.350745 0.000000
0.120359 0.348123 0.000000
0.262794 0.340896 0.000000
0.357986 0.331919 0.000000
0.461079 0.332071 0.000000
0.600036 0.275058 0.000000
0.689547 0.248677 0.000000
0.777914 0.225435 0.000000
0.862798 0.203952 0.000000
0.946879 0.182665 0.000000
1.000000 0.161116 0.000000
1.000000 0.140979 0.000000
1.000000 0.122313 0.000000
1.000000 0.104898 0.000000
1.000000 0.090381 0.000000
0.000000 0.453627 0.000000
0.000000 0.453549 0.000000
0.000000 0.451135 0.000000
0.107089 0.446951 0.000000
0.268416 0.440856 0.000000
0.368039 0.434350 0.000000
0.457632 0.424596 0.000000
0.556878 0.425701 0.000000
0.694450 0.359310 0.000000
0.781391 0.333092 0.000000
0.865755 0.307637 0.000000
0.947903 0.284410 0.000000
1.000000 0.262558 0.000000
1.000000 0.240048 0.000000
1.000000 0.217686 0.000000
1.000000 0.194143 0.000000
1.000000 0.171249 0.000000
0.000000 0.547177 0.000000
0.000000 0.546621 0.000000
0.000000 0.544006 0.000000
0.102075 0.539992 0.000000
0.218932 0.536360 0.000000
0.376184 0.530220 0.000000
0.467833 0.523591 0.000000
0.553829 0.512645 0.000000
0.650939 0.515089 0.000000
0.737872 0.502985 0.000000
0.871062 0.414881 0.000000
0.952123 0.388381 0.000000
1.000000 0.364792 0.000000
1.000000 0.340089 0.000000
1.000000 0.318737 0.000000
1.000000 0.294360 0.000000
1.000000 0.262806 0.000000
0.000000 0.637851 0.000000
0.000000 0.638471 0.000000
0.000000 0.634620 0.000000
0.103725 0.632521 0.000000
0.217999 0.628699 0.000000
0.384848 0.623409 0.000000
0.476318 0.617751 0.000000
0.566132 0.610190 0.000000
0.648765 0.599007 0.000000
0.742826 0.600677 0.000000
0.827896 0.590856 0.000000
0.957817 0.493686 0.000000
1.000000 0.468210 0.000000
1.000000 0.442889 0.000000
1.000000 0.419894 0.000000
1.000000 0.394186 0.000000
1.000000 0.362962 0.000000
0.000000 0.724703 0.000000
0.000000 0.725114 0.000000
0.000000 0.722596 0.000000
0.108976 0.718543 0.000000
0.220669 0.714795 0.000000
0.325006 0.711443 0.000000
0.487711 0.704784 0.000000
0.575473 0.698791 0.000000
0.661549 0.690974 0.000000
0.740786 0.679487 0.000000
0.832167 0.682307 0.000000
0.912794 0.673664 0.000000
0.989401 0.661439 0.000000
1.000000 0.546305 0.000000
1.000000 0.522186 0.000000
1.000000 0.495500 0.000000
1.000000 0.460987 0.000000
0.000000 0.804927 0.000000
0.000000 0.805476 0.000000
0.000000 0.803052 0.000000
0.116897 0.797536 0.000000
0.224960 0.793761 0.000000
0.327758 0.790792 0.000000
0.498364 0.784784 0.000000
0.586764 0.779743 0.000000
0.671024 0.773556 0.000000
0.754264 0.765907 0.000000
0.829005 0.754376 0.000000
0.916123 0.758701 0.000000
0.993498 0.751301 0.000000
1.000000 0.740448 0.000000
1.000000 0.620827 0.000000
1.000000 0.592516 0.000000
1.000000 0.555737 0.000000
0.000000 0.879840 0.000000
0.000000 0.878819 0.000000
0.017974 0.876576 0.000000
0.128112 0.873018 0.000000
0.234221 0.868477 0.000000
0.333135 0.865807 0.000000
0.430000 0.862297 0.000000
0.598171 0.855576 0.000000
0.682204 0.850633 0.000000
0.763176 0.843437 0.000000
0.841617 0.837033 0.000000
0.911907 0.825786 0.000000
0.994936 0.830885 0.000000
1.000000 0.824432 0.000000
1.000000 0.814263 0.000000
1.000000 0.802551 0.000000
1.000000 0.646814 0.000000
0.000000 0.952940 0.000000
0.000000 0.950234 0.000000
0.041069 0.947341 0.000000
0.145266 0.944918 0.000000
0.247785 0.941179 0.000000
0.344677 0.937693 0.000000
0.438166 0.934383 0.000000
0.612816 0.927706 0.000000
0.694761 0.923737 0.000000
0.773180 0.917904 0.000000
0.848916 0.911981 0.000000
0.923068 0.905904 0.000000
0.987245 0.894998 0.000000
1.000000 0.901559 0.000000
1.000000 0.896070 0.000000
1.000000 0.887082 0.000000
1.000000 0.873399 0.000000
0.000000 1.000000 0.000000
0.000000 1.000000 0.000000
0.064596 1.000000 0.000000
0.164204 1.000000 0.000000
0.263546 1.000000 0.000000
0.358693 1.000000 0.000000
0.449767 1.000000 0.000000
0.628860 0.998818 0.000000
0.707639 0.995086 0.000000
0.784339 0.990695 0.000000
0.857181 0.986064 0.000000
0.929551 0.979856 0.000000
0.991684 0.975072 0.000000
1.000000 0.963858 0.000000
1.000000 0.971475 0.000000
1.000000 0.967452 0.000000
1.000000 0.954012 0.000000
0.000000 1.000000 0.000000
0.000000 1.000000 0.000000
0.091017 1.000000 0.000000
0.191247 1.000000 0.000000
0.284687 1.000000 0.000000
0.374076 1.000000 0.000000
0.461813 1.000000 0.000000
0.548398 1.000000 0.000000
0.722683 1.000000 0.000000
0.795591 1.000000 0.000000
0.868103 1.000000 0.000000
0.935895 1.000000 0.000000
0.988272 1.000000 0.000000
1.000000 1.000000 0.000000
1.000000 1.000000 0.000000
1.000000 1.000000 0.000000
1.000000 1.000000 0.000000
0.000000 1.000000 0.000000
0.023470 1.000000 0.000000
0.126931 1.000000 0.000000
0.226222 1.000000 0.000000
0.315677 1.000000 0.000000
0.398996 1.000000 0.000000
0.481624 1.000000 0.000000
0.564732 1.000000 0.000000
0.742463 1.000000 0.000000
0.812823 1.000000 0.000000
0.881610 1.000000 0.000000
0.938954 1.000000 0.000000
0.988173 1.000000 0.000000
1.000000 1.000000 0.000000
1.000000 1.000000 0.000000
1.000000 1.000000 0.000000
1.000000 1.000000 0.000000
0.000000 1.000000 0.000000
0.074686 1.000000 0.000000
0.175588 1.000000 0.000000
0.272464 1.000000 0.000000
0.358967 1.000000 0.000000
0.439098 1.000000 0.000000
0.516936 1.000000 0.000000
0.592347 1.000000 0.000000
0.768321 1.000000 0.000000
0.828984 1.000000 0.000000
0.886853 1.000000 0.000000
0.934208 1.000000 0.000000
0.979254 1.000000 0.000000
1.000000 1.000000 0.000000
1.000000 1.000000 0.000000
1.000000 1.000000 0.000000
1.000000 1.000000 0.000000
0.000000 0.000000 0.000000
0.000000 0.000000 0.000000
0.025905 0.000000 0.000000
0.170676 0.000000 0.000000
0.272257 0.000000 0.000000
0.372492 0.000000 0.000000
0.470425 0.000000 0.000000
0.564487 0.000000 0.000000
0.660068 0.000000 0.000000
0.753551 0.000000 0.000000
0.843726 0.000000 0.003324
0.931755 0.000000 0.008251
1.000000 0.000000 0.015277
1.000000 0.000000 0.022288
1.000000 0.000000 0.029221
1.000000 0.000000 0.035571
1.000000 0.000000 0.038497
0.000000 0.000000 0.000000
0.000000 0.000000 0.000000
0.077688 0.000000 0.000000
0.185265 0.000000 0.000000
0.285800 0.000000 0.000000
0.384313 0.000000 0.000000
0.481830 0.000000 0.000000
0.574323 0.000000 0.000000
0.668686 0.000000 0.000000
0.759907 0.000000 0.000000
0.850040 0.000000 0.000000
0.936422 0.000000 0.000000
1.000000 0.000000 0.000000
1.000000 0.000000 0.000000
1.000000 0.000000 0.000000
1.000000 0.000000 0.000000
1.000000 0.000000 0.000000
0.000000 0.036570 0.000000
0.000000 0.035586 0.000000
0.035590 0.028058 0.000000
0.189627 0.000000 0.000000
0.297191 0.000000 0.000000
0.395191 0.000000 0.000000
0.492986 0.000000 0.000000
0.585880 0.000000 0.000000
0.679497 0.000000 0.000000
0.770489 0.000000 0.000000
0.858362 0.000000 0.000000
0.944080 0.000000 0.000000
1.000000 0.000000 0.000000
1.000000 0.000000 0.000000
1.000000 0.000000 0.000000
1.000000 0.000000 0.000000
1.000000 0.000000 0.000000
0.000000 0.146441 0.000000
0.000000 0.146135 0.000000
0.016124 0.139969 0.000000
0.147253 0.131857 0.000000
0.298658 0.084829 0.000000
0.397558 0.053209 0.000000
0.497048 0.028912 0.000000
0.589880 0.006026 0.000000
0.683185 0.000000 0.000000
0.773952 0.000000 0.000000
0.860732 0.000000 0.000000
0.946554 0.000000 0.000000
1.000000 0.000000 0.000000
1.000000 0.000000 0.000000
1.000000 0.000000 0.000000
1.000000 0.000000 0.000000
1.000000 0.000000 0.000000
0.000000 0.251854 0.000000
0.000000 0.249899 0.000000
0.009035 0.245915 0.000000
0.156190 0.244690 0.000000
0.253487 0.233765 0.000000
0.355889 0.231773 0.000000
0.497116 0.150073 0.000000
0.589396 0.123672 0.000000
0.681337 0.100383 0.000000
0.771942 0.079576 0.000000
0.858887 0.056713 0.000000
0.944659 0.037273 0.000000
1.000000 0.019910 0.000000
1.000000 0.002585 0.000000
1.000000 0.000000 0.000000
1.000000 0.000000 0.000000
1.000000 0.000000 0.000000
0.000000 0.354383 0.000000
0.000000 0.352318 0.000000
0.000000 0.347345 0.000000
0.108002 0.346609 0.000000
0.260442 0.342053 0.000000
0.356720 0.330658 0.000000
0.458093 0.332257 0.000000
0.596911 0.245423 0.000000
0.683964 0.209835 0.000000
0.772470 0.183961 0.000000
0.857901 0.159752 0.000000
0.942743 0.138923 0.000000
1.000000 0.117158 0.000000
1.000000 0.097614 0.000000
1.000000 0.078768 0.000000
1.000000 0.059407 0.000000
1.000000 0.045111 0.000000
0.000000 0.451544 0.000000
0.000000 0.451088 0.000000
0.000000 0.447091 0.000000
0.095098 0.442908 0.000000
0.214692 0.444687 0.000000
0.366846 0.436002 0.000000
0.456343 0.424707 0.000000
0.555344 0.427365 0.000000
0.692436 0.336654 0.000000
0.777972 0.299268 0.000000
0.861687 0.268164 0.000000
0.944003 0.241021 0.000000
1.000000 0.217100 0.000000
1.000000 0.193641 0.000000
1.000000 0.169796 0.000000
1.000000 0.144805 0.000000
1.000000 0.124380 0.000000
0.000000 0.545298 0.000000
0.000000 0.545213 0.000000
0.000000 0.541408 0.000000
0.089531 0.536378 0.000000
0.208074 0.536946 0.000000
0.374042 0.533046 0.000000
0.467243 0.524666 0.000000
0.551044 0.511814 0.000000
0.649885 0.518242 0.000000
0.734415 0.503740 0.000000
0.868682 0.385303 0.000000
0.948822 0.350489 0.000000
1.000000 0.324477 0.000000
1.000000 0.297161 0.000000
1.000000 0.272596 0.000000
1.000000 0.249643 0.000000
1.000000 0.218912 0.000000
0.000000 0.636817 0.000000
0.000000 0.638824 0.000000
0.000000 0.632818 0.000000
0.087882 0.629641 0.000000
0.204898 0.627691 0.000000
0.315222 0.627045 0.000000
0.476250 0.620628 0.000000
0.565952 0.610437 0.000000
0.645037 0.598253 0.000000
0.741714 0.604632 0.000000
0.824881 0.592539 0.000000
0.955929 0.469846 0.000000
1.000000 0.436187 0.000000
1.000000 0.406910 0.000000
1.000000 0.379407 0.000000
1.000000 0.354167 0.000000
1.000000 0.320739 0.000000
0.000000 0.723299 0.000000
0.000000 0.724180 0.000000
0.000000 0.720118 0.000000
0.093307 0.715452 0.000000
0.204946 0.714064 0.000000
0.311947 0.712546 0.000000
0.485052 0.707912 0.000000
0.575567 0.702293 0.000000
0.661480 0.691571 0.000000
0.737108 0.680038 0.000000
0.830990 0.686658 0.000000
0.910723 0.677607 0.000000
1.000000 0.551786 0.000000
1.000000 0.519410 0.000000
1.000000 0.488478 0.000000
1.000000 0.460389 0.000000
1.000000 0.424629 0.000000
0.000000 0.803177 0.000000
0.000000 0.804133 0.000000
0.000000 0.800726 0.000000
0.099826 0.795399 0.000000
0.209156 0.792973 0.000000
0.314380 0.790633 0.000000
0.416168 0.789050 0.000000
0.585365 0.783625 0.000000
0.671827 0.775741 0.000000
0.754039 0.766308 0.000000
0.824949 0.754246 0.000000
0.914557 0.762726 0.000000
0.991179 0.754999 0.000000
1.000000 0.742361 0.000000
1.000000 0.596548 0.000000
1.000000 0.564732 0.000000
1.000000 0.526023 0.000000
0.000000 0.878622 0.000000
0.000000 0.878026 0.000000
0.000000 0.876020 0.000000
0.107774 0.871319 0.000000
0.218431 0.866901 0.000000
0.319727 0.865761 0.000000
0.417944 0.863553 0.000000
0.595692 0.858088 0.000000
0.681992 0.853892 0.000000
0.764360 0.845208 0.000000
0.841351 0.837476 0.000000
0.907343 0.825634 0.000000
0.993994 0.835008 0.000000
1.000000 0.828224 0.000000
1.000000 0.816632 0.000000
1.000000 0.802474 0.000000
1.000000 0.622361 0.000000
0.000000 0.952887 0.000000
0.000000 0.950247 0.000000
0.016485 0.947373 0.000000
0.124074 0.943101 0.000000
0.228673 0.939015 0.000000
0.329072 0.936646 0.000000
0.424129 0.934895 0.000000
0.609354 0.929968 0.000000
0.692487 0.926622 0.000000
0.773803 0.921134 0.000000
0.850092 0.913702 0.000000
0.922793 0.906586 0.000000
0.983948 0.895447 0.000000
1.000000 0.905587 0.000000
1.000000 0.899783 0.000000
1.000000 0.889758 0.000000
1.000000 0.874190 0.000000
0.000000 1.000000 0.000000
0.000000 1.000000 0.000000
0.042193 1.000000 0.000000
0.143297 1.000000 0.000000
0.242727 1.000000 0.000000
0.339780 1.000000 0.000000
0.434321 1.000000 0.000000
0.525046 1.000000 0.000000
0.704681 0.998399 0.000000
0.782758 0.993758 0.000000
0.858011 0.989020 0.000000
0.930545 0.982069 0.000000
0.992234 0.975383 0.000000
1.000000 0.964590 0.000000
1.000000 0.975647 0.000000
1.000000 0.971539 0.000000
1.000000 0.956001 0.000000
0.000000 1.000000 0.000000
0.000000 1.000000 0.000000
0.068716 1.000000 0.000000
0.168415 1.000000 0.000000
0.261930 1.000000 0.000000
0.356016 1.000000 0.000000
0.446597 1.000000 0.000000
0.533768 1.000000 0.000000
0.719967 1.000000 0.000000
0.793790 1.000000 0.000000
0.867186 1.000000 0.000000
0.937811 1.000000 0.000000
0.991334 1.000000 0.000000
1.000000 1.000000 0.000000
1.000000 1.000000 0.000000
1.000000 1.000000 0.000000
1.000000 1.000000 0.000000
0.000000 1.000000 0.000000
0.001752 1.000000 0.000000
0.104076 1.000000 0.000000
0.203989 1.000000 0.000000
0.295872 1.000000 0.000000
0.381167 1.000000 0.000000
0.466230 1.000000 0.000000
0.548247 1.000000 0.000000
0.739198 1.000000 0.000000
0.810422 1.000000 0.000000
0.878202 1.000000 0.000000
0.939737 1.000000 0.000000
0.989648 1.000000 0.000000
1.000000 1.000000 0.000000
1.000000 1.000000 0.000000
1.000000 1.000000 0.000000
1.000000 1.000000 0.000000
0.000000 1.000000 0.000000
0.054479 1.000000 0.000000
0.152771 1.000000 0.000000
0.251412 1.000000 0.000000
0.341538 1.000000 0.000000
0.423634 1.000000 0.000000
0.501860 1.000000 0.000000
0.577906 1.000000 0.000000
0.763869 1.000000 0.000000
0.825129 1.000000 0.000000
0.882711 1.000000 0.000000
0.930508 1.000000 0.000000
0.978102 1.000000 0.000000
1.000000 1.000000 0.000000
1.000000 1.000000 0.000000
1.000000 1.000000 0.000000
1.000000 1.000000 0.000000
0.000000 0.000000 0.016784
0.000000 0.000000 0.021020
0.019468 0.000000 0.018372
0.122095 0.000000 0.018210
0.224472 0.000000 0.016620
0.325339 0.000000 0.014874
0.463582 0.000000 0.080324
0.559015 0.000000 0.084118
0.654041 0.000000 0.087640
0.747347 0.000000 0.092789
0.837969 0.000000 0.096636
0.924730 0.000000 0.103424
1.000000 0.000000 0.108980
1.000000 0.000000 0.115561
1.000000 0.000000 0.121781
1.000000 0.000000 0.129826
1.000000 0.000000 0.134104
0.000000 0.000000 0.027423
0.000000 0.000000 0.024549
0.027827 0.000000 0.023685
0.133741 0.000000 0.020876
0.237107 0.000000 0.018167
0.381022 0.000000 0.024940
0.475567 0.000000 0.027142
0.569614 0.000000 0.029283
0.664008 0.000000 0.031228
0.755187 0.000000 0.035355
0.844628 0.000000 0.038637
0.929662 0.000000 0.042668
1.000000 0.000000 0.047231
1.000000 0.000000 0.052048
1.000000 0.000000 0.057593
1.000000 0.000000 0.061232
1.000000 0.000000 0.067039
0.000000 0.033260 0.026702
0.000000 0.032603 0.025922
0.033324 0.027020 0.021284
0.179507 0.000000 0.000000
0.292376 0.000000 0.000000
0.393681 0.000000 0.000000
0.491253 0.000000 0.000000
0.582137 0.000000 0.000000
0.674521 0.000000 0.000000
0.762430 0.000000 0.000000
0.850075 0.000000 0.000000
0.934044 0.000000 0.000000
1.000000 0.000000 0.000000
1.000000 0.000000 0.000000
1.000000 0.000000 0.000000
1.000000 0.000000 0.000000
1.000000 0.000000 0.000000
0.000000 0.143257 0.033231
0.000000 0.141533 0.021412
0.012932 0.138175 0.002656
0.140846 0.129941 0.015901
0.294280 0.061517 0.000000
0.396281 0.006701 0.000000
0.497846 0.000000 0.000000
0.591293 0.000000 0.000000
0.682570 0.000000 0.000000
0.769897 0.000000 0.000000
0.856099 0.000000 0.000000
0.939346 0.000000 0.000000
1.000000 0.000000 0.000000
1.000000 0.000000 0.000000
1.000000 0.000000 0.000000
1.000000 0.000000 0.000000
1.000000 0.000000 0.000000
0.000000 0.248655 0.027873
0.000000 0.247313 0.011392
0.000000 0.245608 0.000000
0.121650 0.241044 0.000000
0.248082 0.230718 0.012497
0.395502 0.160466 0.000000
0.494974 0.105804 0.000000
0.590649 0.054540 0.000000
0.683837 0.024770 0.000000
0.773292 0.000000 0.000000
0.859085 0.000000 0.000000
0.942524 0.000000 0.000000
1.000000 0.000000 0.000000
1.000000 0.000000 0.000000
1.000000 0.000000 0.000000
1.000000 0.000000 0.000000
1.000000 0.000000 0.000000
0.000000 0.351878 0.018677
0.000000 0.349872 0.009053
0.000000 0.347292 0.000000
0.102514 0.344598 0.000000
0.253939 0.335742 0.014030
0.352500 0.326895 0.008227
0.498289 0.249808 0.000000
0.593270 0.193744 0.000000
0.684213 0.153511 0.000000
0.775184 0.123159 0.000000
0.861261 0.092654 0.000000
0.944084 0.066408 0.000000
1.000000 0.040446 0.000000
1.000000 0.018317 0.000000
1.000000 0.000000 0.000000
1.000000 0.000000 0.000000
1.000000 0.000000 0.000000
0.000000 0.449106 0.027400
0.000000 0.448114 0.007289
0.000000 0.445671 0.000000
0.087925 0.440891 0.000000
0.208608 0.435391 0.000000
0.361270 0.431259 0.009449
0.453613 0.420325 0.003232
0.546369 0.415210 0.001231
0.688646 0.286877 0.000000
0.775747 0.249343 0.000000
0.861272 0.215592 0.000000
0.945569 0.185945 0.000000
1.000000 0.157128 0.000000
1.000000 0.127306 0.000000
1.000000 0.098886 0.000000
1.000000 0.071273 0.000000
1.000000 0.051730 0.000000
0.000000 0.542802 0.015233
0.000000 0.542214 0.000092
0.000000 0.539840 0.000000
0.081398 0.533930 0.000000
0.201734 0.530654 0.000000
0.367282 0.525753 0.007772
0.462274 0.521215 0.004740
0.550075 0.508768 0.002669
0.642299 0.506272 0.000000
0.781392 0.374799 0.000000
0.865028 0.335965 0.000000
0.945627 0.299148 0.000000
1.000000 0.271307 0.000000
1.000000 0.240688 0.000000
1.000000 0.214859 0.000000
1.000000 0.186873 0.000000
1.000000 0.154880 0.000000
0.000000 0.634540 0.007200
0.000000 0.634876 0.000000
0.000000 0.630371 0.000000
0.077974 0.627675 0.000000
0.198119 0.622369 0.000000
0.310149 0.620432 0.000000
0.470499 0.616444 0.001522
0.560542 0.607881 0.000000
0.645349 0.595709 0.000000
0.735850 0.595220 0.000000
0.872634 0.463247 0.000000
0.951464 0.423012 0.000000
1.000000 0.385602 0.000000
1.000000 0.352548 0.000000
1.000000 0.322989 0.000000
1.000000 0.294794 0.000000
1.000000 0.261767 0.000000
0.000000 0.721162 0.000000
0.000000 0.721183 0.000000
0.000000 0.718638 0.000000
0.084591 0.713732 0.000000
0.197872 0.708939 0.000000
0.306894 0.705591 0.000000
0.479089 0.702916 0.001119
0.570164 0.698844 0.000000
0.656202 0.689056 0.000000
0.736968 0.676667 0.000000
0.826358 0.679287 0.000000
0.903630 0.670254 0.000000
1.000000 0.509066 0.000000
1.000000 0.471715 0.000000
1.000000 0.436583 0.000000
1.000000 0.404847 0.000000
1.000000 0.370565 0.000000
0.000000 0.800860 0.000000
0.000000 0.801343 0.000000
0.000000 0.799314 0.000000
0.093056 0.793581 0.000000
0.203626 0.789193 0.000000
0.310072 0.784991 0.000000
0.412152 0.784329 0.000000
0.580107 0.780141 0.000000
0.666799 0.774175 0.000000
0.749466 0.763867 0.000000
0.824528 0.752062 0.000000
0.910555 0.756808 0.000000
0.985333 0.750324 0.000000
1.000000 0.589514 0.000000
1.000000 0.554166 0.000000
1.000000 0.518663 0.000000
1.000000 0.477547 0.000000
0.000000 0.875960 0.000000
0.000000 0.875532 0.000000
0.000000 0.873961 0.000000
0.103284 0.869265 0.000000
0.214036 0.863983 0.000000
0.316702 0.859998 0.000000
0.415200 0.859001 0.000000
0.592457 0.855179 0.000000
0.678537 0.852647 0.000000
0.760595 0.844624 0.000000
0.837690 0.835682 0.000000
0.907076 0.823698 0.000000
0.991621 0.829762 0.000000
1.000000 0.824234 0.000000
1.000000 0.812325 0.000000
1.000000 0.629772 0.000000
1.000000 0.583649 0.000000
0.000000 0.950001 0.000000
0.000000 0.949479 0.000000
0.012619 0.946053 0.000000
0.116863 0.942735 0.000000
0.223251 0.937591 0.000000
0.327134 0.932237 0.000000
0.422546 0.929777 0.000000
0.516272 0.930140 0.000000
0.689278 0.925273 0.000000
0.770162 0.921703 0.000000
0.847652 0.913552 0.000000
0.920600 0.905789 0.000000
0.985277 0.893676 0.000000
1.000000 0.901953 0.000000
1.000000 0.897163 0.000000
1.000000 0.886366 0.000000
1.000000 0.870289 0.003448
0.000000 1.000000 0.000000
0.000000 1.000000 0.000000
0.037401 1.000000 0.000000
0.136788 1.000000 0.000000
0.240150 1.000000 0.000000
0.339117 1.000000 0.000000
0.432720 0.999870 0.000000
0.523365 0.999701 0.000000
0.701478 0.996418 0.000000
0.780167 0.994045 0.000000
0.855466 0.989792 0.000000
0.928300 0.982085 0.000000
0.992371 0.974832 0.000000
1.000000 0.963475 0.000000
1.000000 0.973606 0.000000
1.000000 0.970418 0.000000
1.000000 0.953871 0.000000
0.000000 1.000000 0.000000
0.000000 1.000000 0.000000
0.066615 1.000000 0.000000
0.164060 1.000000 0.000000
0.260698 1.000000 0.000000
0.353632 1.000000 0.000000
0.443858 1.000000 0.000000
0.532814 1.000000 0.000000
0.716185 1.000000 0.000000
0.789898 1.000000 0.000000
0.864845 1.000000 0.000000
0.935459 1.000000 0.000000
0.989935 1.000000 0.000000
1.000000 1.000000 0.000000
1.000000 1.000000 0.000000
1.000000 1.000000 0.000000
1.000000 1.000000 0.000000
0.000000 1.000000 0.000000
0.000000 1.000000 0.000000
0.101026 1.000000 0.000000
0.199378 1.000000 0.000000
0.292700 1.000000 0.000000
0.378222 1.000000 0.000000
0.463379 1.000000 0.000000
0.546348 1.000000 0.000000
0.628003 1.000000 0.000000
0.806818 1.000000 0.000000
0.875584 1.000000 0.000000
0.937453 1.000000 0.000000
0.990134 1.000000 0.000000
1.000000 1.000000 0.000000
1.000000 1.000000 0.000000
1.000000 1.000000 0.000000
1.000000 1.000000 0.000000
0.000000 1.000000 0.000000
0.030576 1.000000 0.000000
0.147850 1.000000 0.000000
0.246093 1.000000 0.000000
0.338957 1.000000 0.000000
0.422948 1.000000 0.000000
0.501055 1.000000 0.000000
0.577907 1.000000 0.000000
0.653764 1.000000 0.000000
0.823979 1.000000 0.000000
0.881299 1.000000 0.000000
0.929110 1.000000 0.000000
0.976205 1.000000 0.000000
1.000000 1.000000 0.000000
1.000000 1.000000 0.000000
1.000000 1.000000 0.000000
1.000000 1.000000 0.000000
0.000000 0.000000 0.118810
0.000000 0.000000 0.124159
0.020144 0.000000 0.123865
0.115755 0.000000 0.120661
0.219399 0.000000 0.119033
0.319888 0.000000 0.115482
0.415995 0.000000 0.111470
0.512044 0.000000 0.105999
0.606245 0.000000 0.102515
0.701424 0.000000 0.098588
0.832299 0.000000 0.193713
0.919949 0.000000 0.198860
1.000000 0.000000 0.203581
