working/Infinite_Arch_Leica_Looks_v1.2/looks/ember/look.CUBE
#Created by: Infinite Arch Leica Looks v1.0
#Unique Leica Look ID: 1009
#Based Filmstyle Mode: Standard
TITLE "IA Ember"
#LUT size
LUT_3D_SIZE 9
#data domain
DOMAIN_MIN 0.0 0.0 0.0
DOMAIN_MAX 1.0 1.0 1.0
#LUT data points
0.000000 0.000000 0.000000
0.075892 0.000000 0.000000
0.282497 0.000000 0.000000
0.478654 0.000000 0.000000
0.668508 0.000000 0.000000
0.851710 0.000000 0.000000
1.000000 0.000000 0.000000
1.000000 0.000000 0.000000
1.000000 0.000000 0.000000
0.000000 0.040102 0.000000
0.039436 0.030191 0.000000
0.300773 0.000000 0.000000
0.497857 0.000000 0.000000
0.687804 0.000000 0.000000
0.869305 0.000000 0.000000
1.000000 0.000000 0.000000
1.000000 0.000000 0.000000
1.000000 0.000000 0.000000
0.000000 0.254216 0.000000
0.024667 0.249562 0.000000
0.255549 0.235602 0.000000
0.501973 0.186204 0.000000
0.685638 0.142696 0.000000
0.862175 0.102180 0.000000
1.000000 0.064341 0.000000
1.000000 0.035681 0.000000
1.000000 0.014614 0.000000
0.000000 0.453627 0.000000
0.000000 0.451135 0.000000
0.268416 0.440856 0.000000
0.457632 0.424596 0.000000
0.694450 0.359310 0.000000
0.865755 0.307637 0.000000
1.000000 0.262558 0.000000
1.000000 0.217686 0.000000
1.000000 0.171249 0.000000
0.000000 0.637851 0.000000
0.000000 0.634620 0.000000
0.217999 0.628699 0.000000
0.476318 0.617751 0.000000
0.648765 0.599007 0.000000
0.827896 0.590856 0.000000
1.000000 0.468210 0.000000
1.000000 0.419894 0.000000
1.000000 0.362962 0.000000
0.000000 0.804927 0.000000
0.000000 0.803052 0.000000
0.224960 0.793761 0.000000
0.498364 0.784784 0.000000
0.671024 0.773556 0.000000
0.829005 0.754376 0.000000
0.993498 0.751301 0.000000
1.000000 0.620827 0.000000
1.000000 0.555737 0.000000
0.000000 0.952940 0.000000
0.041069 0.947341 0.000000
0.247785 0.941179 0.000000
0.438166 0.934383 0.000000
0.694761 0.923737 0.000000
0.848916 0.911981 0.000000
0.987245 0.894998 0.000000
1.000000 0.896070 0.000000
1.000000 0.873399 0.000000
0.000000 1.000000 0.000000
0.091017 1.000000 0.000000
0.284687 1.000000 0.000000
0.461813 1.000000 0.000000
0.722683 1.000000 0.000000
0.868103 1.000000 0.000000
0.988272 1.000000 0.000000
1.000000 1.000000 0.000000
1.000000 1.000000 0.000000
0.000000 1.000000 0.000000
0.175588 1.000000 0.000000
0.358967 1.000000 0.000000
0.516936 1.000000 0.000000
0.768321 1.000000 0.000000
0.886853 1.000000 0.000000
0.979254 1.000000 0.000000
1.000000 1.000000 0.000000
1.000000 1.000000 0.000000
0.000000 0.000000 0.016784
0.019468 0.000000 0.018372
0.224472 0.000000 0.016620
0.463582 0.000000 0.080324
0.654041 0.000000 0.087640
0.837969 0.000000 0.096636
1.000000 0.000000 0.108980
1.000000 0.000000 0.121781
1.000000 0.000000 0.134104
0.000000 0.033260 0.026702
0.033324 0.027020 0.021284
0.292376 0.000000 0.000000
0.491253 0.000000 0.000000
0.674521 0.000000 0.000000
0.850075 0.000000 0.000000
1.000000 0.000000 0.000000
1.000000 0.000000 0.000000
1.000000 0.000000 0.000000
0.000000 0.248655 0.027873
0.000000 0.245608 0.000000
0.248082 0.230718 0.012497
0.494974 0.105804 0.000000
0.683837 0.024770 0.000000
0.859085 0.000000 0.000000
1.000000 0.000000 0.000000
1.000000 0.000000 0.000000
1.000000 0.000000 0.000000
0.000000 0.449106 0.027400
0.000000 0.445671 0.000000
0.208608 0.435391 0.000000
0.453613 0.420325 0.003232
0.688646 0.286877 0.000000
0.861272 0.215592 0.000000
1.000000 0.157128 0.000000
1.000000 0.098886 0.000000
1.000000 0.051730 0.000000
0.000000 0.634540 0.007200
0.000000 0.630371 0.000000
0.198119 0.622369 0.000000
0.470499 0.616444 0.001522
0.645349 0.595709 0.000000
0.872634 0.463247 0.000000
1.000000 0.385602 0.000000
1.000000 0.322989 0.000000
1.000000 0.261767 0.000000
0.000000 0.800860 0.000000
0.000000 0.799314 0.000000
0.203626 0.789193 0.000000
0.412152 0.784329 0.000000
0.666799 0.774175 0.000000
0.824528 0.752062 0.000000
0.985333 0.750324 0.000000
1.000000 0.554166 0.000000
1.000000 0.477547 0.000000
0.000000 0.950001 0.000000
0.012619 0.946053 0.000000
0.223251 0.937591 0.000000
0.422546 0.929777 0.000000
0.689278 0.925273 0.000000
0.847652 0.913552 0.000000
0.985277 0.893676 0.000000
1.000000 0.897163 0.000000
1.000000 0.870289 0.003448
0.000000 1.000000 0.000000
0.066615 1.000000 0.000000
0.260698 1.000000 0.000000
0.443858 1.000000 0.000000
0.716185 1.000000 0.000000
0.864845 1.000000 0.000000
0.989935 1.000000 0.000000
1.000000 1.000000 0.000000
1.000000 1.000000 0.000000
0.000000 1.000000 0.000000
0.147850 1.000000 0.000000
0.338957 1.000000 0.000000
0.501055 1.000000 0.000000
0.653764 1.000000 0.000000
0.881299 1.000000 0.000000
0.976205 1.000000 0.000000
1.000000 1.000000 0.000000
1.000000 1.000000 0.000000
0.000000 0.000000 0.215472
0.021357 0.000000 0.221698
0.211871 0.000000 0.214969
0.410829 0.000000 0.207966
0.601140 0.000000 0.198190
0.785459 0.000000 0.186989
0.957423 0.000000 0.180563
1.000000 0.000000 0.305371
1.000000 0.000000 0.316192
0.000000 0.027446 0.231615
0.016821 0.018958 0.226315
0.228225 0.009061 0.219949
0.425754 0.000000 0.210642
0.611213 0.000000 0.200048
0.839134 0.000000 0.183175
1.000000 0.000000 0.179891
1.000000 0.000000 0.180458
1.000000 0.000000 0.189629
0.000000 0.240286 0.236649
0.031823 0.238286 0.232208
0.235319 0.222716 0.220160
0.470199 0.107952 0.133923
0.670956 0.009919 0.078727
0.850074 0.000000 0.054427
1.000000 0.000000 0.029071
1.000000 0.000000 0.006157
1.000000 0.000000 0.030607
0.000000 0.440913 0.259733
0.000000 0.437497 0.229192
0.199141 0.428161 0.192832
0.436476 0.412903 0.216910
0.672742 0.254335 0.020593
0.851761 0.148484 0.000000
1.000000 0.046073 0.000000
1.000000 0.000000 0.000000
1.000000 0.000000 0.000000
0.000000 0.628180 0.241955
0.000000 0.623617 0.208865
0.175235 0.617688 0.155771
0.402969 0.607150 0.142419
0.628727 0.587439 0.210572
0.852350 0.426085 0.000000
1.000000 0.328428 0.000000
1.000000 0.233955 0.000000
1.000000 0.147743 0.000000
0.000000 0.796003 0.212839
0.000000 0.792891 0.179626
0.177164 0.787528 0.118554
0.395545 0.780662 0.104295
0.650675 0.763159 0.196417
0.809607 0.744767 0.198243
1.000000 0.578981 0.000000
1.000000 0.490349 0.000000
1.000000 0.412079 0.000000
0.000000 0.946638 0.179880
0.023179 0.941774 0.144688
0.205204 0.936964 0.087810
0.408898 0.927859 0.070025
0.598671 0.915817 0.062615
0.833633 0.906784 0.177148
0.974122 0.887631 0.184291
1.000000 0.877621 0.202041
1.000000 0.641963 0.000000
0.000000 1.000000 0.148746
0.064865 1.000000 0.099368
0.244671 1.000000 0.062050
0.430623 1.000000 0.043644
0.605981 1.000000 0.034323
0.851614 1.000000 0.156224
0.986571 1.000000 0.154355
1.000000 1.000000 0.163583
1.000000 1.000000 0.189897
0.005711 1.000000 0.097982
0.120362 1.000000 0.021856
0.328914 1.000000 0.027580
0.492200 1.000000 0.008299
0.647401 1.000000 0.000000
0.881522 1.000000 0.130671
0.975671 1.000000 0.134208
1.000000 1.000000 0.137840
1.000000 1.000000 0.157810
0.000000 0.000000 0.390332
0.019139 0.000000 0.396339
0.203703 0.000000 0.393853
0.397056 0.000000 0.383285
0.590243 0.000000 0.373547
0.774235 0.000000 0.363229
0.944950 0.000000 0.352545
1.000000 0.000000 0.346375
1.000000 0.000000 0.348394
0.000000 0.023019 0.410645
0.012542 0.015400 0.407536
0.215853 0.003880 0.403770
0.406725 0.000000 0.391568
0.594925 0.000000 0.380107
0.772731 0.000000 0.366336
0.939021 0.000000 0.355509
1.000000 0.000000 0.345305
1.000000 0.000000 0.381789
0.000000 0.233598 0.421164
0.014717 0.226944 0.417270
0.214234 0.214842 0.408616
0.410071 0.202181 0.398056
0.595287 0.183928 0.385469
0.768702 0.166208 0.372561
0.997235 0.000000 0.280814
1.000000 0.000000 0.246396
1.000000 0.000000 0.255119
0.000000 0.432472 0.424907
0.000000 0.427820 0.421751
0.216878 0.422224 0.416999
0.418886 0.400694 0.401413
0.631319 0.289278 0.316213
0.825470 0.167934 0.246459
0.997142 0.078841 0.208180
1.000000 0.010550 0.192493
1.000000 0.000000 0.183462
0.000000 0.620575 0.423941
0.000000 0.618007 0.430274
0.159439 0.609443 0.399621
0.392719 0.596780 0.377278
0.608435 0.580410 0.400921
0.821715 0.426602 0.204129
1.000000 0.289874 0.121952
1.000000 0.193750 0.081607
1.000000 0.110429 0.055382
0.000000 0.790613 0.430808
0.000000 0.787247 0.409188
0.160508 0.778888 0.374482
0.378718 0.769778 0.343609
0.587290 0.757391 0.333307
0.787337 0.739220 0.396934
0.997382 0.563781 0.113491
1.000000 0.464185 0.084772
1.000000 0.383244 0.064574
0.000000 0.941497 0.397430
0.000000 0.936483 0.371974
0.194327 0.929201 0.332360
0.383278 0.923431 0.293935
0.579110 0.915102 0.287020
0.806167 0.899085 0.387128
0.949443 0.882885 0.390323
1.000000 0.709914 0.068813
1.000000 0.622613 0.062020
0.000000 1.000000 0.348611
0.063026 1.000000 0.318403
0.231010 1.000000 0.260482
0.405833 1.000000 0.228084
0.586298 1.000000 0.216938
0.834085 1.000000 0.344628
0.974213 1.000000 0.351041
1.000000 1.000000 0.368951
1.000000 1.000000 0.391975
0.000000 1.000000 0.305111
0.148442 1.000000 0.264783
0.293469 1.000000 0.201481
0.472229 1.000000 0.195428
0.629457 1.000000 0.181885
0.783551 1.000000 0.175009
0.975275 1.000000 0.310730
1.000000 1.000000 0.312876
1.000000 1.000000 0.319266
0.000000 0.000000 0.551869
0.020836 0.000000 0.555451
0.192351 0.000000 0.559339
0.386550 0.000000 0.549185
0.573292 0.000000 0.535845
0.760428 0.000000 0.526281
0.929019 0.000000 0.515455
1.000000 0.000000 0.504589
1.000000 0.000000 0.504196
0.000000 0.017832 0.573551
0.011037 0.010716 0.574238
0.206409 0.004449 0.576142
0.399253 0.000000 0.564760
0.577377 0.000000 0.546103
0.756242 0.000000 0.530085
0.920795 0.000000 0.514343
1.000000 0.000000 0.502972
1.000000 0.000000 0.499845
0.000000 0.225025 0.587640
0.000000 0.224031 0.586562
0.197985 0.207122 0.571795
0.390985 0.195194 0.564358
0.576238 0.177495 0.550984
0.751817 0.162496 0.535961
0.916272 0.147722 0.522019
1.000000 0.130995 0.509396
1.000000 0.120753 0.503848
0.000000 0.424393 0.599165
0.000000 0.417888 0.593861
0.190531 0.410438 0.585536
0.394812 0.395479 0.574239
0.579397 0.378722 0.562042
0.752111 0.356238 0.549569
0.912149 0.332682 0.537893
1.000000 0.003800 0.433814
1.000000 0.000000 0.410311
0.000000 0.612238 0.601031
0.000000 0.607597 0.596933
0.192818 0.603465 0.590648
0.404889 0.591858 0.585250
0.589479 0.567680 0.567494
0.784418 0.460597 0.484603
0.961011 0.352234 0.418670
1.000000 0.238066 0.362745
1.000000 0.160710 0.339871
0.000000 0.783352 0.600940
0.005941 0.778860 0.596002
0.114585 0.774142 0.594278
0.357703 0.764543 0.568162
0.569689 0.748886 0.549693
0.764445 0.733639 0.570853
0.952622 0.597067 0.388339
1.000000 0.467865 0.307232
1.000000 0.358045 0.247560
0.000000 0.934412 0.617067
0.000000 0.931967 0.596385
0.156482 0.923124 0.567028
0.370119 0.915363 0.540673
0.561959 0.904511 0.519472
0.746310 0.893832 0.510397
0.925040 0.877885 0.568004
1.000000 0.725365 0.308443
1.000000 0.620931 0.263670
0.000000 1.000000 0.558671
0.029445 1.000000 0.537874
0.213925 1.000000 0.504971
0.400318 1.000000 0.478773
0.565386 1.000000 0.457133
0.735193 1.000000 0.453836
0.942449 1.000000 0.549767
1.000000 1.000000 0.552639
1.000000 1.000000 0.562765
0.000000 1.000000 0.486600
0.137936 1.000000 0.455134
0.308917 1.000000 0.415686
0.444645 1.000000 0.357707
0.617046 1.000000 0.359192
0.769413 1.000000 0.343313
0.972373 1.000000 0.472154
1.000000 1.000000 0.474042
1.000000 1.000000 0.497220
0.000000 0.000000 0.703787
0.024023 0.000000 0.703629
0.185830 0.000000 0.713280
0.374850 0.000000 0.704452
0.560304 0.000000 0.690260
0.741107 0.000000 0.674547
0.913250 0.000000 0.666251
1.000000 0.000000 0.658732
1.000000 0.000000 0.651992
0.000000 0.012400 0.728021
0.017469 0.010984 0.729414
0.187551 0.005972 0.733230
0.392893 0.000000 0.726246
0.566936 0.000000 0.706245
0.736443 0.000000 0.685809
0.903256 0.000000 0.670837
1.000000 0.000000 0.652979
1.000000 0.000000 0.644163
0.000000 0.215895 0.746090
0.000000 0.216748 0.745983
0.183370 0.198989 0.731571
0.374389 0.186807 0.721430
0.557595 0.170390 0.707074
0.730453 0.157523 0.689382
0.895496 0.146948 0.674960
1.000000 0.131310 0.659079
1.000000 0.119823 0.647393
0.000000 0.413345 0.756896
0.000000 0.410644 0.752643
0.173071 0.396450 0.740226
0.372184 0.383991 0.729090
0.559637 0.368319 0.718955
0.733180 0.348103 0.705448
0.895116 0.324688 0.691093
1.000000 0.302658 0.675842
1.000000 0.285762 0.664203
0.000000 0.605183 0.764105
0.000000 0.598942 0.760401
0.161533 0.592261 0.752965
0.376703 0.582127 0.744350
0.566870 0.563809 0.730032
0.737889 0.547010 0.718385
0.896205 0.526987 0.706436
1.000000 0.502925 0.694942
1.000000 0.478937 0.687221
0.000000 0.776637 0.764600
0.000000 0.771870 0.759718
0.171229 0.766335 0.753489
0.391656 0.759448 0.748151
0.580085 0.744489 0.739838
0.746483 0.721140 0.721664
0.922704 0.623275 0.641676
1.000000 0.517877 0.569936
1.000000 0.428318 0.523563
0.000000 0.927443 0.762603
0.011372 0.924001 0.755961
0.222922 0.916516 0.749977
0.332369 0.910271 0.737290
0.544116 0.901105 0.719839
0.727237 0.887244 0.704818
0.904775 0.874135 0.724356
1.000000 0.744818 0.547544
1.000000 0.647607 0.486551
0.000000 1.000000 0.740789
0.000000 1.000000 0.751996
0.173169 1.000000 0.722730
0.363515 1.000000 0.699615
0.550991 1.000000 0.683949
0.715673 1.000000 0.665775
0.886543 1.000000 0.655775
1.000000 1.000000 0.712190
1.000000 0.890658 0.480944
0.000000 1.000000 0.664778
0.118158 1.000000 0.636664
0.290556 1.000000 0.609915
0.461074 1.000000 0.584733
0.599435 1.000000 0.553018
0.759482 1.000000 0.559872
0.903762 1.000000 0.564958
1.000000 1.000000 0.671339
1.000000 1.000000 0.690546
0.000000 0.000000 0.846112
0.029075 0.000000 0.846523
0.184357 0.000000 0.857448
0.358540 0.000000 0.850964
0.549664 0.000000 0.836709
0.728944 0.000000 0.818868
0.894311 0.000000 0.802276
1.000000 0.000000 0.794906
1.000000 0.000000 0.789537
0.000000 0.006760 0.872295
0.026375 0.013724 0.876623
0.177117 0.003096 0.874753
0.377159 0.000000 0.875799
0.560347 0.000000 0.850780
0.725723 0.000000 0.829920
0.886259 0.000000 0.810154
1.000000 0.000000 0.794102
1.000000 0.000000 0.778788
0.000000 0.206158 0.891319
0.000000 0.205306 0.889036
0.171350 0.188959 0.879731
0.358876 0.176889 0.868698
0.545580 0.164671 0.852437
0.716989 0.154307 0.832139
0.876443 0.139945 0.810523
1.000000 0.125625 0.793023
1.000000 0.122484 0.777403
0.000000 0.400968 0.900857
0.000000 0.400475 0.900605
0.163665 0.386231 0.886614
0.355488 0.371403 0.870670
0.544465 0.355197 0.859621
0.716505 0.336611 0.845979
0.877295 0.317803 0.828817
1.000000 0.299259 0.809652
1.000000 0.281905 0.793752
0.000000 0.592140 0.908470
0.000000 0.588104 0.904277
0.144747 0.579143 0.895509
0.354584 0.563344 0.880931
0.550058 0.550520 0.869690
0.721033 0.535024 0.857963
0.880471 0.517203 0.845577
1.000000 0.493215 0.831421
1.000000 0.466515 0.821800
0.000000 0.770399 0.913564
0.000000 0.764179 0.909463
0.143539 0.757055 0.902584
0.369774 0.752520 0.896690
0.561052 0.737131 0.884475
0.726893 0.719238 0.870459
0.884305 0.704953 0.858918
1.000000 0.685021 0.845659
1.000000 0.663951 0.837450
0.000000 0.921144 0.912520
0.000000 0.916906 0.906622
0.189683 0.909369 0.899834
0.400376 0.905131 0.893867
0.578745 0.896921 0.888073
0.736784 0.882926 0.880045
0.889914 0.860437 0.860941
1.000000 0.763817 0.778717
1.000000 0.679941 0.723875
0.000000 1.000000 0.899114
0.069597 1.000000 0.897390
0.267399 1.000000 0.889203
0.443646 1.000000 0.886055
0.518349 1.000000 0.869770
0.699932 1.000000 0.857389
0.868729 1.000000 0.842370
1.000000 1.000000 0.862411
1.000000 0.906322 0.704896
0.054776 1.000000 0.866714
0.074521 1.000000 0.873960
0.246428 1.000000 0.854219
0.413935 1.000000 0.831424
0.578311 1.000000 0.817408
0.733913 1.000000 0.805622
0.881483 1.000000 0.794269
1.000000 1.000000 0.848623
1.000000 1.000000 0.853347
0.000000 0.000000 0.972401
0.034045 0.000000 0.970205
0.186222 0.000000 0.981911
0.343720 0.000000 0.977548
0.538685 0.000000 0.961798
0.720665 0.000000 0.942494
0.884543 0.000000 0.927128
1.000000 0.000000 0.912782
1.000000 0.000000 0.904145
0.000000 0.004334 0.994257
0.032672 0.017491 0.999089
0.179520 0.004047 0.998226
0.357700 0.000000 0.998026
0.555500 0.000000 0.979514
0.723984 0.000000 0.952692
0.878538 0.000000 0.934350
1.000000 0.000000 0.915891
1.000000 0.000000 0.902520
0.000000 0.189310 1.000000
0.001345 0.193834 1.000000
0.165252 0.178152 1.000000
0.346321 0.172259 1.000000
0.538411 0.162533 0.987400
0.708932 0.150668 0.962668
0.865997 0.135795 0.940146
1.000000 0.120062 0.915433
1.000000 0.116883 0.900890
0.000000 0.384650 1.000000
0.000000 0.384778 1.000000
0.154883 0.372956 1.000000
0.341187 0.355059 1.000000
0.532714 0.340732 0.989664
0.702867 0.324433 0.975111
0.861094 0.312918 0.958730
1.000000 0.295818 0.937242
1.000000 0.277624 0.919740
0.000000 0.576111 1.000000
0.000000 0.573254 1.000000
0.128577 0.564741 1.000000
0.339362 0.546795 1.000000
0.536038 0.533488 1.000000
0.705725 0.517453 0.990423
0.864280 0.500799 0.978573
1.000000 0.476598 0.963448
1.000000 0.449805 0.949806
0.000000 0.757889 1.000000
0.000000 0.752422 1.000000
0.124956 0.743772 1.000000
0.350214 0.732174 1.000000
0.541865 0.718216 1.000000
0.710514 0.706525 1.000000
0.868240 0.692505 0.993236
1.000000 0.674529 0.980017
1.000000 0.651292 0.970782
0.000000 0.915822 1.000000
0.000000 0.909909 1.000000
0.164200 0.900204 1.000000
0.378472 0.896746 1.000000
0.560173 0.893562 1.000000
0.718422 0.876494 1.000000
0.871030 0.860277 1.000000
1.000000 0.845972 0.997609
1.000000 0.829433 0.987206
0.000000 1.000000 1.000000
0.042498 1.000000 1.000000
0.242389 1.000000 1.000000
0.418772 1.000000 1.000000
0.579509 1.000000 1.000000
0.732845 1.000000 1.000000
0.877357 1.000000 1.000000
1.000000 0.996667 0.998857
1.000000 0.922163 0.936596
0.019437 1.000000 1.000000
0.178117 1.000000 1.000000
0.349268 1.000000 1.000000
0.496723 1.000000 1.000000
0.638030 1.000000 1.000000
0.699712 1.000000 1.000000
0.861642 1.000000 0.996678
1.000000 1.000000 0.985914
1.000000 1.000000 1.000000
0.000000 0.000000 1.000000
0.039280 0.000000 1.000000
0.187723 0.000000 1.000000
0.334442 0.000000 1.000000
0.530168 0.000000 1.000000
0.714054 0.000000 1.000000
0.877695 0.000000 1.000000
1.000000 0.000000 1.000000
1.000000 0.000000 0.998217
0.000000 0.005497 1.000000
0.038852 0.021344 1.000000
0.183298 0.002499 1.000000
0.344196 0.000000 1.000000
0.541567 0.000000 1.000000
0.718391 0.000000 1.000000
0.875126 0.000000 1.000000
1.000000 0.000000 1.000000
1.000000 0.000000 0.995392
0.000000 0.183543 1.000000
0.010660 0.191748 1.000000
0.166732 0.174487 1.000000
0.333851 0.171500 1.000000
0.527508 0.162495 1.000000
0.701575 0.147744 1.000000
0.859139 0.132696 1.000000
1.000000 0.117504 1.000000
1.000000 0.114816 1.000000
0.000000 0.366168 1.000000
0.000000 0.362603 1.000000
0.150340 0.354251 1.000000
0.336283 0.338201 1.000000
0.524701 0.330681 1.000000
0.692495 0.321101 1.000000
0.848774 0.310971 1.000000
1.000000 0.294133 1.000000
1.000000 0.273620 1.000000
0.000000 0.554738 1.000000
0.000000 0.549811 1.000000
0.139909 0.544836 1.000000
0.335294 0.525261 1.000000
0.528751 0.511819 1.000000
0.696606 0.495881 1.000000
0.853267 0.478260 1.000000
1.000000 0.457273 1.000000
1.000000 0.442172 1.000000
0.000000 0.739782 1.000000
0.000000 0.735124 1.000000
0.131367 0.727557 1.000000
0.342549 0.714091 1.000000
0.533232 0.697012 1.000000
0.701077 0.687839 1.000000
0.858008 0.672894 1.000000
1.000000 0.653999 1.000000
1.000000 0.629900 1.000000
0.000000 0.903807 1.000000
0.000000 0.896676 1.000000
0.158761 0.885636 1.000000
0.370545 0.880045 1.000000
0.544164 0.871209 1.000000
0.704903 0.860167 1.000000
0.861625 0.849297 1.000000
1.000000 0.833296 1.000000
1.000000 0.819041 1.000000
0.000000 1.000000 1.000000
0.037951 1.000000 1.000000
0.230878 1.000000 1.000000
0.403792 1.000000 1.000000
0.561898 1.000000 1.000000
0.713956 1.000000 1.000000
0.863878 1.000000 1.000000
1.000000 0.998549 1.000000
1.000000 0.987049 1.000000
0.003917 1.000000 1.000000
0.165360 1.000000 1.000000
0.335165 1.000000 1.000000
0.480150 1.000000 1.000000
0.620572 1.000000 1.000000
0.753374 1.000000 1.000000
0.889807 1.000000 1.000000
1.000000 1.000000 1.000000
1.000000 1.000000 1.000000
