working/Infinite_Arch_Leica_Looks_v1.2/looks/witness/look.CUBE
#Created by: Infinite Arch Leica Looks v1.0
#Unique Leica Look ID: 1002
#Based Filmstyle Mode: Monochrome
TITLE "IA Witness"
LUT_3D_SIZE 17
DOMAIN_MIN 0.0 0.0 0.0
DOMAIN_MAX 1.0 1.0 1.0
0.004000 0.004000 0.004000
0.004000 0.004000 0.004000
0.004000 0.004000 0.004000
0.004000 0.004000 0.004000
0.004000 0.004000 0.004000
0.004000 0.004000 0.004000
0.004000 0.004000 0.004000
0.004000 0.004000 0.004000
0.004000 0.004000 0.004000
0.005059 0.005059 0.005059
0.015452 0.015452 0.015452
0.026637 0.026637 0.026637
0.039642 0.039642 0.039642
0.053250 0.053250 0.053250
0.068549 0.068549 0.068549
0.083937 0.083937 0.083937
0.100365 0.100365 0.100365
0.004000 0.004000 0.004000
0.004000 0.004000 0.004000
0.004000 0.004000 0.004000
0.004000 0.004000 0.004000
0.004000 0.004000 0.004000
0.004000 0.004000 0.004000
0.008799 0.008799 0.008799
0.019330 0.019330 0.019330
0.031298 0.031298 0.031298
0.044505 0.044505 0.044505
0.058798 0.058798 0.058798
0.074150 0.074150 0.074150
0.089869 0.089869 0.089869
0.106404 0.106404 0.106404
0.123252 0.123252 0.123252
0.140708 0.140708 0.140708
0.158025 0.158025 0.158025
0.004000 0.004000 0.004000
0.004000 0.004000 0.004000
0.004000 0.004000 0.004000
0.012589 0.012589 0.012589
0.023259 0.023259 0.023259
0.036048 0.036048 0.036048
0.049409 0.049409 0.049409
0.064373 0.064373 0.064373
0.079755 0.079755 0.079755
0.095871 0.095871 0.095871
0.112468 0.112468 0.112468
0.129627 0.129627 0.129627
0.147023 0.147023 0.147023
0.164653 0.164653 0.164653
0.182601 0.182601 0.182601
0.200274 0.200274 0.200274
0.218260 0.218260 0.218260
0.016429 0.016429 0.016429
0.027808 0.027808 0.027808
0.040868 0.040868 0.040868
0.054652 0.054652 0.054652
0.069966 0.069966 0.069966
0.085397 0.085397 0.085397
0.101892 0.101892 0.101892
0.118562 0.118562 0.118562
0.135979 0.135979 0.135979
0.153321 0.153321 0.153321
0.171234 0.171234 0.171234
0.189028 0.189028 0.189028
0.206839 0.206839 0.206839
0.224771 0.224771 0.224771
0.242852 0.242852 0.242852
0.261318 0.261318 0.261318
0.280419 0.280419 0.280419
0.060208 0.060208 0.060208
0.075569 0.075569 0.075569
0.091387 0.091387 0.091387
0.107937 0.107937 0.107937
0.124869 0.124869 0.124869
0.142309 0.142309 0.142309
0.159708 0.159708 0.159708
0.177762 0.177762 0.177762
0.195393 0.195393 0.195393
0.213385 0.213385 0.213385
0.231262 0.231262 0.231262
0.249569 0.249569 0.249569
0.268051 0.268051 0.268051
0.287935 0.287935 0.287935
0.308725 0.308725 0.308725
0.331033 0.331033 0.331033
0.354420 0.354420 0.354420
0.114008 0.114008 0.114008
0.131238 0.131238 0.131238
0.148620 0.148620 0.148620
0.166324 0.166324 0.166324
0.184234 0.184234 0.184234
0.201939 0.201939 0.201939
0.219910 0.219910 0.219910
0.237842 0.237842 0.237842
0.256293 0.256293 0.256293
0.274822 0.274822 0.274822
0.295477 0.295477 0.295477
0.316360 0.316360 0.316360
0.339584 0.339584 0.339584
0.362855 0.362855 0.362855
0.386216 0.386216 0.386216
0.408588 0.408588 0.408588
0.429820 0.429820 0.429820
0.172892 0.172892 0.172892
0.190646 0.190646 0.190646
0.208499 0.208499 0.208499
0.226417 0.226417 0.226417
0.244552 0.244552 0.244552
0.263023 0.263023 0.263023
0.282320 0.282320 0.282320
0.303049 0.303049 0.303049
0.324623 0.324623 0.324623
0.348093 0.348093 0.348093
0.371316 0.371316 0.371316
0.394510 0.394510 0.394510
0.416413 0.416413 0.416413
0.437315 0.437315 0.437315
0.457241 0.457241 0.457241
0.477216 0.477216 0.477216
0.496967 0.496967 0.496967
0.232903 0.232903 0.232903
0.251271 0.251271 0.251271
0.269756 0.269756 0.269756
0.289842 0.289842 0.289842
0.310655 0.310655 0.310655
0.333202 0.333202 0.333202
0.356560 0.356560 0.356560
0.379910 0.379910 0.379910
0.402633 0.402633 0.402633
0.424134 0.424134 0.424134
0.444679 0.444679 0.444679
0.464439 0.464439 0.464439
0.484432 0.484432 0.484432
0.504151 0.504151 0.504151
0.524762 0.524762 0.524762
0.545334 0.545334 0.545334
0.566566 0.566566 0.566566
0.297391 0.297391 0.297391
0.318299 0.318299 0.318299
0.341742 0.341742 0.341742
0.364983 0.364983 0.364983
0.388332 0.388332 0.388332
0.410585 0.410585 0.410585
0.431730 0.431730 0.431730
0.451917 0.451917 0.451917
0.471786 0.471786 0.471786
0.491612 0.491612 0.491612
0.511652 0.511652 0.511652
0.532261 0.532261 0.532261
0.552993 0.552993 0.552993
0.574294 0.574294 0.574294
0.595381 0.595381 0.595381
0.616700 0.616700 0.616700
0.637393 0.637393 0.637393
0.373508 0.373508 0.373508
0.396583 0.396583 0.396583
0.418372 0.418372 0.418372
0.439192 0.439192 0.439192
0.459032 0.459032 0.459032
0.479048 0.479048 0.479048
0.498784 0.498784 0.498784
0.519158 0.519158 0.519158
0.539750 0.539750 0.539750
0.560775 0.560775 0.560775
0.581988 0.581988 0.581988
0.603207 0.603207 0.603207
0.624312 0.624312 0.624312
0.644945 0.644945 0.644945
0.665371 0.665371 0.665371
0.685114 0.685114 0.685114
0.704368 0.704368 0.704368
0.446524 0.446524 0.446524
0.466309 0.466309 0.466309
0.486253 0.486253 0.486253
0.506047 0.506047 0.506047
0.526662 0.526662 0.526662
0.547225 0.547225 0.547225
0.568526 0.568526 0.568526
0.589646 0.589646 0.589646
0.610961 0.610961 0.610961
0.631836 0.631836 0.631836
0.652466 0.652466 0.652466
0.672631 0.672631 0.672631
0.692195 0.692195 0.692195
0.711200 0.711200 0.711200
0.729624 0.729624 0.729624
0.747596 0.747596 0.747596
0.764906 0.764906 0.764906
0.513553 0.513553 0.513553
0.534159 0.534159 0.534159
0.554966 0.554966 0.554966
0.576245 0.576245 0.576245
0.597370 0.597370 0.597370
0.618635 0.618635 0.618635
0.639265 0.639265 0.639265
0.659889 0.659889 0.659889
0.679801 0.679801 0.679801
0.699198 0.699198 0.699198
0.717911 0.717911 0.717911
0.736277 0.736277 0.736277
0.753953 0.753953 0.753953
0.771048 0.771048 0.771048
0.787520 0.787520 0.787520
0.803477 0.803477 0.803477
0.818901 0.818901 0.818901
0.583930 0.583930 0.583930
0.605178 0.605178 0.605178
0.626226 0.626226 0.626226
0.646859 0.646859 0.646859
0.667219 0.667219 0.667219
0.686913 0.686913 0.686913
0.706109 0.706109 0.706109
0.724550 0.724550 0.724550
0.742797 0.742797 0.742797
0.760257 0.760257 0.760257
0.777115 0.777115 0.777115
0.793360 0.793360 0.793360
0.809171 0.809171 0.809171
0.824371 0.824371 0.824371
0.839207 0.839207 0.839207
0.853612 0.853612 0.853612
0.867634 0.867634 0.867634
0.654354 0.654354 0.654354
0.674455 0.674455 0.674455
0.693976 0.693976 0.693976
0.712911 0.712911 0.712911
0.731323 0.731323 0.731323
0.749212 0.749212 0.749212
0.766468 0.766468 0.766468
0.783102 0.783102 0.783102
0.799155 0.799155 0.799155
0.814772 0.814772 0.814772
0.829785 0.829785 0.829785
0.844509 0.844509 0.844509
0.858736 0.858736 0.858736
0.872663 0.872663 0.872663
0.886185 0.886185 0.886185
0.899474 0.899474 0.899474
0.912373 0.912373 0.912373
0.719590 0.719590 0.719590
0.737939 0.737939 0.737939
0.755553 0.755553 0.755553
0.772592 0.772592 0.772592
0.789007 0.789007 0.789007
0.804929 0.804929 0.804929
0.820293 0.820293 0.820293
0.835203 0.835203 0.835203
0.849744 0.849744 0.849744
0.863838 0.863838 0.863838
0.877633 0.877633 0.877633
0.891024 0.891024 0.891024
0.904225 0.904225 0.904225
0.916951 0.916951 0.916951
0.929540 0.929540 0.929540
0.941716 0.941716 0.941716
0.953583 0.953583 0.953583
0.778639 0.778639 0.778639
0.794824 0.794824 0.794824
0.810598 0.810598 0.810598
0.825747 0.825747 0.825747
0.840556 0.840556 0.840556
0.854915 0.854915 0.854915
0.868913 0.868913 0.868913
0.882548 0.882548 0.882548
0.895885 0.895885 0.895885
0.908913 0.908913 0.908913
0.921564 0.921564 0.921564
0.934022 0.934022 0.934022
0.946058 0.946058 0.946058
0.957829 0.957829 0.957829
0.969154 0.969154 0.969154
0.980112 0.980112 0.980112
0.990660 0.990660 0.990660
0.831160 0.831160 0.831160
0.845841 0.845841 0.845841
0.860023 0.860023 0.860023
0.873927 0.873927 0.873927
0.887413 0.887413 0.887413
0.900683 0.900683 0.900683
0.913538 0.913538 0.913538
0.926154 0.926154 0.926154
0.938446 0.938446 0.938446
0.950380 0.950380 0.950380
0.962016 0.962016 0.962016
0.973185 0.973185 0.973185
0.984003 0.984003 0.984003
0.994384 0.994384 0.994384
1.000000 1.000000 1.000000
1.000000 1.000000 1.000000
1.000000 1.000000 1.000000
0.004000 0.004000 0.004000
0.004000 0.004000 0.004000
0.004000 0.004000 0.004000
0.004000 0.004000 0.004000
0.004000 0.004000 0.004000
0.004000 0.004000 0.004000
0.004000 0.004000 0.004000
0.004000 0.004000 0.004000
0.004000 0.004000 0.004000
0.008546 0.008546 0.008546
0.019068 0.019068 0.019068
0.030982 0.030982 0.030982
0.044176 0.044176 0.044176
0.058425 0.058425 0.058425
0.073773 0.073773 0.073773
0.089466 0.089466 0.089466
0.105997 0.105997 0.105997
0.004000 0.004000 0.004000
0.004000 0.004000 0.004000
0.004000 0.004000 0.004000
0.004000 0.004000 0.004000
0.004000 0.004000 0.004000
0.004000 0.004000 0.004000
0.012332 0.012332 0.012332
0.022994 0.022994 0.022994
0.035726 0.035726 0.035726
0.049079 0.049079 0.049079
0.063998 0.063998 0.063998
0.079378 0.079378 0.079378
0.095467 0.095467 0.095467
0.112059 0.112059 0.112059
0.129200 0.129200 0.129200
0.146600 0.146600 0.146600
0.164209 0.164209 0.164209
0.004000 0.004000 0.004000
0.004000 0.004000 0.004000
0.005751 0.005751 0.005751
0.016170 0.016170 0.016170
0.027496 0.027496 0.027496
0.040543 0.040543 0.040543
0.054280 0.054280 0.054280
0.069590 0.069590 0.069590
0.084995 0.084995 0.084995
0.101487 0.101487 0.101487
0.118151 0.118151 0.118151
0.135553 0.135553 0.135553
0.152898 0.152898 0.152898
0.170793 0.170793 0.170793
0.188598 0.188598 0.188598
0.206399 0.206399 0.206399
0.224334 0.224334 0.224334
0.020058 0.020058 0.020058
0.032176 0.032176 0.032176
0.045414 0.045414 0.045414
0.059834 0.059834 0.059834
0.075193 0.075193 0.075193
0.090984 0.090984 0.090984
0.107530 0.107530 0.107530
0.124440 0.124440 0.124440
0.141884 0.141884 0.141884
0.159262 0.159262 0.159262
0.177325 0.177325 0.177325
0.194967 0.194967 0.194967
0.212945 0.212945 0.212945
0.230827 0.230827 0.230827
0.249117 0.249117 0.249117
0.267599 0.267599 0.267599
0.287429 0.287429 0.287429
0.065413 0.065413 0.065413
0.080797 0.080797 0.080797
0.096990 0.096990 0.096990
0.113599 0.113599 0.113599
0.130811 0.130811 0.130811
0.148196 0.148196 0.148196
0.165881 0.165881 0.165881
0.183801 0.183801 0.183801
0.201497 0.201497 0.201497
0.219473 0.219473 0.219473
0.237392 0.237392 0.237392
0.255841 0.255841 0.255841
0.274333 0.274333 0.274333
0.294969 0.294969 0.294969
0.315845 0.315845 0.315845
0.339010 0.339010 0.339010
0.362289 0.362289 0.362289
0.119699 0.119699 0.119699
0.137158 0.137158 0.137158
0.154491 0.154491 0.154491
0.172452 0.172452 0.172452
0.190217 0.190217 0.190217
0.208058 0.208058 0.208058
0.225980 0.225980 0.225980
0.244101 0.244101 0.244101
0.262571 0.262571 0.262571
0.281816 0.281816 0.281816
0.302539 0.302539 0.302539
0.324045 0.324045 0.324045
0.347523 0.347523 0.347523
0.370732 0.370732 0.370732
0.393958 0.393958 0.393958
0.415892 0.415892 0.415892
0.436816 0.436816 0.436816
0.178970 0.178970 0.178970
0.196585 0.196585 0.196585
0.214600 0.214600 0.214600
0.232468 0.232468 0.232468
0.250819 0.250819 0.250819
0.269304 0.269304 0.269304
0.289336 0.289336 0.289336
0.310143 0.310143 0.310143
0.332627 0.332627 0.332627
0.355993 0.355993 0.355993
0.379338 0.379338 0.379338
0.402093 0.402093 0.402093
0.423619 0.423619 0.423619
0.444188 0.444188 0.444188
0.463942 0.463942 0.463942
0.483949 0.483949 0.483949
0.503667 0.503667 0.503667
0.239090 0.239090 0.239090
0.257545 0.257545 0.257545
0.276215 0.276215 0.276215
0.296883 0.296883 0.296883
0.317784 0.317784 0.317784
0.341170 0.341170 0.341170
0.364419 0.364419 0.364419
0.387772 0.387772 0.387772
0.410056 0.410056 0.410056
0.431224 0.431224 0.431224
0.451434 0.451434 0.451434
0.471296 0.471296 0.471296
0.491130 0.491130 0.491130
0.511147 0.511147 0.511147
0.531758 0.531758 0.531758
0.552469 0.552469 0.552469
0.573775 0.573775 0.573775
0.304461 0.304461 0.304461
0.326222 0.326222 0.326222
0.349672 0.349672 0.349672
0.372928 0.372928 0.372928
0.396034 0.396034 0.396034
0.417850 0.417850 0.417850
0.438695 0.438695 0.438695
0.458557 0.458557 0.458557
0.478563 0.478563 0.478563
0.498302 0.498302 0.498302
0.518654 0.518654 0.518654
0.539247 0.539247 0.539247
0.560253 0.560253 0.560253
0.581472 0.581472 0.581472
0.602684 0.602684 0.602684
0.623803 0.623803 0.623803
0.644436 0.644436 0.644436
0.381490 0.381490 0.381490
0.404126 0.404126 0.404126
0.425558 0.425558 0.425558
0.446035 0.446035 0.446035
0.465814 0.465814 0.465814
0.485770 0.485770 0.485770
0.505542 0.505542 0.505542
0.526158 0.526158 0.526158
0.546723 0.546723 0.546723
0.568006 0.568006 0.568006
0.589133 0.589133 0.589133
0.610442 0.610442 0.610442
0.631333 0.631333 0.631333
0.651963 0.651963 0.651963
0.672147 0.672147 0.672147
0.691721 0.691721 0.691721
0.710744 0.710744 0.710744
0.453249 0.453249 0.453249
0.473143 0.473143 0.473143
0.492946 0.492946 0.492946
0.513048 0.513048 0.513048
0.533655 0.533655 0.533655
0.554443 0.554443 0.554443
0.575728 0.575728 0.575728
0.596842 0.596842 0.596842
0.618122 0.618122 0.618122
0.638769 0.638769 0.638769
0.659393 0.659393 0.659393
0.679322 0.679322 0.679322
0.698730 0.698730 0.698730
0.717464 0.717464 0.717464
0.735834 0.735834 0.735834
0.753528 0.753528 0.753528
0.770638 0.770638 0.770638
0.520555 0.520555 0.520555
0.541142 0.541142 0.541142
0.562219 0.562219 0.562219
0.583415 0.583415 0.583415
0.604656 0.604656 0.604656
0.625719 0.625719 0.625719
0.646352 0.646352 0.646352
0.666729 0.666729 0.666729
0.686436 0.686436 0.686436
0.705648 0.705648 0.705648
0.724089 0.724089 0.724089
0.742362 0.742362 0.742362
0.759835 0.759835 0.759835
0.776710 0.776710 0.776710
0.792970 0.792970 0.792970
0.808792 0.808792 0.808792
0.824006 0.824006 0.824006
0.591067 0.591067 0.591067
0.612395 0.612395 0.612395
0.633225 0.633225 0.633225
0.653854 0.653854 0.653854
0.673972 0.673972 0.673972
0.693504 0.693504 0.693504
0.712458 0.712458 0.712458
0.730873 0.730873 0.730873
0.748784 0.748784 0.748784
0.766054 0.766054 0.766054
0.782703 0.782703 0.782703
0.798763 0.798763 0.798763
0.814398 0.814398 0.814398
0.829422 0.829422 0.829422
0.844155 0.844155 0.844155
0.858393 0.858393 0.858393
0.872327 0.872327 0.872327
0.661260 0.661260 0.661260
0.681125 0.681125 0.681125
0.700491 0.700491 0.700491
0.719146 0.719146 0.719146
0.737499 0.737499 0.737499
0.755129 0.755129 0.755129
0.772183 0.772183 0.772183
0.788613 0.788613 0.788613
0.804544 0.804544 0.804544
0.819924 0.819924 0.819924
0.834841 0.834841 0.834841
0.849395 0.849395 0.849395
0.863495 0.863495 0.863495
0.877301 0.877301 0.877301
0.890695 0.890695 0.890695
0.903908 0.903908 0.903908
0.916645 0.916645 0.916645
0.725823 0.725823 0.725823
0.743997 0.743997 0.743997
0.761427 0.761427 0.761427
0.778235 0.778235 0.778235
0.794436 0.794436 0.794436
0.810220 0.810220 0.810220
0.825382 0.825382 0.825382
0.840199 0.840199 0.840199
0.854570 0.854570 0.854570
0.868574 0.868574 0.868574
0.882220 0.882220 0.882220
0.895561 0.895561 0.895561
0.908600 0.908600 0.908600
0.921254 0.921254 0.921254
0.933723 0.933723 0.933723
0.945766 0.945766 0.945766
0.957545 0.957545 0.957545
0.784207 0.784207 0.784207
0.800238 0.800238 0.800238
0.815805 0.815805 0.815805
0.830795 0.830795 0.830795
0.845488 0.845488 0.845488
0.859682 0.859682 0.859682
0.873592 0.873592 0.873592
0.887087 0.887087 0.887087
0.900363 0.900363 0.900363
0.913229 0.913229 0.913229
0.925848 0.925848 0.925848
0.938151 0.938151 0.938151
0.950091 0.950091 0.950091
0.961736 0.961736 0.961736
0.972916 0.972916 0.972916
0.983743 0.983743 0.983743
0.994136 0.994136 0.994136
0.836205 0.836205 0.836205
0.850711 0.850711 0.850711
0.864787 0.864787 0.864787
0.878551 0.878551 0.878551
0.891933 0.891933 0.891933
0.905102 0.905102 0.905102
0.917795 0.917795 0.917795
0.930379 0.930379 0.930379
0.942526 0.942526 0.942526
0.954376 0.954376 0.954376
0.965858 0.965858 0.965858
0.976905 0.976905 0.976905
0.987580 0.987580 0.987580
0.997794 0.997794 0.997794
1.000000 1.000000 1.000000
1.000000 1.000000 1.000000
1.000000 1.000000 1.000000
0.004000 0.004000 0.004000
0.004000 0.004000 0.004000
0.004000 0.004000 0.004000
0.004000 0.004000 0.004000
0.004000 0.004000 0.004000
0.004000 0.004000 0.004000
0.004000 0.004000 0.004000
0.004000 0.004000 0.004000
0.004000 0.004000 0.004000
0.012076 0.012076 0.012076
0.022729 0.022729 0.022729
0.035405 0.035405 0.035405
0.048748 0.048748 0.048748
0.063623 0.063623 0.063623
0.079002 0.079002 0.079002
0.095064 0.095064 0.095064
0.111651 0.111651 0.111651
0.004000 0.004000 0.004000
0.004000 0.004000 0.004000
0.004000 0.004000 0.004000
0.004000 0.004000 0.004000
0.004000 0.004000 0.004000
0.005501 0.005501 0.005501
0.015910 0.015910 0.015910
0.027185 0.027185 0.027185
0.040217 0.040217 0.040217
0.053908 0.053908 0.053908
0.069214 0.069214 0.069214
0.084602 0.084602 0.084602
0.101082 0.101082 0.101082
0.117741 0.117741 0.117741
0.135127 0.135127 0.135127
0.152476 0.152476 0.152476
0.170352 0.170352 0.170352
0.004000 0.004000 0.004000
0.004000 0.004000 0.004000
0.009246 0.009246 0.009246
0.019795 0.019795 0.019795
0.031858 0.031858 0.031858
0.045086 0.045086 0.045086
0.059460 0.059460 0.059460
0.074816 0.074816 0.074816
0.090582 0.090582 0.090582
0.107123 0.107123 0.107123
0.124011 0.124011 0.124011
0.141460 0.141460 0.141460
0.158815 0.158815 0.158815
0.176888 0.176888 0.176888
0.194541 0.194541 0.194541
0.212506 0.212506 0.212506
0.230391 0.230391 0.230391
0.023762 0.023762 0.023762
0.036617 0.036617 0.036617
0.049994 0.049994 0.049994
0.065037 0.065037 0.065037
0.080421 0.080421 0.080421
0.096586 0.096586 0.096586
0.113190 0.113190 0.113190
0.130384 0.130384 0.130384
0.147773 0.147773 0.147773
0.165438 0.165438 0.165438
0.183368 0.183368 0.183368
0.201056 0.201056 0.201056
0.219035 0.219035 0.219035
0.236942 0.236942 0.236942
0.255389 0.255389 0.255389
0.273881 0.273881 0.273881
0.294462 0.294462 0.294462
0.070632 0.070632 0.070632
0.086108 0.086108 0.086108
0.102609 0.102609 0.102609
0.119288 0.119288 0.119288
0.136732 0.136732 0.136732
0.154068 0.154068 0.154068
0.172012 0.172012 0.172012
0.189788 0.189788 0.189788
0.207618 0.207618 0.207618
0.225543 0.225543 0.225543
0.243650 0.243650 0.243650
0.262118 0.262118 0.262118
0.281311 0.281311 0.281311
0.302029 0.302029 0.302029
0.323467 0.323467 0.323467
0.346952 0.346952 0.346952
0.370148 0.370148 0.370148
0.125627 0.125627 0.125627
0.143060 0.143060 0.143060
0.160497 0.160497 0.160497
0.178534 0.178534 0.178534
0.196145 0.196145 0.196145
0.214161 0.214161 0.214161
0.232033 0.232033 0.232033
0.250368 0.250368 0.250368
0.268852 0.268852 0.268852
0.288830 0.288830 0.288830
0.309631 0.309631 0.309631
0.332052 0.332052 0.332052
0.355425 0.355425 0.355425
0.378765 0.378765 0.378765
0.401552 0.401552 0.401552
0.423103 0.423103 0.423103
0.443697 0.443697 0.443697
0.185000 0.185000 0.185000
0.202719 0.202719 0.202719
0.220685 0.220685 0.220685
0.238639 0.238639 0.238639
0.257093 0.257093 0.257093
0.275712 0.275712 0.275712
0.296375 0.296375 0.296375
0.317270 0.317270 0.317270
0.340597 0.340597 0.340597
0.363854 0.363854 0.363854
0.387211 0.387211 0.387211
0.409527 0.409527 0.409527
0.430718 0.430718 0.430718
0.450951 0.450951 0.450951
0.470805 0.470805 0.470805
0.490649 0.490649 0.490649
0.510643 0.510643 0.510643
0.245350 0.245350 0.245350
0.263823 0.263823 0.263823
0.283213 0.283213 0.283213
0.303951 0.303951 0.303951
0.325645 0.325645 0.325645
0.349102 0.349102 0.349102
0.372346 0.372346 0.372346
0.395485 0.395485 0.395485
0.417331 0.417331 0.417331
0.438197 0.438197 0.438197
0.458082 0.458082 0.458082
0.478076 0.478076 0.478076
0.497820 0.497820 0.497820
0.518150 0.518150 0.518150
0.538744 0.538744 0.538744
0.559731 0.559731 0.559731
0.580956 0.580956 0.580956
0.311561 0.311561 0.311561
0.334219 0.334219 0.334219
0.357564 0.357564 0.357564
0.380920 0.380920 0.380920
0.403587 0.403587 0.403587
0.425044 0.425044 0.425044
0.445546 0.445546 0.445546
0.465318 0.465318 0.465318
0.485287 0.485287 0.485287
0.505038 0.505038 0.505038
0.525654 0.525654 0.525654
0.546222 0.546222 0.546222
0.567486 0.567486 0.567486
0.588619 0.588619 0.588619
0.609923 0.609923 0.609923
0.630830 0.630830 0.630830
0.651461 0.651461 0.651461
0.389322 0.389322 0.389322
0.411519 0.411519 0.411519
0.432624 0.432624 0.432624
0.452769 0.452769 0.452769
0.472654 0.472654 0.472654
0.492465 0.492465 0.492465
0.512544 0.512544 0.512544
0.533152 0.533152 0.533152
0.553920 0.553920 0.553920
0.575210 0.575210 0.575210
0.596315 0.596315 0.596315
0.617609 0.617609 0.617609
0.638272 0.638272 0.638272
0.658897 0.658897 0.658897
0.678843 0.678843 0.678843
0.698262 0.698262 0.698262
0.717017 0.717017 0.717017
0.459869 0.459869 0.459869
0.479907 0.479907 0.479907
0.499637 0.499637 0.499637
0.520050 0.520050 0.520050
0.540639 0.540639 0.540639
0.561698 0.561698 0.561698
0.582900 0.582900 0.582900
0.604133 0.604133 0.604133
0.625211 0.625211 0.625211
0.645844 0.645844 0.645844
0.666239 0.666239 0.666239
0.685959 0.685959 0.685959
0.705186 0.705186 0.705186
0.723627 0.723627 0.723627
0.741927 0.741927 0.741927
0.759412 0.759412 0.759412
0.776304 0.776304 0.776304
0.527553 0.527553 0.527553
0.548112 0.548112 0.548112
0.569445 0.569445 0.569445
0.590554 0.590554 0.590554
0.611877 0.611877 0.611877
0.632724 0.632724 0.632724
0.653353 0.653353 0.653353
0.673488 0.673488 0.673488
0.693031 0.693031 0.693031
0.712004 0.712004 0.712004
0.730422 0.730422 0.730422
0.748355 0.748355 0.748355
0.765640 0.765640 0.765640
0.782303 0.782303 0.782303
0.798371 0.798371 0.798371
0.814024 0.814024 0.814024
0.829060 0.829060 0.829060
0.598301 0.598301 0.598301
0.619542 0.619542 0.619542
0.640173 0.640173 0.640173
0.660765 0.660765 0.660765
0.680647 0.680647 0.680647
0.700025 0.700025 0.700025
0.718700 0.718700 0.718700
0.737058 0.737058 0.737058
0.754704 0.754704 0.754704
0.771773 0.771773 0.771773
0.788218 0.788218 0.788218
0.804159 0.804159 0.804159
0.819555 0.819555 0.819555
0.834479 0.834479 0.834479
0.849045 0.849045 0.849045
0.863151 0.863151 0.863151
0.876968 0.876968 0.876968
0.668084 0.668084 0.668084
0.687757 0.687757 0.687757
0.706923 0.706923 0.706923
0.725364 0.725364 0.725364
0.743564 0.743564 0.743564
0.761004 0.761004 0.761004
0.777831 0.777831 0.777831
0.794048 0.794048 0.794048
0.809842 0.809842 0.809842
0.825017 0.825017 0.825017
0.839841 0.839841 0.839841
0.854224 0.854224 0.854224
0.868235 0.868235 0.868235
0.881891 0.881891 0.881891
0.895236 0.895236 0.895236
0.908287 0.908287 0.908287
0.920943 0.920943 0.920943
0.732117 0.732117 0.732117
0.749969 0.749969 0.749969
0.767200 0.767200 0.767200
0.783809 0.783809 0.783809
0.799847 0.799847 0.799847
0.815432 0.815432 0.815432
0.830429 0.830429 0.830429
0.845135 0.845135 0.845135
0.859340 0.859340 0.859340
0.873257 0.873257 0.873257
0.886762 0.886762 0.886762
0.900042 0.900042 0.900042
0.912920 0.912920 0.912920
0.925542 0.925542 0.925542
0.937855 0.937855 0.937855
0.949801 0.949801 0.949801
0.961457 0.961457 0.961457
0.789703 0.789703 0.789703
0.805608 0.805608 0.805608
0.820944 0.820944 0.820944
0.835843 0.835843 0.835843
0.850362 0.850362 0.850362
0.864445 0.864445 0.864445
0.878220 0.878220 0.878220
0.891605 0.891605 0.891605
0.904786 0.904786 0.904786
0.917491 0.917491 0.917491
0.930076 0.930076 0.930076
0.942234 0.942234 0.942234
0.954090 0.954090 0.954090
0.965584 0.965584 0.965584
0.976639 0.976639 0.976639
0.987324 0.987324 0.987324
0.997551 0.997551 0.997551
0.841188 0.841188 0.841188
0.855526 0.855526 0.855526
0.869512 0.869512 0.869512
0.883129 0.883129 0.883129
0.896459 0.896459 0.896459
0.909466 0.909466 0.909466
0.922114 0.922114 0.922114
0.934551 0.934551 0.934551
0.946573 0.946573 0.946573
0.958330 0.958330 0.958330
0.969631 0.969631 0.969631
0.980578 0.980578 0.980578
0.991107 0.991107 0.991107
1.000000 1.000000 1.000000
1.000000 1.000000 1.000000
1.000000 1.000000 1.000000
1.000000 1.000000 1.000000
0.004000 0.004000 0.004000
0.004000 0.004000 0.004000
0.004000 0.004000 0.004000
0.004000 0.004000 0.004000
0.004000 0.004000 0.004000
0.004000 0.004000 0.004000
0.004000 0.004000 0.004000
0.004000 0.004000 0.004000
0.005251 0.005251 0.005251
0.015651 0.015651 0.015651
0.026875 0.026875 0.026875
0.039892 0.039892 0.039892
0.053536 0.053536 0.053536
0.068838 0.068838 0.068838
0.084226 0.084226 0.084226
