working/Infinite_Arch_Leica_Looks_v1.2/looks/witness/look.CUBE
#Created by: Infinite Arch Leica Looks v1.0
#Unique Leica Look ID: 1002
#Based Filmstyle Mode: Monochrome
TITLE "IA Witness"
LUT_3D_SIZE 5
DOMAIN_MIN 0.0 0.0 0.0
DOMAIN_MAX 1.0 1.0 1.0
0.004000 0.004000 0.004000
0.004000 0.004000 0.004000
0.004000 0.004000 0.004000
0.039642 0.039642 0.039642
0.100365 0.100365 0.100365
0.060208 0.060208 0.060208
0.124869 0.124869 0.124869
0.195393 0.195393 0.195393
0.268051 0.268051 0.268051
0.354420 0.354420 0.354420
0.297391 0.297391 0.297391
0.388332 0.388332 0.388332
0.471786 0.471786 0.471786
0.552993 0.552993 0.552993
0.637393 0.637393 0.637393
0.583930 0.583930 0.583930
0.667219 0.667219 0.667219
0.742797 0.742797 0.742797
0.809171 0.809171 0.809171
0.867634 0.867634 0.867634
0.831160 0.831160 0.831160
0.887413 0.887413 0.887413
0.938446 0.938446 0.938446
0.984003 0.984003 0.984003
1.000000 1.000000 1.000000
0.004000 0.004000 0.004000
0.004000 0.004000 0.004000
0.008740 0.008740 0.008740
0.058712 0.058712 0.058712
0.123153 0.123153 0.123153
0.081086 0.081086 0.081086
0.148522 0.148522 0.148522
0.219809 0.219809 0.219809
0.295360 0.295360 0.295360
0.386086 0.386086 0.386086
0.326666 0.326666 0.326666
0.418251 0.418251 0.418251
0.498673 0.498673 0.498673
0.581869 0.581869 0.581869
0.665258 0.665258 0.665258
0.612793 0.612793 0.612793
0.693867 0.693867 0.693867
0.766373 0.766373 0.766373
0.829701 0.829701 0.829701
0.886110 0.886110 0.886110
0.850979 0.850979 0.850979
0.905345 0.905345 0.905345
0.954597 0.954597 0.954597
0.997981 0.997981 0.997981
1.000000 1.000000 1.000000
0.004000 0.004000 0.004000
0.004000 0.004000 0.004000
0.023137 0.023137 0.023137
0.079581 0.079581 0.079581
0.146828 0.146828 0.146828
0.103233 0.103233 0.103233
0.172689 0.172689 0.172689
0.244344 0.244344 0.244344
0.324356 0.324356 0.324356
0.416172 0.416172 0.416172
0.358436 0.358436 0.358436
0.446298 0.446298 0.446298
0.526429 0.526429 0.526429
0.610721 0.610721 0.610721
0.691976 0.691976 0.691976
0.640961 0.640961 0.640961
0.719385 0.719385 0.719385
0.788825 0.788825 0.788825
0.849583 0.849583 0.849583
0.904079 0.904079 0.904079
0.870033 0.870033 0.870033
0.922590 0.922590 0.922590
0.970049 0.970049 0.970049
1.000000 1.000000 1.000000
1.000000 1.000000 1.000000
0.004000 0.004000 0.004000
0.004000 0.004000 0.004000
0.040643 0.040643 0.040643
0.101612 0.101612 0.101612
0.170929 0.170929 0.170929
0.126188 0.126188 0.126188
0.196721 0.196721 0.196721
0.269443 0.269443 0.269443
0.356168 0.356168 0.356168
0.444340 0.444340 0.444340
0.390052 0.390052 0.390052
0.473294 0.473294 0.473294
0.554604 0.554604 0.554604
0.638921 0.638921 0.638921
0.717602 0.717602 0.717602
0.668722 0.668722 0.668722
0.744130 0.744130 0.744130
0.810336 0.810336 0.810336
0.868679 0.868679 0.868679
0.921349 0.921349 0.921349
0.888412 0.888412 0.888412
0.939354 0.939354 0.939354
0.984800 0.984800 0.984800
1.000000 1.000000 1.000000
1.000000 1.000000 1.000000
0.004000 0.004000 0.004000
0.009519 0.009519 0.009519
0.059863 0.059863 0.059863
0.124473 0.124473 0.124473
0.195000 0.195000 0.195000
0.149824 0.149824 0.149824
0.221156 0.221156 0.221156
0.296922 0.296922 0.296922
0.387815 0.387815 0.387815
0.471334 0.471334 0.471334
0.419855 0.419855 0.419855
0.500157 0.500157 0.500157
0.583455 0.583455 0.583455
0.666767 0.666767 0.666767
0.742396 0.742396 0.742396
0.695318 0.695318 0.695318
0.767645 0.767645 0.767645
0.830823 0.830823 0.830823
0.887112 0.887112 0.887112
0.938174 0.938174 0.938174
0.906316 0.906316 0.906316
0.955476 0.955476 0.955476
0.998728 0.998728 0.998728
1.000000 1.000000 1.000000
1.000000 1.000000 1.000000
