working/Infinite_Arch_Leica_Looks_v1.2/looks/witness/look.CUBE
#Created by: Infinite Arch Leica Looks v1.0
#Unique Leica Look ID: 1002
#Based Filmstyle Mode: Monochrome
TITLE "IA Witness"
LUT_3D_SIZE 9
DOMAIN_MIN 0.0 0.0 0.0
DOMAIN_MAX 1.0 1.0 1.0
0.004000 0.004000 0.004000
0.004000 0.004000 0.004000
0.004000 0.004000 0.004000
0.004000 0.004000 0.004000
0.004000 0.004000 0.004000
0.015452 0.015452 0.015452
0.039642 0.039642 0.039642
0.068549 0.068549 0.068549
0.100365 0.100365 0.100365
0.004000 0.004000 0.004000
0.004000 0.004000 0.004000
0.023259 0.023259 0.023259
0.049409 0.049409 0.049409
0.079755 0.079755 0.079755
0.112468 0.112468 0.112468
0.147023 0.147023 0.147023
0.182601 0.182601 0.182601
0.218260 0.218260 0.218260
0.060208 0.060208 0.060208
0.091387 0.091387 0.091387
0.124869 0.124869 0.124869
0.159708 0.159708 0.159708
0.195393 0.195393 0.195393
0.231262 0.231262 0.231262
0.268051 0.268051 0.268051
0.308725 0.308725 0.308725
0.354420 0.354420 0.354420
0.172892 0.172892 0.172892
0.208499 0.208499 0.208499
0.244552 0.244552 0.244552
0.282320 0.282320 0.282320
0.324623 0.324623 0.324623
0.371316 0.371316 0.371316
0.416413 0.416413 0.416413
0.457241 0.457241 0.457241
0.496967 0.496967 0.496967
0.297391 0.297391 0.297391
0.341742 0.341742 0.341742
0.388332 0.388332 0.388332
0.431730 0.431730 0.431730
0.471786 0.471786 0.471786
0.511652 0.511652 0.511652
0.552993 0.552993 0.552993
0.595381 0.595381 0.595381
0.637393 0.637393 0.637393
0.446524 0.446524 0.446524
0.486253 0.486253 0.486253
0.526662 0.526662 0.526662
0.568526 0.568526 0.568526
0.610961 0.610961 0.610961
0.652466 0.652466 0.652466
0.692195 0.692195 0.692195
0.729624 0.729624 0.729624
0.764906 0.764906 0.764906
0.583930 0.583930 0.583930
0.626226 0.626226 0.626226
0.667219 0.667219 0.667219
0.706109 0.706109 0.706109
0.742797 0.742797 0.742797
0.777115 0.777115 0.777115
0.809171 0.809171 0.809171
0.839207 0.839207 0.839207
0.867634 0.867634 0.867634
0.719590 0.719590 0.719590
0.755553 0.755553 0.755553
0.789007 0.789007 0.789007
0.820293 0.820293 0.820293
0.849744 0.849744 0.849744
0.877633 0.877633 0.877633
0.904225 0.904225 0.904225
0.929540 0.929540 0.929540
0.953583 0.953583 0.953583
0.831160 0.831160 0.831160
0.860023 0.860023 0.860023
0.887413 0.887413 0.887413
0.913538 0.913538 0.913538
0.938446 0.938446 0.938446
0.962016 0.962016 0.962016
0.984003 0.984003 0.984003
1.000000 1.000000 1.000000
1.000000 1.000000 1.000000
0.004000 0.004000 0.004000
0.004000 0.004000 0.004000
0.004000 0.004000 0.004000
0.004000 0.004000 0.004000
0.004000 0.004000 0.004000
0.022729 0.022729 0.022729
0.048748 0.048748 0.048748
0.079002 0.079002 0.079002
0.111651 0.111651 0.111651
0.004000 0.004000 0.004000
0.009246 0.009246 0.009246
0.031858 0.031858 0.031858
0.059460 0.059460 0.059460
0.090582 0.090582 0.090582
0.124011 0.124011 0.124011
0.158815 0.158815 0.158815
0.194541 0.194541 0.194541
0.230391 0.230391 0.230391
0.070632 0.070632 0.070632
0.102609 0.102609 0.102609
0.136732 0.136732 0.136732
0.172012 0.172012 0.172012
0.207618 0.207618 0.207618
0.243650 0.243650 0.243650
0.281311 0.281311 0.281311
0.323467 0.323467 0.323467
0.370148 0.370148 0.370148
0.185000 0.185000 0.185000
0.220685 0.220685 0.220685
0.257093 0.257093 0.257093
0.296375 0.296375 0.296375
0.340597 0.340597 0.340597
0.387211 0.387211 0.387211
0.430718 0.430718 0.430718
0.470805 0.470805 0.470805
0.510643 0.510643 0.510643
0.311561 0.311561 0.311561
0.357564 0.357564 0.357564
0.403587 0.403587 0.403587
0.445546 0.445546 0.445546
0.485287 0.485287 0.485287
0.525654 0.525654 0.525654
0.567486 0.567486 0.567486
0.609923 0.609923 0.609923
0.651461 0.651461 0.651461
0.459869 0.459869 0.459869
0.499637 0.499637 0.499637
0.540639 0.540639 0.540639
0.582900 0.582900 0.582900
0.625211 0.625211 0.625211
0.666239 0.666239 0.666239
0.705186 0.705186 0.705186
0.741927 0.741927 0.741927
0.776304 0.776304 0.776304
0.598301 0.598301 0.598301
0.640173 0.640173 0.640173
0.680647 0.680647 0.680647
0.718700 0.718700 0.718700
0.754704 0.754704 0.754704
0.788218 0.788218 0.788218
0.819555 0.819555 0.819555
0.849045 0.849045 0.849045
0.876968 0.876968 0.876968
0.732117 0.732117 0.732117
0.767200 0.767200 0.767200
0.799847 0.799847 0.799847
0.830429 0.830429 0.830429
0.859340 0.859340 0.859340
0.886762 0.886762 0.886762
0.912920 0.912920 0.912920
0.937855 0.937855 0.937855
0.961457 0.961457 0.961457
0.841188 0.841188 0.841188
0.869512 0.869512 0.869512
0.896459 0.896459 0.896459
0.922114 0.922114 0.922114
0.946573 0.946573 0.946573
0.969631 0.969631 0.969631
0.991107 0.991107 0.991107
1.000000 1.000000 1.000000
1.000000 1.000000 1.000000
0.004000 0.004000 0.004000
0.004000 0.004000 0.004000
0.004000 0.004000 0.004000
0.004000 0.004000 0.004000
0.008740 0.008740 0.008740
0.031225 0.031225 0.031225
0.058712 0.058712 0.058712
0.089776 0.089776 0.089776
0.123153 0.123153 0.123153
0.004000 0.004000 0.004000
0.016369 0.016369 0.016369
0.040793 0.040793 0.040793
0.069880 0.069880 0.069880
0.101799 0.101799 0.101799
0.135881 0.135881 0.135881
0.171132 0.171132 0.171132
0.206738 0.206738 0.206738
0.242748 0.242748 0.242748
0.081086 0.081086 0.081086
0.113914 0.113914 0.113914
0.148522 0.148522 0.148522
0.184134 0.184134 0.184134
0.219809 0.219809 0.219809
0.256189 0.256189 0.256189
0.295360 0.295360 0.295360
0.339451 0.339451 0.339451
0.386086 0.386086 0.386086
0.196925 0.196925 0.196925
0.232803 0.232803 0.232803
0.269652 0.269652 0.269652
0.310537 0.310537 0.310537
0.356430 0.356430 0.356430
0.402509 0.402509 0.402509
0.444566 0.444566 0.444566
0.484321 0.484321 0.484321
0.524646 0.524646 0.524646
0.326666 0.326666 0.326666
0.373375 0.373375 0.373375
0.418251 0.418251 0.418251
0.458922 0.458922 0.458922
0.498673 0.498673 0.498673
0.539634 0.539634 0.539634
0.581869 0.581869 0.581869
0.624195 0.624195 0.624195
0.665258 0.665258 0.665258
0.473519 0.473519 0.473519
0.513436 0.513436 0.513436
0.554846 0.554846 0.554846
0.597248 0.597248 0.597248
0.639150 0.639150 0.639150
0.679690 0.679690 0.679690
0.717808 0.717808 0.717808
0.753855 0.753855 0.753855
0.787428 0.787428 0.787428
0.612793 0.612793 0.612793
0.654239 0.654239 0.654239
0.693867 0.693867 0.693867
0.731219 0.731219 0.731219
0.766373 0.766373 0.766373
0.799065 0.799065 0.799065
0.829701 0.829701 0.829701
0.858657 0.858657 0.858657
0.886110 0.886110 0.886110
0.744330 0.744330 0.744330
0.778546 0.778546 0.778546
0.810511 0.810511 0.810511
0.840474 0.840474 0.840474
0.868835 0.868835 0.868835
0.895810 0.895810 0.895810
0.921493 0.921493 0.921493
0.945990 0.945990 0.945990
0.969092 0.969092 0.969092
0.850979 0.850979 0.850979
0.878806 0.878806 0.878806
0.905345 0.905345 0.905345
0.930611 0.930611 0.930611
0.954597 0.954597 0.954597
0.977110 0.977110 0.977110
0.997981 0.997981 0.997981
1.000000 1.000000 1.000000
1.000000 1.000000 1.000000
0.004000 0.004000 0.004000
0.004000 0.004000 0.004000
0.004000 0.004000 0.004000
0.004000 0.004000 0.004000
0.015850 0.015850 0.015850
0.040142 0.040142 0.040142
0.069127 0.069127 0.069127
0.100988 0.100988 0.100988
0.135028 0.135028 0.135028
0.004000 0.004000 0.004000
0.023692 0.023692 0.023692
0.049918 0.049918 0.049918
0.080334 0.080334 0.080334
0.113096 0.113096 0.113096
0.147675 0.147675 0.147675
0.183268 0.183268 0.183268
0.218934 0.218934 0.218934
0.255285 0.255285 0.255285
0.092007 0.092007 0.092007
0.125528 0.125528 0.125528
0.160394 0.160394 0.160394
0.196047 0.196047 0.196047
0.231932 0.231932 0.231932
0.268747 0.268747 0.268747
0.309513 0.309513 0.309513
0.355294 0.355294 0.355294
0.401427 0.401427 0.401427
0.209175 0.209175 0.209175
0.245246 0.245246 0.245246
0.283097 0.283097 0.283097
0.325512 0.325512 0.325512
0.372212 0.372212 0.372212
0.417212 0.417212 0.417212
0.457973 0.457973 0.457973
0.497709 0.497709 0.497709
0.538628 0.538628 0.538628
0.342623 0.342623 0.342623
0.389193 0.389193 0.389193
0.432508 0.432508 0.432508
0.472541 0.472541 0.472541
0.512428 0.512428 0.512428
0.553799 0.553799 0.553799
0.596193 0.596193 0.596193
0.638158 0.638158 0.638158
0.678732 0.678732 0.678732
0.486995 0.486995 0.486995
0.527437 0.527437 0.527437
0.569325 0.569325 0.569325
0.611758 0.611758 0.611758
0.653237 0.653237 0.653237
0.692922 0.692922 0.692922
0.730318 0.730318 0.730318
0.765544 0.765544 0.765544
0.798280 0.798280 0.798280
0.627005 0.627005 0.627005
0.667971 0.667971 0.667971
0.706817 0.706817 0.706817
0.743464 0.743464 0.743464
0.777738 0.777738 0.777738
0.809754 0.809754 0.809754
0.839758 0.839758 0.839758
0.868157 0.868157 0.868157
0.895161 0.895161 0.895161
0.756205 0.756205 0.756205
0.789612 0.789612 0.789612
0.820859 0.820859 0.820859
0.850282 0.850282 0.850282
0.878143 0.878143 0.878143
0.904713 0.904713 0.904713
0.930006 0.930006 0.930006
0.954024 0.954024 0.954024
0.976577 0.976577 0.976577
0.860548 0.860548 0.860548
0.887913 0.887913 0.887913
0.914012 0.914012 0.914012
0.938901 0.938901 0.938901
0.962445 0.962445 0.962445
0.984402 0.984402 0.984402
1.000000 1.000000 1.000000
1.000000 1.000000 1.000000
1.000000 1.000000 1.000000
0.004000 0.004000 0.004000
0.004000 0.004000 0.004000
0.004000 0.004000 0.004000
0.004000 0.004000 0.004000
0.023137 0.023137 0.023137
0.049257 0.049257 0.049257
0.079581 0.079581 0.079581
0.112279 0.112279 0.112279
0.146828 0.146828 0.146828
0.009636 0.009636 0.009636
0.032347 0.032347 0.032347
0.060035 0.060035 0.060035
0.091201 0.091201 0.091201
0.124671 0.124671 0.124671
0.159502 0.159502 0.159502
0.195196 0.195196 0.195196
0.231061 0.231061 0.231061
0.267842 0.267842 0.267842
0.103233 0.103233 0.103233
0.137387 0.137387 0.137387
0.172689 0.172689 0.172689
0.208295 0.208295 0.208295
0.244344 0.244344 0.244344
0.282087 0.282087 0.282087
0.324356 0.324356 0.324356
0.371047 0.371047 0.371047
0.416172 0.416172 0.416172
0.221358 0.221358 0.221358
0.257788 0.257788 0.257788
0.297157 0.297157 0.297157
0.341478 0.341478 0.341478
0.388074 0.388074 0.388074
0.431497 0.431497 0.431497
0.471560 0.471560 0.471560
0.511419 0.511419 0.511419
0.552751 0.552751 0.552751
0.358436 0.358436 0.358436
0.404415 0.404415 0.404415
0.446298 0.446298 0.446298
0.486030 0.486030 0.486030
0.526429 0.526429 0.526429
0.568286 0.568286 0.568286
0.610721 0.610721 0.610721
0.652234 0.652234 0.652234
0.691976 0.691976 0.691976
0.500379 0.500379 0.500379
0.541412 0.541412 0.541412
0.583693 0.583693 0.583693
0.625992 0.625992 0.625992
0.666993 0.666993 0.666993
0.705896 0.705896 0.705896
0.742596 0.742596 0.742596
0.776928 0.776928 0.776928
0.808996 0.808996 0.808996
0.640961 0.640961 0.640961
0.681382 0.681382 0.681382
0.719385 0.719385 0.719385
0.755357 0.755357 0.755357
0.788825 0.788825 0.788825
0.820122 0.820122 0.820122
0.849583 0.849583 0.849583
0.877480 0.877480 0.877480
0.904079 0.904079 0.904079
0.767835 0.767835 0.767835
0.800448 0.800448 0.800448
0.830992 0.830992 0.830992
0.859866 0.859866 0.859866
0.887263 0.887263 0.887263
0.913395 0.913395 0.913395
0.938310 0.938310 0.938310
0.961887 0.961887 0.961887
0.983883 0.983883 0.983883
0.870033 0.870033 0.870033
0.896957 0.896957 0.896957
0.922590 0.922590 0.922590
0.947021 0.947021 0.947021
0.970049 0.970049 0.970049
0.991494 0.991494 0.991494
1.000000 1.000000 1.000000
1.000000 1.000000 1.000000
1.000000 1.000000 1.000000
0.004000 0.004000 0.004000
0.004000 0.004000 0.004000
0.004000 0.004000 0.004000
0.009129 0.009129 0.009129
0.031712 0.031712 0.031712
0.059287 0.059287 0.059287
0.090396 0.090396 0.090396
0.123813 0.123813 0.123813
0.158609 0.158609 0.158609
0.016769 0.016769 0.016769
0.041295 0.041295 0.041295
0.070458 0.070458 0.070458
0.102422 0.102422 0.102422
0.136536 0.136536 0.136536
0.171809 0.171809 0.171809
0.207415 0.207415 0.207415
0.243442 0.243442 0.243442
0.281079 0.281079 0.281079
0.114543 0.114543 0.114543
0.149173 0.149173 0.149173
0.184800 0.184800 0.184800
0.220483 0.220483 0.220483
0.256884 0.256884 0.256884
0.296141 0.296141 0.296141
0.340333 0.340333 0.340333
0.386951 0.386951 0.386951
0.430484 0.430484 0.430484
0.233472 0.233472 0.233472
0.270348 0.270348 0.270348
0.311325 0.311325 0.311325
0.357302 0.357302 0.357302
0.403339 0.403339 0.403339
0.445320 0.445320 0.445320
0.485064 0.485064 0.485064
0.525421 0.525421 0.525421
0.567246 0.567246 0.567246
0.374267 0.374267 0.374267
0.419054 0.419054 0.419054
0.459651 0.459651 0.459651
0.499415 0.499415 0.499415
0.540407 0.540407 0.540407
0.582662 0.582662 0.582662
0.624977 0.624977 0.624977
0.666013 0.666013 0.666013
0.704973 0.704973 0.704973
0.514212 0.514212 0.514212
0.555651 0.555651 0.555651
0.598058 0.598058 0.598058
0.639936 0.639936 0.639936
0.680427 0.680427 0.680427
0.718495 0.718495 0.718495
0.754508 0.754508 0.754508
0.788036 0.788036 0.788036
0.819384 0.819384 0.819384
0.655008 0.655008 0.655008
0.694593 0.694593 0.694593
0.731910 0.731910 0.731910
0.767009 0.767009 0.767009
0.799667 0.799667 0.799667
0.830260 0.830260 0.830260
0.859183 0.859183 0.859183
0.886612 0.886612 0.886612
0.912777 0.912777 0.912777
0.779166 0.779166 0.779166
0.811091 0.811091 0.811091
0.841023 0.841023 0.841023
0.869356 0.869356 0.869356
0.896309 0.896309 0.896309
0.921970 0.921970 0.921970
0.946439 0.946439 0.946439
0.969507 0.969507 0.969507
0.990990 0.990990 0.990990
0.879315 0.879315 0.879315
0.905831 0.905831 0.905831
0.931076 0.931076 0.931076
0.955037 0.955037 0.955037
0.977519 0.977519 0.977519
0.998355 0.998355 0.998355
1.000000 1.000000 1.000000
1.000000 1.000000 1.000000
1.000000 1.000000 1.000000
0.004000 0.004000 0.004000
0.004000 0.004000 0.004000
0.004000 0.004000 0.004000
0.016250 0.016250 0.016250
0.040643 0.040643 0.040643
0.069706 0.069706 0.069706
0.101612 0.101612 0.101612
0.135684 0.135684 0.135684
0.170929 0.170929 0.170929
0.024162 0.024162 0.024162
0.050427 0.050427 0.050427
0.080913 0.080913 0.080913
0.113725 0.113725 0.113725
0.148327 0.148327 0.148327
0.183934 0.183934 0.183934
0.219607 0.219607 0.219607
0.255980 0.255980 0.255980
0.295125 0.295125 0.295125
0.126188 0.126188 0.126188
0.161079 0.161079 0.161079
0.196721 0.196721 0.196721
0.232602 0.232602 0.232602
0.269443 0.269443 0.269443
0.310300 0.310300 0.310300
0.356168 0.356168 0.356168
0.402259 0.402259 0.402259
0.444340 0.444340 0.444340
0.245940 0.245940 0.245940
0.283873 0.283873 0.283873
0.326400 0.326400 0.326400
0.373107 0.373107 0.373107
0.418010 0.418010 0.418010
0.458703 0.458703 0.458703
0.498450 0.498450 0.498450
0.539402 0.539402 0.539402
0.581630 0.581630 0.581630
0.390052 0.390052 0.390052
0.433284 0.433284 0.433284
0.473294 0.473294 0.473294
0.513204 0.513204 0.513204
0.554604 0.554604 0.554604
0.597005 0.597005 0.597005
0.638921 0.638921 0.638921
0.679469 0.679469 0.679469
0.717602 0.717602 0.717602
0.528212 0.528212 0.528212
0.570124 0.570124 0.570124
0.612554 0.612554 0.612554
0.654008 0.654008 0.654008
0.693649 0.693649 0.693649
0.731011 0.731011 0.731011
0.766182 0.766182 0.766182
0.798884 0.798884 0.798884
0.829534 0.829534 0.829534
0.668722 0.668722 0.668722
0.707524 0.707524 0.707524
0.744130 0.744130 0.744130
0.778359 0.778359 0.778359
0.810336 0.810336 0.810336
0.840309 0.840309 0.840309
0.868679 0.868679 0.868679
0.895661 0.895661 0.895661
0.921349 0.921349 0.921349
0.790217 0.790217 0.790217
0.821425 0.821425 0.821425
0.850819 0.850819 0.850819
0.878653 0.878653 0.878653
0.905199 0.905199 0.905199
0.930472 0.930472 0.930472
0.954465 0.954465 0.954465
0.976987 0.976987 0.976987
0.997869 0.997869 0.997869
0.888412 0.888412 0.888412
0.914486 0.914486 0.914486
0.939354 0.939354 0.939354
0.962873 0.962873 0.962873
0.984800 0.984800 0.984800
1.000000 1.000000 1.000000
1.000000 1.000000 1.000000
1.000000 1.000000 1.000000
1.000000 1.000000 1.000000
0.004000 0.004000 0.004000
0.004000 0.004000 0.004000
0.004000 0.004000 0.004000
0.023551 0.023551 0.023551
0.049765 0.049765 0.049765
0.080160 0.080160 0.080160
0.112908 0.112908 0.112908
0.147480 0.147480 0.147480
0.183068 0.183068 0.183068
0.032836 0.032836 0.032836
0.060611 0.060611 0.060611
0.091821 0.091821 0.091821
0.125331 0.125331 0.125331
0.160188 0.160188 0.160188
0.195850 0.195850 0.195850
0.231731 0.231731 0.231731
0.268538 0.268538 0.268538
0.309276 0.309276 0.309276
0.138042 0.138042 0.138042
0.173365 0.173365 0.173365
0.208972 0.208972 0.208972
0.245038 0.245038 0.245038
0.282864 0.282864 0.282864
0.325245 0.325245 0.325245
0.371943 0.371943 0.371943
0.416972 0.416972 0.416972
0.457753 0.457753 0.457753
0.258484 0.258484 0.258484
0.297939 0.297939 0.297939
0.342359 0.342359 0.342359
0.388935 0.388935 0.388935
0.432275 0.432275 0.432275
0.472314 0.472314 0.472314
0.512195 0.512195 0.512195
0.553557 0.553557 0.553557
0.595950 0.595950 0.595950
0.405241 0.405241 0.405241
0.447049 0.447049 0.447049
0.486772 0.486772 0.486772
0.527205 0.527205 0.527205
0.569085 0.569085 0.569085
0.611519 0.611519 0.611519
0.653006 0.653006 0.653006
0.692704 0.692704 0.692704
0.730110 0.730110 0.730110
0.542185 0.542185 0.542185
0.584485 0.584485 0.584485
0.626772 0.626772 0.626772
0.667745 0.667745 0.667745
0.706605 0.706605 0.706605
0.743264 0.743264 0.743264
0.777551 0.777551 0.777551
0.809579 0.809579 0.809579
0.839593 0.839593 0.839593
0.682116 0.682116 0.682116
0.720068 0.720068 0.720068
0.756010 0.756010 0.756010
0.789431 0.789431 0.789431
0.820689 0.820689 0.820689
0.850121 0.850121 0.850121
0.877990 0.877990 0.877990
0.904566 0.904566 0.904566
0.929867 0.929867 0.929867
0.801047 0.801047 0.801047
0.831554 0.831554 0.831554
0.860391 0.860391 0.860391
0.887763 0.887763 0.887763
0.913870 0.913870 0.913870
0.938764 0.938764 0.938764
0.962316 0.962316 0.962316
0.984282 0.984282 0.984282
1.000000 1.000000 1.000000
0.897454 0.897454 0.897454
0.923066 0.923066 0.923066
0.947468 0.947468 0.947468
0.970468 0.970468 0.970468
0.991881 0.991881 0.991881
1.000000 1.000000 1.000000
1.000000 1.000000 1.000000
1.000000 1.000000 1.000000
1.000000 1.000000 1.000000
0.004000 0.004000 0.004000
0.004000 0.004000 0.004000
0.009519 0.009519 0.009519
0.032200 0.032200 0.032200
0.059863 0.059863 0.059863
0.091015 0.091015 0.091015
0.124473 0.124473 0.124473
0.159296 0.159296 0.159296
0.195000 0.195000 0.195000
0.041797 0.041797 0.041797
0.071037 0.071037 0.071037
0.103046 0.103046 0.103046
0.137191 0.137191 0.137191
0.172486 0.172486 0.172486
0.208092 0.208092 0.208092
0.244135 0.244135 0.244135
0.281855 0.281855 0.281855
0.324090 0.324090 0.324090
0.149824 0.149824 0.149824
0.185465 0.185465 0.185465
0.221156 0.221156 0.221156
0.257580 0.257580 0.257580
0.296922 0.296922 0.296922
0.341214 0.341214 0.341214
0.387815 0.387815 0.387815
0.431263 0.431263 0.431263
0.471334 0.471334 0.471334
0.271044 0.271044 0.271044
0.312114 0.312114 0.312114
0.358174 0.358174 0.358174
0.404167 0.404167 0.404167
0.446073 0.446073 0.446073
0.485807 0.485807 0.485807
0.526197 0.526197 0.526197
0.568046 0.568046 0.568046
0.610482 0.610482 0.610482
0.419855 0.419855 0.419855
0.460378 0.460378 0.460378
0.500157 0.500157 0.500157
0.541180 0.541180 0.541180
0.583455 0.583455 0.583455
0.625758 0.625758 0.625758
0.666767 0.666767 0.666767
0.705683 0.705683 0.705683
0.742396 0.742396 0.742396
0.556455 0.556455 0.556455
0.598868 0.598868 0.598868
0.640724 0.640724 0.640724
0.681162 0.681162 0.681162
0.719180 0.719180 0.719180
0.755162 0.755162 0.755162
0.788643 0.788643 0.788643
0.819952 0.819952 0.819952
0.849422 0.849422 0.849422
0.695318 0.695318 0.695318
0.732599 0.732599 0.732599
0.767645 0.767645 0.767645
0.800268 0.800268 0.800268
0.830823 0.830823 0.830823
0.859708 0.859708 0.859708
0.887112 0.887112 0.887112
0.913253 0.913253 0.913253
0.938174 0.938174 0.938174
0.811671 0.811671 0.811671
0.841572 0.841572 0.841572
0.869877 0.869877 0.869877
0.896808 0.896808 0.896808
0.922447 0.922447 0.922447
0.946887 0.946887 0.946887
0.969924 0.969924 0.969924
0.991378 0.991378 0.991378
1.000000 1.000000 1.000000
0.906316 0.906316 0.906316
0.931539 0.931539 0.931539
0.955476 0.955476 0.955476
0.977927 0.977927 0.977927
0.998728 0.998728 0.998728
1.000000 1.000000 1.000000
1.000000 1.000000 1.000000
1.000000 1.000000 1.000000
1.000000 1.000000 1.000000
