source/experimental_legacy_banks/assets/invitation/look.CUBE
#Created by: Infinite Arch Leica Look Builder
#Unique Leica Look ID: 0
#Based Filmstyle Mode: Standard
TITLE "Invitation"
LUT_3D_SIZE 5
DOMAIN_MIN 0.0 0.0 0.0
DOMAIN_MAX 1.0 1.0 1.0
0.030019 0.030019 0.030019
0.080047 0.080047 0.080047
0.129935 0.129935 0.129935
0.179675 0.179675 0.179675
0.229262 0.229262 0.229262
0.197746 0.197746 0.197746
0.247275 0.247275 0.247275
0.296643 0.296643 0.296643
0.345846 0.345846 0.345846
0.394883 0.394883 0.394883
0.363718 0.363718 0.363718
0.412693 0.412693 0.412693
0.461498 0.461498 0.461498
0.510130 0.510130 0.510130
0.558588 0.558588 0.558588
0.527792 0.527792 0.527792
0.576187 0.576187 0.576187
0.624407 0.624407 0.624407
0.672452 0.672452 0.672452
0.720321 0.720321 0.720321
0.689899 0.689899 0.689899
0.737705 0.737705 0.737705
0.785335 0.785335 0.785335
0.832791 0.832791 0.832791
0.880074 0.880074 0.880074
0.047023 0.047023 0.047023
0.097005 0.097005 0.097005
0.146844 0.146844 0.146844
0.196533 0.196533 0.196533
0.246065 0.246065 0.246065
0.214584 0.214584 0.214584
0.264059 0.264059 0.264059
0.313371 0.313371 0.313371
0.362518 0.362518 0.362518
0.411497 0.411497 0.411497
0.380369 0.380369 0.380369
0.429287 0.429287 0.429287
0.478033 0.478033 0.478033
0.526606 0.526606 0.526606
0.575005 0.575005 0.575005
0.544247 0.544247 0.544247
0.592582 0.592582 0.592582
0.640743 0.640743 0.640743
0.688728 0.688728 0.688728
0.736537 0.736537 0.736537
0.706154 0.706154 0.706154
0.753900 0.753900 0.753900
0.801470 0.801470 0.801470
0.848867 0.848867 0.848867
0.896092 0.896092 0.896092
0.064013 0.064013 0.064013
0.113947 0.113947 0.113947
0.163736 0.163736 0.163736
0.213372 0.213372 0.213372
0.262850 0.262850 0.262850
0.231404 0.231404 0.231404
0.280824 0.280824 0.280824
0.330080 0.330080 0.330080
0.379171 0.379171 0.379171
0.428092 0.428092 0.428092
0.397001 0.397001 0.397001
0.445860 0.445860 0.445860
0.494548 0.494548 0.494548
0.543062 0.543062 0.543062
0.591402 0.591402 0.591402
0.560681 0.560681 0.560681
0.608958 0.608958 0.608958
0.657059 0.657059 0.657059
0.704984 0.704984 0.704984
0.752734 0.752734 0.752734
0.722388 0.722388 0.722388
0.770074 0.770074 0.770074
0.817586 0.817586 0.817586
0.864924 0.864924 0.864924
0.912091 0.912091 0.912091
0.080987 0.080987 0.080987
0.130872 0.130872 0.130872
0.180610 0.180610 0.180610
0.230193 0.230193 0.230193
0.279617 0.279617 0.279617
0.248205 0.248205 0.248205
0.297570 0.297570 0.297570
0.346771 0.346771 0.346771
0.395804 0.395804 0.395804
0.444667 0.444667 0.444667
0.413613 0.413613 0.413613
0.462414 0.462414 0.462414
0.511043 0.511043 0.511043
0.559498 0.559498 0.559498
0.607779 0.607779 0.607779
0.577096 0.577096 0.577096
0.625313 0.625313 0.625313
0.673354 0.673354 0.673354
0.721220 0.721220 0.721220
0.768910 0.768910 0.768910
0.738602 0.738602 0.738602
0.786229 0.786229 0.786229
0.833682 0.833682 0.833682
0.880962 0.880962 0.880962
0.928071 0.928071 0.928071
0.097944 0.097944 0.097944
0.147780 0.147780 0.147780
0.197466 0.197466 0.197466
0.246996 0.246996 0.246996
0.296365 0.296365 0.296365
0.264988 0.264988 0.264988
0.314297 0.314297 0.314297
0.363441 0.363441 0.363441
0.412417 0.412417 0.412417
0.461223 0.461223 0.461223
0.430205 0.430205 0.430205
0.478948 0.478948 0.478948
0.527518 0.527518 0.527518
0.575914 0.575914 0.575914
0.624135 0.624135 0.624135
0.593490 0.593490 0.593490
0.641647 0.641647 0.641647
0.689629 0.689629 0.689629
0.737435 0.737435 0.737435
0.785066 0.785066 0.785066
0.754796 0.754796 0.754796
0.802364 0.802364 0.802364
0.849757 0.849757 0.849757
0.896979 0.896979 0.896979
0.944032 0.944032 0.944032
