source/experimental_legacy_banks/assets/invitation/look.CUBE
#Created by: Infinite Arch Leica Look Builder
#Unique Leica Look ID: 0
#Based Filmstyle Mode: Standard
TITLE "Invitation"
LUT_3D_SIZE 9
DOMAIN_MIN 0.0 0.0 0.0
DOMAIN_MAX 1.0 1.0 1.0
0.030019 0.030019 0.030019
0.055049 0.055049 0.055049
0.080047 0.080047 0.080047
0.105009 0.105009 0.105009
0.129935 0.129935 0.129935
0.154824 0.154824 0.154824
0.179675 0.179675 0.179675
0.204488 0.204488 0.204488
0.229262 0.229262 0.229262
0.114088 0.114088 0.114088
0.139001 0.139001 0.139001
0.163876 0.163876 0.163876
0.188713 0.188713 0.188713
0.213512 0.213512 0.213512
0.238271 0.238271 0.238271
0.262990 0.262990 0.262990
0.287668 0.287668 0.287668
0.312306 0.312306 0.312306
0.197746 0.197746 0.197746
0.222530 0.222530 0.222530
0.247275 0.247275 0.247275
0.271979 0.271979 0.271979
0.296643 0.296643 0.296643
0.321265 0.321265 0.321265
0.345846 0.345846 0.345846
0.370386 0.370386 0.370386
0.394883 0.394883 0.394883
0.280963 0.280963 0.280963
0.305612 0.305612 0.305612
0.330219 0.330219 0.330219
0.354785 0.354785 0.354785
0.379309 0.379309 0.379309
0.403791 0.403791 0.403791
0.428230 0.428230 0.428230
0.452626 0.452626 0.452626
0.476980 0.476980 0.476980
0.363718 0.363718 0.363718
0.388227 0.388227 0.388227
0.412693 0.412693 0.412693
0.437117 0.437117 0.437117
0.461498 0.461498 0.461498
0.485835 0.485835 0.485835
0.510130 0.510130 0.510130
0.534381 0.534381 0.534381
0.558588 0.558588 0.558588
0.445998 0.445998 0.445998
0.470363 0.470363 0.470363
0.494685 0.494685 0.494685
0.518964 0.518964 0.518964
0.543199 0.543199 0.543199
0.567390 0.567390 0.567390
0.591538 0.591538 0.591538
0.615642 0.615642 0.615642
0.639703 0.639703 0.639703
0.527792 0.527792 0.527792
0.552011 0.552011 0.552011
0.576187 0.576187 0.576187
0.600319 0.600319 0.600319
0.624407 0.624407 0.624407
0.648451 0.648451 0.648451
0.672452 0.672452 0.672452
0.696408 0.696408 0.696408
0.720321 0.720321 0.720321
0.609094 0.609094 0.609094
0.633166 0.633166 0.633166
0.657194 0.657194 0.657194
0.681178 0.681178 0.681178
0.705119 0.705119 0.705119
0.729016 0.729016 0.729016
0.752868 0.752868 0.752868
0.776677 0.776677 0.776677
0.800443 0.800443 0.800443
0.689899 0.689899 0.689899
0.713824 0.713824 0.713824
0.737705 0.737705 0.737705
0.761541 0.761541 0.761541
0.785335 0.785335 0.785335
0.809084 0.809084 0.809084
0.832791 0.832791 0.832791
0.856454 0.856454 0.856454
0.880074 0.880074 0.880074
0.038523 0.038523 0.038523
0.063542 0.063542 0.063542
0.088528 0.088528 0.088528
0.113478 0.113478 0.113478
0.138392 0.138392 0.138392
0.163268 0.163268 0.163268
0.188106 0.188106 0.188106
0.212906 0.212906 0.212906
0.237666 0.237666 0.237666
0.122552 0.122552 0.122552
0.147453 0.147453 0.147453
0.172315 0.172315 0.172315
0.197139 0.197139 0.197139
0.221925 0.221925 0.221925
0.246670 0.246670 0.246670
0.271375 0.271375 0.271375
0.296040 0.296040 0.296040
0.320664 0.320664 0.320664
0.206167 0.206167 0.206167
0.230938 0.230938 0.230938
0.255669 0.255669 0.255669
0.280360 0.280360 0.280360
0.305009 0.305009 0.305009
0.329618 0.329618 0.329618
0.354185 0.354185 0.354185
0.378710 0.378710 0.378710
0.403192 0.403192 0.403192
0.289338 0.289338 0.289338
0.313973 0.313973 0.313973
0.338567 0.338567 0.338567
0.363118 0.363118 0.363118
0.387628 0.387628 0.387628
0.412095 0.412095 0.412095
0.436520 0.436520 0.436520
0.460902 0.460902 0.460902
0.485240 0.485240 0.485240
0.372046 0.372046 0.372046
0.396541 0.396541 0.396541
0.420992 0.420992 0.420992
0.445401 0.445401 0.445401
0.469768 0.469768 0.469768
0.494091 0.494091 0.494091
0.518370 0.518370 0.518370
0.542607 0.542607 0.542607
0.566799 0.566799 0.566799
0.454277 0.454277 0.454277
0.478628 0.478628 0.478628
0.502935 0.502935 0.502935
0.527199 0.527199 0.527199
0.551419 0.551419 0.551419
0.575596 0.575596 0.575596
0.599729 0.599729 0.599729
0.623818 0.623818 0.623818
0.647864 0.647864 0.647864
0.536022 0.536022 0.536022
0.560226 0.560226 0.560226
0.584387 0.584387 0.584387
0.608504 0.608504 0.608504
0.632577 0.632577 0.632577
0.656607 0.656607 0.656607
0.680592 0.680592 0.680592
0.704534 0.704534 0.704534
0.728432 0.728432 0.728432
0.617273 0.617273 0.617273
0.641331 0.641331 0.641331
0.665344 0.665344 0.665344
0.689314 0.689314 0.689314
0.713239 0.713239 0.713239
0.737121 0.737121 0.737121
0.760959 0.760959 0.760959
0.784753 0.784753 0.784753
0.808504 0.808504 0.808504
0.698029 0.698029 0.698029
0.721939 0.721939 0.721939
0.745805 0.745805 0.745805
0.769627 0.769627 0.769627
0.793405 0.793405 0.793405
0.817140 0.817140 0.817140
0.840831 0.840831 0.840831
0.864480 0.864480 0.864480
0.888085 0.888085 0.888085
0.047023 0.047023 0.047023
0.072031 0.072031 0.072031
0.097005 0.097005 0.097005
0.121943 0.121943 0.121943
0.146844 0.146844 0.146844
0.171708 0.171708 0.171708
0.196533 0.196533 0.196533
0.221319 0.221319 0.221319
0.246065 0.246065 0.246065
0.131013 0.131013 0.131013
0.155900 0.155900 0.155900
0.180750 0.180750 0.180750
0.205561 0.205561 0.205561
0.230333 0.230333 0.230333
0.255065 0.255065 0.255065
0.279756 0.279756 0.279756
0.304407 0.304407 0.304407
0.329016 0.329016 0.329016
0.214584 0.214584 0.214584
0.239341 0.239341 0.239341
0.264059 0.264059 0.264059
0.288735 0.288735 0.288735
0.313371 0.313371 0.313371
0.337966 0.337966 0.337966
0.362518 0.362518 0.362518
0.387029 0.387029 0.387029
0.411497 0.411497 0.411497
0.297709 0.297709 0.297709
0.322330 0.322330 0.322330
0.346909 0.346909 0.346909
0.371447 0.371447 0.371447
0.395942 0.395942 0.395942
0.420395 0.420395 0.420395
0.444805 0.444805 0.444805
0.469172 0.469172 0.469172
0.493496 0.493496 0.493496
0.380369 0.380369 0.380369
0.404849 0.404849 0.404849
0.429287 0.429287 0.429287
0.453681 0.453681 0.453681
0.478033 0.478033 0.478033
0.502341 0.502341 0.502341
0.526606 0.526606 0.526606
0.550827 0.550827 0.550827
0.575005 0.575005 0.575005
0.462552 0.462552 0.462552
0.486887 0.486887 0.486887
0.511180 0.511180 0.511180
0.535429 0.535429 0.535429
0.559635 0.559635 0.559635
0.583797 0.583797 0.583797
0.607915 0.607915 0.607915
0.631989 0.631989 0.631989
0.656020 0.656020 0.656020
0.544247 0.544247 0.544247
0.568436 0.568436 0.568436
0.592582 0.592582 0.592582
0.616684 0.616684 0.616684
0.640743 0.640743 0.640743
0.664757 0.664757 0.664757
0.688728 0.688728 0.688728
0.712655 0.712655 0.712655
0.736537 0.736537 0.736537
0.625448 0.625448 0.625448
0.649491 0.649491 0.649491
0.673489 0.673489 0.673489
0.697444 0.697444 0.697444
0.721355 0.721355 0.721355
0.745221 0.745221 0.745221
0.769045 0.769045 0.769045
0.792824 0.792824 0.792824
0.816560 0.816560 0.816560
0.706154 0.706154 0.706154
0.730049 0.730049 0.730049
0.753900 0.753900 0.753900
0.777707 0.777707 0.777707
0.801470 0.801470 0.801470
0.825191 0.825191 0.825191
0.848867 0.848867 0.848867
0.872501 0.872501 0.872501
0.896092 0.896092 0.896092
0.055520 0.055520 0.055520
0.080517 0.080517 0.080517
0.105478 0.105478 0.105478
0.130404 0.130404 0.130404
0.155292 0.155292 0.155292
0.180143 0.180143 0.180143
0.204955 0.204955 0.204955
0.229727 0.229727 0.229727
0.254460 0.254460 0.254460
0.139469 0.139469 0.139469
0.164344 0.164344 0.164344
0.189180 0.189180 0.189180
0.213978 0.213978 0.213978
0.238736 0.238736 0.238736
0.263455 0.263455 0.263455
0.288132 0.288132 0.288132
0.312769 0.312769 0.312769
0.337365 0.337365 0.337365
0.222996 0.222996 0.222996
0.247740 0.247740 0.247740
0.272444 0.272444 0.272444
0.297106 0.297106 0.297106
0.321728 0.321728 0.321728
0.346308 0.346308 0.346308
0.370847 0.370847 0.370847
0.395343 0.395343 0.395343
0.419797 0.419797 0.419797
0.306075 0.306075 0.306075
0.330682 0.330682 0.330682
0.355247 0.355247 0.355247
0.379770 0.379770 0.379770
0.404251 0.404251 0.404251
0.428689 0.428689 0.428689
0.453085 0.453085 0.453085
0.477438 0.477438 0.477438
0.501747 0.501747 0.501747
0.388688 0.388688 0.388688
0.413153 0.413153 0.413153
0.437576 0.437576 0.437576
0.461956 0.461956 0.461956
0.486293 0.486293 0.486293
0.510586 0.510586 0.510586
0.534837 0.534837 0.534837
0.559043 0.559043 0.559043
0.583206 0.583206 0.583206
0.470821 0.470821 0.470821
0.495142 0.495142 0.495142
0.519420 0.519420 0.519420
0.543654 0.543654 0.543654
0.567845 0.567845 0.567845
0.591992 0.591992 0.591992
0.616096 0.616096 0.616096
0.640155 0.640155 0.640155
0.664170 0.664170 0.664170
0.552466 0.552466 0.552466
0.576641 0.576641 0.576641
0.600772 0.600772 0.600772
0.624860 0.624860 0.624860
0.648903 0.648903 0.648903
0.672903 0.672903 0.672903
0.696858 0.696858 0.696858
0.720770 0.720770 0.720770
0.744638 0.744638 0.744638
0.633618 0.633618 0.633618
0.657646 0.657646 0.657646
0.681629 0.681629 0.681629
0.705569 0.705569 0.705569
0.729465 0.729465 0.729465
0.753317 0.753317 0.753317
0.777125 0.777125 0.777125
0.800890 0.800890 0.800890
0.824611 0.824611 0.824611
0.714274 0.714274 0.714274
0.738153 0.738153 0.738153
0.761990 0.761990 0.761990
0.785782 0.785782 0.785782
0.809531 0.809531 0.809531
0.833236 0.833236 0.833236
0.856898 0.856898 0.856898
0.880518 0.880518 0.880518
0.904094 0.904094 0.904094
0.064013 0.064013 0.064013
0.088998 0.088998 0.088998
0.113947 0.113947 0.113947
0.138860 0.138860 0.138860
0.163736 0.163736 0.163736
0.188573 0.188573 0.188573
0.213372 0.213372 0.213372
0.238131 0.238131 0.238131
0.262850 0.262850 0.262850
0.147921 0.147921 0.147921
0.172783 0.172783 0.172783
0.197606 0.197606 0.197606
0.222390 0.222390 0.222390
0.247135 0.247135 0.247135
0.271840 0.271840 0.271840
0.296504 0.296504 0.296504
0.321126 0.321126 0.321126
0.345708 0.345708 0.345708
0.231404 0.231404 0.231404
0.256134 0.256134 0.256134
0.280824 0.280824 0.280824
0.305473 0.305473 0.305473
0.330080 0.330080 0.330080
0.354647 0.354647 0.354647
0.379171 0.379171 0.379171
0.403653 0.403653 0.403653
0.428092 0.428092 0.428092
0.314436 0.314436 0.314436
0.339029 0.339029 0.339029
0.363580 0.363580 0.363580
0.388089 0.388089 0.388089
0.412555 0.412555 0.412555
0.436979 0.436979 0.436979
0.461360 0.461360 0.461360
0.485698 0.485698 0.485698
0.509993 0.509993 0.509993
0.397001 0.397001 0.397001
0.421452 0.421452 0.421452
0.445860 0.445860 0.445860
0.470226 0.470226 0.470226
0.494548 0.494548 0.494548
0.518827 0.518827 0.518827
0.543062 0.543062 0.543062
0.567254 0.567254 0.567254
0.591402 0.591402 0.591402
0.479085 0.479085 0.479085
0.503392 0.503392 0.503392
0.527655 0.527655 0.527655
0.551875 0.551875 0.551875
0.576051 0.576051 0.576051
0.600183 0.600183 0.600183
0.624271 0.624271 0.624271
0.648316 0.648316 0.648316
0.672316 0.672316 0.672316
0.560681 0.560681 0.560681
0.584841 0.584841 0.584841
0.608958 0.608958 0.608958
0.633030 0.633030 0.633030
0.657059 0.657059 0.657059
0.681043 0.681043 0.681043
0.704984 0.704984 0.704984
0.728881 0.728881 0.728881
0.752734 0.752734 0.752734
0.641783 0.641783 0.641783
0.665796 0.665796 0.665796
0.689764 0.689764 0.689764
0.713689 0.713689 0.713689
0.737570 0.737570 0.737570
0.761407 0.761407 0.761407
0.785201 0.785201 0.785201
0.808950 0.808950 0.808950
0.832657 0.832657 0.832657
0.722388 0.722388 0.722388
0.746253 0.746253 0.746253
0.770074 0.770074 0.770074
0.793852 0.793852 0.793852
0.817586 0.817586 0.817586
0.841277 0.841277 0.841277
0.864924 0.864924 0.864924
0.888529 0.888529 0.888529
0.912091 0.912091 0.912091
0.072502 0.072502 0.072502
0.097475 0.097475 0.097475
0.122412 0.122412 0.122412
0.147312 0.147312 0.147312
0.172175 0.172175 0.172175
0.196999 0.196999 0.196999
0.221785 0.221785 0.221785
0.246530 0.246530 0.246530
0.271236 0.271236 0.271236
0.156368 0.156368 0.156368
0.181217 0.181217 0.181217
0.206027 0.206027 0.206027
0.230798 0.230798 0.230798
0.255530 0.255530 0.255530
0.280220 0.280220 0.280220
0.304870 0.304870 0.304870
0.329479 0.329479 0.329479
0.354046 0.354046 0.354046
0.239807 0.239807 0.239807
0.264523 0.264523 0.264523
0.289199 0.289199 0.289199
0.313834 0.313834 0.313834
0.338428 0.338428 0.338428
0.362980 0.362980 0.362980
0.387490 0.387490 0.387490
0.411957 0.411957 0.411957
0.436382 0.436382 0.436382
0.322793 0.322793 0.322793
0.347371 0.347371 0.347371
0.371908 0.371908 0.371908
0.396402 0.396402 0.396402
0.420854 0.420854 0.420854
0.445264 0.445264 0.445264
0.469630 0.469630 0.469630
0.493953 0.493953 0.493953
0.518233 0.518233 0.518233
0.405309 0.405309 0.405309
0.429746 0.429746 0.429746
0.454140 0.454140 0.454140
0.478490 0.478490 0.478490
0.502798 0.502798 0.502798
0.527062 0.527062 0.527062
0.551283 0.551283 0.551283
0.575460 0.575460 0.575460
0.599593 0.599593 0.599593
0.487345 0.487345 0.487345
0.511637 0.511637 0.511637
0.535885 0.535885 0.535885
0.560090 0.560090 0.560090
0.584251 0.584251 0.584251
0.608368 0.608368 0.608368
0.632442 0.632442 0.632442
0.656471 0.656471 0.656471
0.680457 0.680457 0.680457
0.568891 0.568891 0.568891
0.593036 0.593036 0.593036
0.617138 0.617138 0.617138
0.641195 0.641195 0.641195
0.665209 0.665209 0.665209
0.689178 0.689178 0.689178
0.713104 0.713104 0.713104
0.736986 0.736986 0.736986
0.760825 0.760825 0.760825
0.649943 0.649943 0.649943
0.673940 0.673940 0.673940
0.697894 0.697894 0.697894
0.721804 0.721804 0.721804
0.745670 0.745670 0.745670
0.769492 0.769492 0.769492
0.793271 0.793271 0.793271
0.817006 0.817006 0.817006
0.840698 0.840698 0.840698
0.730498 0.730498 0.730498
0.754348 0.754348 0.754348
0.778154 0.778154 0.778154
0.801917 0.801917 0.801917
0.825636 0.825636 0.825636
0.849312 0.849312 0.849312
0.872945 0.872945 0.872945
0.896536 0.896536 0.896536
0.920084 0.920084 0.920084
0.080987 0.080987 0.080987
0.105947 0.105947 0.105947
0.130872 0.130872 0.130872
0.155760 0.155760 0.155760
0.180610 0.180610 0.180610
0.205421 0.205421 0.205421
0.230193 0.230193 0.230193
0.254925 0.254925 0.254925
0.279617 0.279617 0.279617
0.164811 0.164811 0.164811
0.189647 0.189647 0.189647
0.214444 0.214444 0.214444
0.239202 0.239202 0.239202
0.263919 0.263919 0.263919
0.288596 0.288596 0.288596
0.313232 0.313232 0.313232
0.337827 0.337827 0.337827
0.362380 0.362380 0.362380
0.248205 0.248205 0.248205
0.272908 0.272908 0.272908
0.297570 0.297570 0.297570
0.322191 0.322191 0.322191
0.346771 0.346771 0.346771
0.371308 0.371308 0.371308
0.395804 0.395804 0.395804
0.420257 0.420257 0.420257
0.444667 0.444667 0.444667
0.331144 0.331144 0.331144
0.355709 0.355709 0.355709
0.380231 0.380231 0.380231
0.404711 0.404711 0.404711
0.429149 0.429149 0.429149
0.453544 0.453544 0.453544
0.477895 0.477895 0.477895
0.502204 0.502204 0.502204
0.526469 0.526469 0.526469
0.413613 0.413613 0.413613
0.438035 0.438035 0.438035
0.462414 0.462414 0.462414
0.486750 0.486750 0.486750
0.511043 0.511043 0.511043
0.535292 0.535292 0.535292
0.559498 0.559498 0.559498
0.583660 0.583660 0.583660
0.607779 0.607779 0.607779
0.495599 0.495599 0.495599
0.519876 0.519876 0.519876
0.544110 0.544110 0.544110
0.568300 0.568300 0.568300
0.592446 0.592446 0.592446
0.616549 0.616549 0.616549
0.640607 0.640607 0.640607
0.664622 0.664622 0.664622
0.688593 0.688593 0.688593
0.577096 0.577096 0.577096
0.601226 0.601226 0.601226
0.625313 0.625313 0.625313
0.649355 0.649355 0.649355
0.673354 0.673354 0.673354
0.697309 0.697309 0.697309
0.721220 0.721220 0.721220
0.745087 0.745087 0.745087
0.768910 0.768910 0.768910
0.658097 0.658097 0.658097
0.682080 0.682080 0.682080
0.706019 0.706019 0.706019
0.729914 0.729914 0.729914
0.753765 0.753765 0.753765
0.777573 0.777573 0.777573
0.801336 0.801336 0.801336
0.825057 0.825057 0.825057
0.848734 0.848734 0.848734
0.738602 0.738602 0.738602
0.762438 0.762438 0.762438
0.786229 0.786229 0.786229
0.809977 0.809977 0.809977
0.833682 0.833682 0.833682
0.857343 0.857343 0.857343
0.880962 0.880962 0.880962
0.904537 0.904537 0.904537
0.928071 0.928071 0.928071
0.089467 0.089467 0.089467
0.114416 0.114416 0.114416
0.139328 0.139328 0.139328
0.164203 0.164203 0.164203
0.189040 0.189040 0.189040
0.213838 0.213838 0.213838
0.238597 0.238597 0.238597
0.263315 0.263315 0.263315
0.287993 0.287993 0.287993
0.173250 0.173250 0.173250
0.198073 0.198073 0.198073
0.222856 0.222856 0.222856
0.247600 0.247600 0.247600
0.272304 0.272304 0.272304
0.296967 0.296967 0.296967
0.321589 0.321589 0.321589
0.346170 0.346170 0.346170
0.370709 0.370709 0.370709
0.256599 0.256599 0.256599
0.281288 0.281288 0.281288
0.305936 0.305936 0.305936
0.330543 0.330543 0.330543
0.355108 0.355108 0.355108
0.379632 0.379632 0.379632
0.404113 0.404113 0.404113
0.428552 0.428552 0.428552
0.452947 0.452947 0.452947
0.339491 0.339491 0.339491
0.364041 0.364041 0.364041
0.388549 0.388549 0.388549
0.413015 0.413015 0.413015
0.437438 0.437438 0.437438
0.461818 0.461818 0.461818
0.486155 0.486155 0.486155
0.510449 0.510449 0.510449
0.534700 0.534700 0.534700
0.421912 0.421912 0.421912
0.446319 0.446319 0.446319
0.470684 0.470684 0.470684
0.495005 0.495005 0.495005
0.519283 0.519283 0.519283
0.543518 0.543518 0.543518
0.567709 0.567709 0.567709
0.591856 0.591856 0.591856
0.615960 0.615960 0.615960
0.503849 0.503849 0.503849
0.528111 0.528111 0.528111
0.552330 0.552330 0.552330
0.576505 0.576505 0.576505
0.600636 0.600636 0.600636
0.624724 0.624724 0.624724
0.648768 0.648768 0.648768
0.672767 0.672767 0.672767
0.696723 0.696723 0.696723
0.585295 0.585295 0.585295
0.609411 0.609411 0.609411
0.633482 0.633482 0.633482
0.657510 0.657510 0.657510
0.681494 0.681494 0.681494
0.705434 0.705434 0.705434
0.729330 0.729330 0.729330
0.753182 0.753182 0.753182
0.776991 0.776991 0.776991
0.666247 0.666247 0.666247
0.690215 0.690215 0.690215
0.714139 0.714139 0.714139
0.738019 0.738019 0.738019
0.761855 0.761855 0.761855
0.785648 0.785648 0.785648
0.809397 0.809397 0.809397
0.833102 0.833102 0.833102
0.856765 0.856765 0.856765
0.746702 0.746702 0.746702
0.770522 0.770522 0.770522
0.794299 0.794299 0.794299
0.818032 0.818032 0.818032
0.841722 0.841722 0.841722
0.865369 0.865369 0.865369
0.888973 0.888973 0.888973
0.912534 0.912534 0.912534
0.936054 0.936054 0.936054
0.097944 0.097944 0.097944
0.122881 0.122881 0.122881
0.147780 0.147780 0.147780
0.172642 0.172642 0.172642
0.197466 0.197466 0.197466
0.222251 0.222251 0.222251
0.246996 0.246996 0.246996
0.271700 0.271700 0.271700
0.296365 0.296365 0.296365
0.181684 0.181684 0.181684
0.206494 0.206494 0.206494
0.231264 0.231264 0.231264
0.255994 0.255994 0.255994
0.280684 0.280684 0.280684
0.305334 0.305334 0.305334
0.329942 0.329942 0.329942
0.354508 0.354508 0.354508
0.379032 0.379032 0.379032
0.264988 0.264988 0.264988
0.289663 0.289663 0.289663
0.314297 0.314297 0.314297
0.338890 0.338890 0.338890
0.363441 0.363441 0.363441
0.387950 0.387950 0.387950
0.412417 0.412417 0.412417
0.436841 0.436841 0.436841
0.461223 0.461223 0.461223
0.347833 0.347833 0.347833
0.372369 0.372369 0.372369
0.396863 0.396863 0.396863
0.421314 0.421314 0.421314
0.445723 0.445723 0.445723
0.470088 0.470088 0.470088
0.494411 0.494411 0.494411
0.518690 0.518690 0.518690
0.542925 0.542925 0.542925
0.430205 0.430205 0.430205
0.454598 0.454598 0.454598
0.478948 0.478948 0.478948
0.503255 0.503255 0.503255
0.527518 0.527518 0.527518
0.551738 0.551738 0.551738
0.575914 0.575914 0.575914
0.600047 0.600047 0.600047
0.624135 0.624135 0.624135
0.512093 0.512093 0.512093
0.536341 0.536341 0.536341
0.560545 0.560545 0.560545
0.584705 0.584705 0.584705
0.608822 0.608822 0.608822
0.632894 0.632894 0.632894
0.656923 0.656923 0.656923
0.680908 0.680908 0.680908
0.704849 0.704849 0.704849
0.593490 0.593490 0.593490
0.617591 0.617591 0.617591
0.641647 0.641647 0.641647
0.665660 0.665660 0.665660
0.689629 0.689629 0.689629
0.713554 0.713554 0.713554
0.737435 0.737435 0.737435
0.761273 0.761273 0.761273
0.785066 0.785066 0.785066
0.674391 0.674391 0.674391
0.698344 0.698344 0.698344
0.722253 0.722253 0.722253
0.746119 0.746119 0.746119
0.769940 0.769940 0.769940
0.793718 0.793718 0.793718
0.817452 0.817452 0.817452
0.841143 0.841143 0.841143
0.864791 0.864791 0.864791
0.754796 0.754796 0.754796
0.778602 0.778602 0.778602
0.802364 0.802364 0.802364
0.826082 0.826082 0.826082
0.849757 0.849757 0.849757
0.873390 0.873390 0.873390
0.896979 0.896979 0.896979
0.920526 0.920526 0.920526
0.944032 0.944032 0.944032
