source/experimental_legacy_banks/assets/invitation/look.CUBE
#Created by: Infinite Arch Leica Look Builder
#Unique Leica Look ID: 0
#Based Filmstyle Mode: Standard
TITLE "Invitation"
LUT_3D_SIZE 17
DOMAIN_MIN 0.0 0.0 0.0
DOMAIN_MAX 1.0 1.0 1.0
0.030019 0.030019 0.030019
0.042538 0.042538 0.042538
0.055049 0.055049 0.055049
0.067552 0.067552 0.067552
0.080047 0.080047 0.080047
0.092532 0.092532 0.092532
0.105009 0.105009 0.105009
0.117476 0.117476 0.117476
0.129935 0.129935 0.129935
0.142384 0.142384 0.142384
0.154824 0.154824 0.154824
0.167255 0.167255 0.167255
0.179675 0.179675 0.179675
0.192087 0.192087 0.192087
0.204488 0.204488 0.204488
0.216880 0.216880 0.216880
0.229262 0.229262 0.229262
0.072102 0.072102 0.072102
0.084593 0.084593 0.084593
0.097075 0.097075 0.097075
0.109549 0.109549 0.109549
0.122013 0.122013 0.122013
0.134468 0.134468 0.134468
0.146914 0.146914 0.146914
0.159351 0.159351 0.159351
0.171778 0.171778 0.171778
0.184195 0.184195 0.184195
0.196603 0.196603 0.196603
0.209001 0.209001 0.209001
0.221389 0.221389 0.221389
0.233767 0.233767 0.233767
0.246135 0.246135 0.246135
0.258493 0.258493 0.258493
0.270841 0.270841 0.270841
0.114088 0.114088 0.114088
0.126549 0.126549 0.126549
0.139001 0.139001 0.139001
0.151443 0.151443 0.151443
0.163876 0.163876 0.163876
0.176299 0.176299 0.176299
0.188713 0.188713 0.188713
0.201117 0.201117 0.201117
0.213512 0.213512 0.213512
0.225896 0.225896 0.225896
0.238271 0.238271 0.238271
0.250635 0.250635 0.250635
0.262990 0.262990 0.262990
0.275334 0.275334 0.275334
0.287668 0.287668 0.287668
0.299992 0.299992 0.299992
0.312306 0.312306 0.312306
0.155971 0.155971 0.155971
0.168400 0.168400 0.168400
0.180820 0.180820 0.180820
0.193230 0.193230 0.193230
0.205631 0.205631 0.205631
0.218022 0.218022 0.218022
0.230403 0.230403 0.230403
0.242773 0.242773 0.242773
0.255134 0.255134 0.255134
0.267485 0.267485 0.267485
0.279826 0.279826 0.279826
0.292156 0.292156 0.292156
0.304476 0.304476 0.304476
0.316786 0.316786 0.316786
0.329086 0.329086 0.329086
0.341375 0.341375 0.341375
0.353654 0.353654 0.353654
0.197746 0.197746 0.197746
0.210143 0.210143 0.210143
0.222530 0.222530 0.222530
0.234908 0.234908 0.234908
0.247275 0.247275 0.247275
0.259632 0.259632 0.259632
0.271979 0.271979 0.271979
0.284316 0.284316 0.284316
0.296643 0.296643 0.296643
0.308959 0.308959 0.308959
0.321265 0.321265 0.321265
0.333561 0.333561 0.333561
0.345846 0.345846 0.345846
0.358121 0.358121 0.358121
0.370386 0.370386 0.370386
0.382640 0.382640 0.382640
0.394883 0.394883 0.394883
0.239411 0.239411 0.239411
0.251775 0.251775 0.251775
0.264128 0.264128 0.264128
0.276472 0.276472 0.276472
0.288805 0.288805 0.288805
0.301128 0.301128 0.301128
0.313441 0.313441 0.313441
0.325743 0.325743 0.325743
0.338035 0.338035 0.338035
0.350316 0.350316 0.350316
0.362588 0.362588 0.362588
0.374848 0.374848 0.374848
0.387098 0.387098 0.387098
0.399337 0.399337 0.399337
0.411566 0.411566 0.411566
0.423784 0.423784 0.423784
0.435992 0.435992 0.435992
0.280963 0.280963 0.280963
0.293292 0.293292 0.293292
0.305612 0.305612 0.305612
0.317921 0.317921 0.317921
0.330219 0.330219 0.330219
0.342507 0.342507 0.342507
0.354785 0.354785 0.354785
0.367052 0.367052 0.367052
0.379309 0.379309 0.379309
0.391555 0.391555 0.391555
0.403791 0.403791 0.403791
0.416016 0.416016 0.416016
0.428230 0.428230 0.428230
0.440433 0.440433 0.440433
0.452626 0.452626 0.452626
0.464808 0.464808 0.464808
0.476980 0.476980 0.476980
0.322399 0.322399 0.322399
0.334694 0.334694 0.334694
0.346978 0.346978 0.346978
0.359252 0.359252 0.359252
0.371516 0.371516 0.371516
0.383769 0.383769 0.383769
0.396011 0.396011 0.396011
0.408243 0.408243 0.408243
0.420464 0.420464 0.420464
0.432674 0.432674 0.432674
0.444874 0.444874 0.444874
0.457063 0.457063 0.457063
0.469241 0.469241 0.469241
0.481408 0.481408 0.481408
0.493565 0.493565 0.493565
0.505711 0.505711 0.505711
0.517845 0.517845 0.517845
0.363718 0.363718 0.363718
0.375978 0.375978 0.375978
0.388227 0.388227 0.388227
0.400465 0.400465 0.400465
0.412693 0.412693 0.412693
0.424910 0.424910 0.424910
0.437117 0.437117 0.437117
0.449313 0.449313 0.449313
0.461498 0.461498 0.461498
0.473672 0.473672 0.473672
0.485835 0.485835 0.485835
0.497988 0.497988 0.497988
0.510130 0.510130 0.510130
0.522261 0.522261 0.522261
0.534381 0.534381 0.534381
0.546490 0.546490 0.546490
0.558588 0.558588 0.558588
0.404918 0.404918 0.404918
0.417142 0.417142 0.417142
0.429355 0.429355 0.429355
0.441558 0.441558 0.441558
0.453750 0.453750 0.453750
0.465931 0.465931 0.465931
0.478101 0.478101 0.478101
0.490261 0.490261 0.490261
0.502410 0.502410 0.502410
0.514547 0.514547 0.514547
0.526674 0.526674 0.526674
0.538790 0.538790 0.538790
0.550896 0.550896 0.550896
0.562990 0.562990 0.562990
0.575073 0.575073 0.575073
0.587146 0.587146 0.587146
0.599207 0.599207 0.599207
0.445998 0.445998 0.445998
0.458186 0.458186 0.458186
0.470363 0.470363 0.470363
0.482529 0.482529 0.482529
0.494685 0.494685 0.494685
0.506830 0.506830 0.506830
0.518964 0.518964 0.518964
0.531087 0.531087 0.531087
0.543199 0.543199 0.543199
0.555300 0.555300 0.555300
0.567390 0.567390 0.567390
0.579470 0.579470 0.579470
0.591538 0.591538 0.591538
0.603596 0.603596 0.603596
0.615642 0.615642 0.615642
0.627678 0.627678 0.627678
0.639703 0.639703 0.639703
0.486956 0.486956 0.486956
0.499108 0.499108 0.499108
0.511248 0.511248 0.511248
0.523378 0.523378 0.523378
0.535498 0.535498 0.535498
0.547606 0.547606 0.547606
0.559703 0.559703 0.559703
0.571789 0.571789 0.571789
0.583865 0.583865 0.583865
0.595929 0.595929 0.595929
0.607983 0.607983 0.607983
0.620025 0.620025 0.620025
0.632057 0.632057 0.632057
0.644078 0.644078 0.644078
0.656087 0.656087 0.656087
0.668086 0.668086 0.668086
0.680074 0.680074 0.680074
0.527792 0.527792 0.527792
0.539907 0.539907 0.539907
0.552011 0.552011 0.552011
0.564104 0.564104 0.564104
0.576187 0.576187 0.576187
0.588258 0.588258 0.588258
0.600319 0.600319 0.600319
0.612368 0.612368 0.612368
0.624407 0.624407 0.624407
0.636435 0.636435 0.636435
0.648451 0.648451 0.648451
0.660457 0.660457 0.660457
0.672452 0.672452 0.672452
0.684435 0.684435 0.684435
0.696408 0.696408 0.696408
0.708370 0.708370 0.708370
0.720321 0.720321 0.720321
0.568504 0.568504 0.568504
0.580583 0.580583 0.580583
0.592650 0.592650 0.592650
0.604707 0.604707 0.604707
0.616752 0.616752 0.616752
0.628787 0.628787 0.628787
0.640811 0.640811 0.640811
0.652823 0.652823 0.652823
0.664825 0.664825 0.664825
0.676816 0.676816 0.676816
0.688795 0.688795 0.688795
0.700764 0.700764 0.700764
0.712722 0.712722 0.712722
0.724669 0.724669 0.724669
0.736605 0.736605 0.736605
0.748530 0.748530 0.748530
0.760444 0.760444 0.760444
0.609094 0.609094 0.609094
0.621135 0.621135 0.621135
0.633166 0.633166 0.633166
0.645185 0.645185 0.645185
0.657194 0.657194 0.657194
0.669192 0.669192 0.669192
0.681178 0.681178 0.681178
0.693154 0.693154 0.693154
0.705119 0.705119 0.705119
0.717073 0.717073 0.717073
0.729016 0.729016 0.729016
0.740947 0.740947 0.740947
0.752868 0.752868 0.752868
0.764778 0.764778 0.764778
0.776677 0.776677 0.776677
0.788566 0.788566 0.788566
0.800443 0.800443 0.800443
0.649559 0.649559 0.649559
0.661563 0.661563 0.661563
0.673557 0.673557 0.673557
0.685540 0.685540 0.685540
0.697511 0.697511 0.697511
0.709472 0.709472 0.709472
0.721422 0.721422 0.721422
0.733361 0.733361 0.733361
0.745289 0.745289 0.745289
0.757206 0.757206 0.757206
0.769112 0.769112 0.769112
0.781007 0.781007 0.781007
0.792891 0.792891 0.792891
0.804764 0.804764 0.804764
0.816627 0.816627 0.816627
0.828478 0.828478 0.828478
0.840319 0.840319 0.840319
0.689899 0.689899 0.689899
0.701867 0.701867 0.701867
0.713824 0.713824 0.713824
0.725770 0.725770 0.725770
0.737705 0.737705 0.737705
0.749629 0.749629 0.749629
0.761541 0.761541 0.761541
0.773444 0.773444 0.773444
0.785335 0.785335 0.785335
0.797215 0.797215 0.797215
0.809084 0.809084 0.809084
0.820943 0.820943 0.820943
0.832791 0.832791 0.832791
0.844627 0.844627 0.844627
0.856454 0.856454 0.856454
0.868269 0.868269 0.868269
0.880074 0.880074 0.880074
0.034271 0.034271 0.034271
0.046788 0.046788 0.046788
0.059296 0.059296 0.059296
0.071796 0.071796 0.071796
0.084288 0.084288 0.084288
0.096770 0.096770 0.096770
0.109244 0.109244 0.109244
0.121709 0.121709 0.121709
0.134164 0.134164 0.134164
0.146610 0.146610 0.146610
0.159047 0.159047 0.159047
0.171474 0.171474 0.171474
0.183891 0.183891 0.183891
0.196299 0.196299 0.196299
0.208697 0.208697 0.208697
0.221086 0.221086 0.221086
0.233464 0.233464 0.233464
0.076345 0.076345 0.076345
0.088833 0.088833 0.088833
0.101313 0.101313 0.101313
0.113783 0.113783 0.113783
0.126244 0.126244 0.126244
0.138696 0.138696 0.138696
0.151139 0.151139 0.151139
0.163572 0.163572 0.163572
0.175996 0.175996 0.175996
0.188410 0.188410 0.188410
0.200814 0.200814 0.200814
0.213209 0.213209 0.213209
0.225593 0.225593 0.225593
0.237968 0.237968 0.237968
0.250333 0.250333 0.250333
0.262688 0.262688 0.262688
0.275032 0.275032 0.275032
0.118321 0.118321 0.118321
0.130779 0.130779 0.130779
0.143227 0.143227 0.143227
0.155666 0.155666 0.155666
0.168096 0.168096 0.168096
0.180516 0.180516 0.180516
0.192927 0.192927 0.192927
0.205328 0.205328 0.205328
0.217719 0.217719 0.217719
0.230100 0.230100 0.230100
0.242471 0.242471 0.242471
0.254832 0.254832 0.254832
0.267183 0.267183 0.267183
0.279524 0.279524 0.279524
0.291855 0.291855 0.291855
0.304175 0.304175 0.304175
0.316485 0.316485 0.316485
0.160193 0.160193 0.160193
0.172619 0.172619 0.172619
0.185036 0.185036 0.185036
0.197443 0.197443 0.197443
0.209840 0.209840 0.209840
0.222227 0.222227 0.222227
0.234605 0.234605 0.234605
0.246972 0.246972 0.246972
0.259330 0.259330 0.259330
0.271677 0.271677 0.271677
0.284014 0.284014 0.284014
0.296341 0.296341 0.296341
0.308658 0.308658 0.308658
0.320964 0.320964 0.320964
0.333260 0.333260 0.333260
0.345546 0.345546 0.345546
0.357821 0.357821 0.357821
0.201957 0.201957 0.201957
0.214351 0.214351 0.214351
0.226735 0.226735 0.226735
0.239109 0.239109 0.239109
0.251472 0.251472 0.251472
0.263826 0.263826 0.263826
0.276170 0.276170 0.276170
0.288503 0.288503 0.288503
0.300827 0.300827 0.300827
0.313140 0.313140 0.313140
0.325442 0.325442 0.325442
0.337734 0.337734 0.337734
0.350016 0.350016 0.350016
0.362288 0.362288 0.362288
0.374548 0.374548 0.374548
0.386799 0.386799 0.386799
0.399038 0.399038 0.399038
0.243611 0.243611 0.243611
0.255971 0.255971 0.255971
0.268321 0.268321 0.268321
0.280661 0.280661 0.280661
0.292991 0.292991 0.292991
0.305311 0.305311 0.305311
0.317620 0.317620 0.317620
0.329919 0.329919 0.329919
0.342207 0.342207 0.342207
0.354485 0.354485 0.354485
0.366752 0.366752 0.366752
0.379009 0.379009 0.379009
0.391256 0.391256 0.391256
0.403492 0.403492 0.403492
0.415717 0.415717 0.415717
0.427931 0.427931 0.427931
0.440135 0.440135 0.440135
0.285151 0.285151 0.285151
0.297477 0.297477 0.297477
0.309793 0.309793 0.309793
0.322098 0.322098 0.322098
0.334394 0.334394 0.334394
0.346678 0.346678 0.346678
0.358952 0.358952 0.358952
0.371216 0.371216 0.371216
0.383469 0.383469 0.383469
0.395712 0.395712 0.395712
0.407944 0.407944 0.407944
0.420165 0.420165 0.420165
0.432376 0.432376 0.432376
0.444575 0.444575 0.444575
0.456765 0.456765 0.456765
0.468943 0.468943 0.468943
0.481111 0.481111 0.481111
0.326576 0.326576 0.326576
0.338867 0.338867 0.338867
0.351148 0.351148 0.351148
0.363418 0.363418 0.363418
0.375678 0.375678 0.375678
0.387927 0.387927 0.387927
0.400166 0.400166 0.400166
0.412394 0.412394 0.412394
0.424612 0.424612 0.424612
0.436818 0.436818 0.436818
0.449014 0.449014 0.449014
0.461200 0.461200 0.461200
0.473374 0.473374 0.473374
0.485538 0.485538 0.485538
0.497691 0.497691 0.497691
0.509833 0.509833 0.509833
0.521964 0.521964 0.521964
0.367883 0.367883 0.367883
0.380139 0.380139 0.380139
0.392384 0.392384 0.392384
0.404619 0.404619 0.404619
0.416843 0.416843 0.416843
0.429057 0.429057 0.429057
0.441260 0.441260 0.441260
0.453452 0.453452 0.453452
0.465633 0.465633 0.465633
0.477804 0.477804 0.477804
0.489964 0.489964 0.489964
0.502112 0.502112 0.502112
0.514251 0.514251 0.514251
0.526378 0.526378 0.526378
0.538494 0.538494 0.538494
0.550600 0.550600 0.550600
0.562694 0.562694 0.562694
0.409071 0.409071 0.409071
0.421291 0.421291 0.421291
0.433501 0.433501 0.433501
0.445700 0.445700 0.445700
0.457888 0.457888 0.457888
0.470065 0.470065 0.470065
0.482232 0.482232 0.482232
0.494388 0.494388 0.494388
0.506533 0.506533 0.506533
0.518667 0.518667 0.518667
0.530790 0.530790 0.530790
0.542903 0.542903 0.542903
0.555004 0.555004 0.555004
0.567095 0.567095 0.567095
0.579175 0.579175 0.579175
0.591243 0.591243 0.591243
0.603301 0.603301 0.603301
0.450138 0.450138 0.450138
0.462322 0.462322 0.462322
0.474496 0.474496 0.474496
0.486659 0.486659 0.486659
0.498811 0.498811 0.498811
0.510952 0.510952 0.510952
0.523082 0.523082 0.523082
0.535201 0.535201 0.535201
0.547310 0.547310 0.547310
0.559407 0.559407 0.559407
0.571494 0.571494 0.571494
0.583570 0.583570 0.583570
0.595634 0.595634 0.595634
0.607688 0.607688 0.607688
0.619731 0.619731 0.619731
0.631763 0.631763 0.631763
0.643784 0.643784 0.643784
0.491084 0.491084 0.491084
0.503232 0.503232 0.503232
0.515369 0.515369 0.515369
0.527495 0.527495 0.527495
0.539611 0.539611 0.539611
0.551715 0.551715 0.551715
0.563809 0.563809 0.563809
0.575891 0.575891 0.575891
0.587963 0.587963 0.587963
0.600024 0.600024 0.600024
0.612074 0.612074 0.612074
0.624113 0.624113 0.624113
0.636141 0.636141 0.636141
0.648157 0.648157 0.648157
0.660163 0.660163 0.660163
0.672158 0.672158 0.672158
0.684142 0.684142 0.684142
0.531907 0.531907 0.531907
0.544019 0.544019 0.544019
0.556119 0.556119 0.556119
0.568209 0.568209 0.568209
0.580288 0.580288 0.580288
0.592355 0.592355 0.592355
0.604412 0.604412 0.604412
0.616458 0.616458 0.616458
0.628493 0.628493 0.628493
0.640517 0.640517 0.640517
0.652530 0.652530 0.652530
0.664532 0.664532 0.664532
0.676523 0.676523 0.676523
0.688503 0.688503 0.688503
0.700472 0.700472 0.700472
0.712430 0.712430 0.712430
0.724377 0.724377 0.724377
0.572608 0.572608 0.572608
0.584682 0.584682 0.584682
0.596746 0.596746 0.596746
0.608799 0.608799 0.608799
0.620841 0.620841 0.620841
0.632872 0.632872 0.632872
0.644891 0.644891 0.644891
0.656900 0.656900 0.656900
0.668898 0.668898 0.668898
0.680885 0.680885 0.680885
0.692861 0.692861 0.692861
0.704826 0.704826 0.704826
0.716780 0.716780 0.716780
0.728724 0.728724 0.728724
0.740656 0.740656 0.740656
0.752577 0.752577 0.752577
0.764487 0.764487 0.764487
0.613184 0.613184 0.613184
0.625222 0.625222 0.625222
0.637249 0.637249 0.637249
0.649265 0.649265 0.649265
0.661270 0.661270 0.661270
0.673264 0.673264 0.673264
0.685247 0.685247 0.685247
0.697219 0.697219 0.697219
0.709180 0.709180 0.709180
0.721130 0.721130 0.721130
0.733069 0.733069 0.733069
0.744997 0.744997 0.744997
0.756914 0.756914 0.756914
0.768821 0.768821 0.768821
0.780716 0.780716 0.780716
0.792600 0.792600 0.792600
0.804474 0.804474 0.804474
0.653637 0.653637 0.653637
0.665638 0.665638 0.665638
0.677628 0.677628 0.677628
0.689607 0.689607 0.689607
0.701575 0.701575 0.701575
0.713532 0.713532 0.713532
0.725478 0.725478 0.725478
0.737413 0.737413 0.737413
0.749337 0.749337 0.749337
0.761250 0.761250 0.761250
0.773153 0.773153 0.773153
0.785044 0.785044 0.785044
0.796924 0.796924 0.796924
0.808794 0.808794 0.808794
0.820653 0.820653 0.820653
0.832501 0.832501 0.832501
0.844338 0.844338 0.844338
0.693965 0.693965 0.693965
0.705929 0.705929 0.705929
0.717882 0.717882 0.717882
0.729824 0.729824 0.729824
0.741755 0.741755 0.741755
0.753675 0.753675 0.753675
0.765585 0.765585 0.765585
0.777483 0.777483 0.777483
0.789371 0.789371 0.789371
0.801247 0.801247 0.801247
0.813113 0.813113 0.813113
0.824968 0.824968 0.824968
0.836812 0.836812 0.836812
0.848645 0.848645 0.848645
0.860467 0.860467 0.860467
0.872279 0.872279 0.872279
0.884080 0.884080 0.884080
0.038523 0.038523 0.038523
0.051037 0.051037 0.051037
0.063542 0.063542 0.063542
0.076039 0.076039 0.076039
0.088528 0.088528 0.088528
0.101007 0.101007 0.101007
0.113478 0.113478 0.113478
0.125939 0.125939 0.125939
0.138392 0.138392 0.138392
0.150835 0.150835 0.150835
0.163268 0.163268 0.163268
0.175692 0.175692 0.175692
0.188106 0.188106 0.188106
0.200511 0.200511 0.200511
0.212906 0.212906 0.212906
0.225291 0.225291 0.225291
0.237666 0.237666 0.237666
0.080587 0.080587 0.080587
0.093072 0.093072 0.093072
0.105549 0.105549 0.105549
0.118016 0.118016 0.118016
0.130474 0.130474 0.130474
0.142923 0.142923 0.142923
0.155362 0.155362 0.155362
0.167792 0.167792 0.167792
0.180213 0.180213 0.180213
0.192623 0.192623 0.192623
0.205025 0.205025 0.205025
0.217416 0.217416 0.217416
0.229797 0.229797 0.229797
0.242169 0.242169 0.242169
0.254530 0.254530 0.254530
0.266881 0.266881 0.266881
0.279222 0.279222 0.279222
0.122552 0.122552 0.122552
0.135007 0.135007 0.135007
0.147453 0.147453 0.147453
0.159889 0.159889 0.159889
0.172315 0.172315 0.172315
0.184732 0.184732 0.184732
0.197139 0.197139 0.197139
0.209537 0.209537 0.209537
0.221925 0.221925 0.221925
0.234302 0.234302 0.234302
0.246670 0.246670 0.246670
0.259028 0.259028 0.259028
0.271375 0.271375 0.271375
0.283713 0.283713 0.283713
0.296040 0.296040 0.296040
0.308357 0.308357 0.308357
0.320664 0.320664 0.320664
0.164414 0.164414 0.164414
0.176837 0.176837 0.176837
0.189250 0.189250 0.189250
0.201654 0.201654 0.201654
0.214048 0.214048 0.214048
0.226432 0.226432 0.226432
0.238806 0.238806 0.238806
0.251170 0.251170 0.251170
0.263524 0.263524 0.263524
0.275868 0.275868 0.275868
0.288202 0.288202 0.288202
0.300525 0.300525 0.300525
0.312839 0.312839 0.312839
0.325141 0.325141 0.325141
0.337434 0.337434 0.337434
0.349716 0.349716 0.349716
0.361987 0.361987 0.361987
0.206167 0.206167 0.206167
0.218558 0.218558 0.218558
0.230938 0.230938 0.230938
0.243309 0.243309 0.243309
0.255669 0.255669 0.255669
0.268019 0.268019 0.268019
0.280360 0.280360 0.280360
0.292690 0.292690 0.292690
0.305009 0.305009 0.305009
0.317319 0.317319 0.317319
0.329618 0.329618 0.329618
0.341907 0.341907 0.341907
0.354185 0.354185 0.354185
0.366453 0.366453 0.366453
0.378710 0.378710 0.378710
0.390956 0.390956 0.390956
0.403192 0.403192 0.403192
0.247810 0.247810 0.247810
0.260166 0.260166 0.260166
0.272513 0.272513 0.272513
0.284850 0.284850 0.284850
0.297176 0.297176 0.297176
0.309492 0.309492 0.309492
0.321798 0.321798 0.321798
0.334093 0.334093 0.334093
0.346378 0.346378 0.346378
0.358652 0.358652 0.358652
0.370916 0.370916 0.370916
0.383170 0.383170 0.383170
0.395412 0.395412 0.395412
0.407645 0.407645 0.407645
0.419866 0.419866 0.419866
0.432077 0.432077 0.432077
0.444277 0.444277 0.444277
0.289338 0.289338 0.289338
0.301661 0.301661 0.301661
0.313973 0.313973 0.313973
0.326275 0.326275 0.326275
0.338567 0.338567 0.338567
0.350848 0.350848 0.350848
0.363118 0.363118 0.363118
0.375378 0.375378 0.375378
0.387628 0.387628 0.387628
0.399867 0.399867 0.399867
0.412095 0.412095 0.412095
0.424313 0.424313 0.424313
0.436520 0.436520 0.436520
0.448716 0.448716 0.448716
0.460902 0.460902 0.460902
0.473076 0.473076 0.473076
0.485240 0.485240 0.485240
0.330751 0.330751 0.330751
0.343039 0.343039 0.343039
0.355316 0.355316 0.355316
0.367583 0.367583 0.367583
0.379839 0.379839 0.379839
0.392085 0.392085 0.392085
0.404320 0.404320 0.404320
0.416544 0.416544 0.416544
0.428758 0.428758 0.428758
0.440961 0.440961 0.440961
0.453154 0.453154 0.453154
0.465335 0.465335 0.465335
0.477506 0.477506 0.477506
0.489666 0.489666 0.489666
0.501815 0.501815 0.501815
0.513954 0.513954 0.513954
0.526081 0.526081 0.526081
0.372046 0.372046 0.372046
0.384299 0.384299 0.384299
0.396541 0.396541 0.396541
0.408772 0.408772 0.408772
0.420992 0.420992 0.420992
0.433202 0.433202 0.433202
0.445401 0.445401 0.445401
0.457590 0.457590 0.457590
0.469768 0.469768 0.469768
0.481934 0.481934 0.481934
0.494091 0.494091 0.494091
0.506236 0.506236 0.506236
0.518370 0.518370 0.518370
0.530494 0.530494 0.530494
0.542607 0.542607 0.542607
0.554708 0.554708 0.554708
0.566799 0.566799 0.566799
0.413222 0.413222 0.413222
0.425439 0.425439 0.425439
0.437645 0.437645 0.437645
0.449840 0.449840 0.449840
0.462025 0.462025 0.462025
0.474198 0.474198 0.474198
0.486361 0.486361 0.486361
0.498513 0.498513 0.498513
0.510655 0.510655 0.510655
0.522785 0.522785 0.522785
0.534905 0.534905 0.534905
0.547014 0.547014 0.547014
0.559111 0.559111 0.559111
0.571198 0.571198 0.571198
0.583274 0.583274 0.583274
0.595339 0.595339 0.595339
0.607393 0.607393 0.607393
0.454277 0.454277 0.454277
0.466458 0.466458 0.466458
0.478628 0.478628 0.478628
0.490787 0.490787 0.490787
0.502935 0.502935 0.502935
0.515072 0.515072 0.515072
0.527199 0.527199 0.527199
0.539315 0.539315 0.539315
0.551419 0.551419 0.551419
0.563513 0.563513 0.563513
0.575596 0.575596 0.575596
0.587668 0.587668 0.587668
0.599729 0.599729 0.599729
0.611779 0.611779 0.611779
0.623818 0.623818 0.623818
0.635846 0.635846 0.635846
0.647864 0.647864 0.647864
0.495211 0.495211 0.495211
0.507355 0.507355 0.507355
0.519488 0.519488 0.519488
0.531611 0.531611 0.531611
0.543723 0.543723 0.543723
0.555823 0.555823 0.555823
0.567913 0.567913 0.567913
0.579992 0.579992 0.579992
0.592060 0.592060 0.592060
0.604117 0.604117 0.604117
0.616163 0.616163 0.616163
0.628199 0.628199 0.628199
0.640223 0.640223 0.640223
0.652236 0.652236 0.652236
0.664238 0.664238 0.664238
0.676229 0.676229 0.676229
0.688210 0.688210 0.688210
0.536022 0.536022 0.536022
0.548129 0.548129 0.548129
0.560226 0.560226 0.560226
0.572312 0.572312 0.572312
0.584387 0.584387 0.584387
0.596451 0.596451 0.596451
0.608504 0.608504 0.608504
0.620546 0.620546 0.620546
0.632577 0.632577 0.632577
0.644598 0.644598 0.644598
0.656607 0.656607 0.656607
0.668605 0.668605 0.668605
0.680592 0.680592 0.680592
0.692569 0.692569 0.692569
0.704534 0.704534 0.704534
0.716488 0.716488 0.716488
0.728432 0.728432 0.728432
0.576709 0.576709 0.576709
0.588780 0.588780 0.588780
0.600840 0.600840 0.600840
0.612890 0.612890 0.612890
0.624928 0.624928 0.624928
0.636955 0.636955 0.636955
0.648971 0.648971 0.648971
0.660976 0.660976 0.660976
0.672970 0.672970 0.672970
0.684954 0.684954 0.684954
0.696926 0.696926 0.696926
0.708887 0.708887 0.708887
0.720838 0.720838 0.720838
0.732777 0.732777 0.732777
0.744705 0.744705 0.744705
0.756623 0.756623 0.756623
0.768530 0.768530 0.768530
0.617273 0.617273 0.617273
0.629308 0.629308 0.629308
0.641331 0.641331 0.641331
0.653343 0.653343 0.653343
0.665344 0.665344 0.665344
0.677334 0.677334 0.677334
0.689314 0.689314 0.689314
0.701282 0.701282 0.701282
0.713239 0.713239 0.713239
0.725186 0.725186 0.725186
0.737121 0.737121 0.737121
0.749045 0.749045 0.749045
0.760959 0.760959 0.760959
0.772862 0.772862 0.772862
0.784753 0.784753 0.784753
0.796634 0.796634 0.796634
0.808504 0.808504 0.808504
0.657713 0.657713 0.657713
0.669711 0.669711 0.669711
0.681697 0.681697 0.681697
0.693672 0.693672 0.693672
0.705636 0.705636 0.705636
0.717590 0.717590 0.717590
0.729532 0.729532 0.729532
0.741464 0.741464 0.741464
0.753384 0.753384 0.753384
0.765294 0.765294 0.765294
0.777192 0.777192 0.777192
0.789080 0.789080 0.789080
0.800957 0.800957 0.800957
0.812823 0.812823 0.812823
0.824678 0.824678 0.824678
0.836522 0.836522 0.836522
0.848356 0.848356 0.848356
0.698029 0.698029 0.698029
0.709989 0.709989 0.709989
0.721939 0.721939 0.721939
0.733877 0.733877 0.733877
0.745805 0.745805 0.745805
0.757721 0.757721 0.757721
0.769627 0.769627 0.769627
0.781521 0.781521 0.781521
0.793405 0.793405 0.793405
0.805278 0.805278 0.805278
0.817140 0.817140 0.817140
0.828991 0.828991 0.828991
0.840831 0.840831 0.840831
0.852661 0.852661 0.852661
0.864480 0.864480 0.864480
0.876288 0.876288 0.876288
0.888085 0.888085 0.888085
0.042774 0.042774 0.042774
0.055285 0.055285 0.055285
0.067787 0.067787 0.067787
0.080282 0.080282 0.080282
0.092767 0.092767 0.092767
0.105243 0.105243 0.105243
0.117711 0.117711 0.117711
0.130169 0.130169 0.130169
0.142618 0.142618 0.142618
0.155058 0.155058 0.155058
0.167488 0.167488 0.167488
0.179909 0.179909 0.179909
0.192320 0.192320 0.192320
0.204721 0.204721 0.204721
0.217113 0.217113 0.217113
