source/experimental_legacy_banks/bank_a/looks/memory/look.CUBE
#Created by: Infinite Arch Leica Look Builder
#Unique Leica Look ID: 0
#Based Filmstyle Mode: Standard
TITLE "Memory"
LUT_3D_SIZE 9
DOMAIN_MIN 0.0 0.0 0.0
DOMAIN_MAX 1.0 1.0 1.0
0.044791 0.044791 0.044791
0.069023 0.069023 0.069023
0.093201 0.093201 0.093201
0.117325 0.117325 0.117325
0.141393 0.141393 0.141393
0.165403 0.165403 0.165403
0.189354 0.189354 0.189354
0.213245 0.213245 0.213245
0.237076 0.237076 0.237076
0.126094 0.126094 0.126094
0.150140 0.150140 0.150140
0.174129 0.174129 0.174129
0.198059 0.198059 0.198059
0.221928 0.221928 0.221928
0.245737 0.245737 0.245737
0.269483 0.269483 0.269483
0.293168 0.293168 0.293168
0.316788 0.316788 0.316788
0.206756 0.206756 0.206756
0.230603 0.230603 0.230603
0.254389 0.254389 0.254389
0.278113 0.278113 0.278113
0.301774 0.301774 0.301774
0.325372 0.325372 0.325372
0.348906 0.348906 0.348906
0.372375 0.372375 0.372375
0.395779 0.395779 0.395779
0.286735 0.286735 0.286735
0.310373 0.310373 0.310373
0.333947 0.333947 0.333947
0.357457 0.357457 0.357457
0.380903 0.380903 0.380903
0.404283 0.404283 0.404283
0.427598 0.427598 0.427598
0.450846 0.450846 0.450846
0.474028 0.474028 0.474028
0.366000 0.366000 0.366000
0.389422 0.389422 0.389422
0.412779 0.412779 0.412779
0.436069 0.436069 0.436069
0.459294 0.459294 0.459294
0.482452 0.482452 0.482452
0.505543 0.505543 0.505543
0.528567 0.528567 0.528567
0.551524 0.551524 0.551524
0.444532 0.444532 0.444532
0.467732 0.467732 0.467732
0.490866 0.490866 0.490866
0.513933 0.513933 0.513933
0.536933 0.536933 0.536933
0.559865 0.559865 0.559865
0.582730 0.582730 0.582730
0.605528 0.605528 0.605528
0.628257 0.628257 0.628257
0.522314 0.522314 0.522314
0.545289 0.545289 0.545289
0.568197 0.568197 0.568197
0.591038 0.591038 0.591038
0.613810 0.613810 0.613810
0.636515 0.636515 0.636515
0.659152 0.659152 0.659152
0.681721 0.681721 0.681721
0.704222 0.704222 0.704222
0.599336 0.599336 0.599336
0.622084 0.622084 0.622084
0.644764 0.644764 0.644764
0.667376 0.667376 0.667376
0.689920 0.689920 0.689920
0.712397 0.712397 0.712397
0.734805 0.734805 0.734805
0.757145 0.757145 0.757145
0.779417 0.779417 0.779417
0.675592 0.675592 0.675592
0.698111 0.698111 0.698111
0.720562 0.720562 0.720562
0.742946 0.742946 0.742946
0.765261 0.765261 0.765261
0.787509 0.787509 0.787509
0.809688 0.809688 0.809688
0.831801 0.831801 0.831801
0.853846 0.853846 0.853846
0.053026 0.053026 0.053026
0.077240 0.077240 0.077240
0.101400 0.101400 0.101400
0.125505 0.125505 0.125505
0.149553 0.149553 0.149553
0.173543 0.173543 0.173543
0.197474 0.197474 0.197474
0.221345 0.221345 0.221345
0.245155 0.245155 0.245155
0.134267 0.134267 0.134267
0.158294 0.158294 0.158294
0.182263 0.182263 0.182263
0.206172 0.206172 0.206172
0.230021 0.230021 0.230021
0.253808 0.253808 0.253808
0.277534 0.277534 0.277534
0.301196 0.301196 0.301196
0.324796 0.324796 0.324796
0.214861 0.214861 0.214861
0.238688 0.238688 0.238688
0.262453 0.262453 0.262453
0.286156 0.286156 0.286156
0.309795 0.309795 0.309795
0.333371 0.333371 0.333371
0.356883 0.356883 0.356883
0.380330 0.380330 0.380330
0.403712 0.403712 0.403712
0.294769 0.294769 0.294769
0.318386 0.318386 0.318386
0.341939 0.341939 0.341939
0.365427 0.365427 0.365427
0.388850 0.388850 0.388850
0.412208 0.412208 0.412208
0.435500 0.435500 0.435500
0.458726 0.458726 0.458726
0.481886 0.481886 0.481886
0.373962 0.373962 0.373962
0.397362 0.397362 0.397362
0.420696 0.420696 0.420696
0.443964 0.443964 0.443964
0.467166 0.467166 0.467166
0.490301 0.490301 0.490301
0.513370 0.513370 0.513370
0.536371 0.536371 0.536371
0.559305 0.559305 0.559305
0.452418 0.452418 0.452418
0.475596 0.475596 0.475596
0.498707 0.498707 0.498707
0.521751 0.521751 0.521751
0.544728 0.544728 0.544728
0.567638 0.567638 0.567638
0.590480 0.590480 0.590480
0.613254 0.613254 0.613254
0.635961 0.635961 0.635961
0.530124 0.530124 0.530124
0.553077 0.553077 0.553077
0.575962 0.575962 0.575962
0.598779 0.598779 0.598779
0.621529 0.621529 0.621529
0.644210 0.644210 0.644210
0.666824 0.666824 0.666824
0.689370 0.689370 0.689370
0.711848 0.711848 0.711848
0.607069 0.607069 0.607069
0.629794 0.629794 0.629794
0.652451 0.652451 0.652451
0.675040 0.675040 0.675040
0.697561 0.697561 0.697561
0.720014 0.720014 0.720014
0.742399 0.742399 0.742399
0.764716 0.764716 0.764716
0.786965 0.786965 0.786965
0.683247 0.683247 0.683247
0.705743 0.705743 0.705743
0.728171 0.728171 0.728171
0.750532 0.750532 0.750532
0.772824 0.772824 0.772824
0.795049 0.795049 0.795049
0.817205 0.817205 0.817205
0.839295 0.839295 0.839295
0.861317 0.861317 0.861317
0.061255 0.061255 0.061255
0.085451 0.085451 0.085451
0.109592 0.109592 0.109592
0.133678 0.133678 0.133678
0.157707 0.157707 0.157707
0.181677 0.181677 0.181677
0.205588 0.205588 0.205588
0.229438 0.229438 0.229438
0.253227 0.253227 0.253227
0.142433 0.142433 0.142433
0.166440 0.166440 0.166440
0.190389 0.190389 0.190389
0.214278 0.214278 0.214278
0.238106 0.238106 0.238106
0.261873 0.261873 0.261873
0.285577 0.285577 0.285577
0.309218 0.309218 0.309218
0.332795 0.332795 0.332795
0.222960 0.222960 0.222960
0.246766 0.246766 0.246766
0.270510 0.270510 0.270510
0.294191 0.294191 0.294191
0.317809 0.317809 0.317809
0.341363 0.341363 0.341363
0.364853 0.364853 0.364853
0.388278 0.388278 0.388278
0.411638 0.411638 0.411638
0.302797 0.302797 0.302797
0.326392 0.326392 0.326392
0.349923 0.349923 0.349923
0.373389 0.373389 0.373389
0.396790 0.396790 0.396790
0.420126 0.420126 0.420126
0.443395 0.443395 0.443395
0.466599 0.466599 0.466599
0.489736 0.489736 0.489736
0.381916 0.381916 0.381916
0.405293 0.405293 0.405293
0.428605 0.428605 0.428605
0.451851 0.451851 0.451851
0.475030 0.475030 0.475030
0.498143 0.498143 0.498143
0.521189 0.521189 0.521189
0.544167 0.544167 0.544167
0.567078 0.567078 0.567078
0.460297 0.460297 0.460297
0.483452 0.483452 0.483452
0.506541 0.506541 0.506541
0.529562 0.529562 0.529562
0.552516 0.552516 0.552516
0.575403 0.575403 0.575403
0.598222 0.598222 0.598222
0.620973 0.620973 0.620973
0.643656 0.643656 0.643656
0.537927 0.537927 0.537927
0.560856 0.560856 0.560856
0.583718 0.583718 0.583718
0.606513 0.606513 0.606513
0.629239 0.629239 0.629239
0.651898 0.651898 0.651898
0.674488 0.674488 0.674488
0.697011 0.697011 0.697011
0.719466 0.719466 0.719466
0.614794 0.614794 0.614794
0.637496 0.637496 0.637496
0.660130 0.660130 0.660130
0.682696 0.682696 0.682696
0.705194 0.705194 0.705194
0.727624 0.727624 0.727624
0.749986 0.749986 0.749986
0.772280 0.772280 0.772280
0.794506 0.794506 0.794506
0.690894 0.690894 0.690894
0.713368 0.713368 0.713368
0.735773 0.735773 0.735773
0.758110 0.758110 0.758110
0.780379 0.780379 0.780379
0.802581 0.802581 0.802581
0.824715 0.824715 0.824715
0.846781 0.846781 0.846781
0.868781 0.868781 0.868781
0.069478 0.069478 0.069478
0.093656 0.093656 0.093656
0.117778 0.117778 0.117778
0.141845 0.141845 0.141845
0.165854 0.165854 0.165854
0.189804 0.189804 0.189804
0.213694 0.213694 0.213694
0.237524 0.237524 0.237524
0.261292 0.261292 0.261292
0.150592 0.150592 0.150592
0.174580 0.174580 0.174580
0.198509 0.198509 0.198509
0.222377 0.222377 0.222377
0.246184 0.246184 0.246184
0.269930 0.269930 0.269930
0.293613 0.293613 0.293613
0.317232 0.317232 0.317232
0.340788 0.340788 0.340788
0.231051 0.231051 0.231051
0.254836 0.254836 0.254836
0.278559 0.278559 0.278559
0.302219 0.302219 0.302219
0.325815 0.325815 0.325815
0.349348 0.349348 0.349348
0.372816 0.372816 0.372816
0.396218 0.396218 0.396218
0.419556 0.419556 0.419556
0.310817 0.310817 0.310817
0.334390 0.334390 0.334390
0.357899 0.357899 0.357899
0.381343 0.381343 0.381343
0.404722 0.404722 0.404722
0.428036 0.428036 0.428036
0.451283 0.451283 0.451283
0.474464 0.474464 0.474464
0.497578 0.497578 0.497578
0.389862 0.389862 0.389862
0.413217 0.413217 0.413217
0.436507 0.436507 0.436507
0.459730 0.459730 0.459730
0.482887 0.482887 0.482887
0.505977 0.505977 0.505977
0.529000 0.529000 0.529000
0.551955 0.551955 0.551955
0.574844 0.574844 0.574844
0.468168 0.468168 0.468168
0.491301 0.491301 0.491301
0.514366 0.514366 0.514366
0.537365 0.537365 0.537365
0.560296 0.560296 0.560296
0.583160 0.583160 0.583160
0.605956 0.605956 0.605956
0.628684 0.628684 0.628684
0.651344 0.651344 0.651344
0.545721 0.545721 0.545721
0.568628 0.568628 0.568628
0.591467 0.591467 0.591467
0.614238 0.614238 0.614238
0.636942 0.636942 0.636942
0.659577 0.659577 0.659577
0.682145 0.682145 0.682145
0.704644 0.704644 0.704644
0.727076 0.727076 0.727076
0.622512 0.622512 0.622512
0.645190 0.645190 0.645190
0.667801 0.667801 0.667801
0.690344 0.690344 0.690344
0.712819 0.712819 0.712819
0.735226 0.735226 0.735226
0.757564 0.757564 0.757564
0.779835 0.779835 0.779835
0.802039 0.802039 0.802039
0.698534 0.698534 0.698534
0.720984 0.720984 0.720984
0.743366 0.743366 0.743366
0.765680 0.765680 0.765680
0.787927 0.787927 0.787927
0.810105 0.810105 0.810105
0.832216 0.832216 0.832216
0.854260 0.854260 0.854260
0.876236 0.876236 0.876236
0.077695 0.077695 0.077695
0.101854 0.101854 0.101854
0.125958 0.125958 0.125958
0.150005 0.150005 0.150005
0.173994 0.173994 0.173994
0.197924 0.197924 0.197924
0.221794 0.221794 0.221794
0.245603 0.245603 0.245603
0.269350 0.269350 0.269350
0.158745 0.158745 0.158745
0.182713 0.182713 0.182713
0.206621 0.206621 0.206621
0.230469 0.230469 0.230469
0.254255 0.254255 0.254255
0.277980 0.277980 0.277980
0.301641 0.301641 0.301641
0.325239 0.325239 0.325239
0.348773 0.348773 0.348773
0.239136 0.239136 0.239136
0.262900 0.262900 0.262900
0.286601 0.286601 0.286601
0.310240 0.310240 0.310240
0.333814 0.333814 0.333814
0.357325 0.357325 0.357325
0.380771 0.380771 0.380771
0.404151 0.404151 0.404151
0.427466 0.427466 0.427466
0.318830 0.318830 0.318830
0.342381 0.342381 0.342381
0.365868 0.365868 0.365868
0.389290 0.389290 0.389290
0.412647 0.412647 0.412647
0.435938 0.435938 0.435938
0.459163 0.459163 0.459163
0.482321 0.482321 0.482321
0.505413 0.505413 0.505413
0.397801 0.397801 0.397801
0.421134 0.421134 0.421134
0.444401 0.444401 0.444401
0.467602 0.467602 0.467602
0.490736 0.490736 0.490736
0.513803 0.513803 0.513803
0.536803 0.536803 0.536803
0.559736 0.559736 0.559736
0.582601 0.582601 0.582601
0.476032 0.476032 0.476032
0.499141 0.499141 0.499141
0.522184 0.522184 0.522184
0.545160 0.545160 0.545160
0.568068 0.568068 0.568068
0.590909 0.590909 0.590909
0.613682 0.613682 0.613682
0.636387 0.636387 0.636387
0.659024 0.659024 0.659024
0.553508 0.553508 0.553508
0.576392 0.576392 0.576392
0.599208 0.599208 0.599208
0.621956 0.621956 0.621956
0.644636 0.644636 0.644636
0.667249 0.667249 0.667249
0.689793 0.689793 0.689793
0.712270 0.712270 0.712270
0.734678 0.734678 0.734678
0.630221 0.630221 0.630221
0.652877 0.652877 0.652877
0.675464 0.675464 0.675464
0.697984 0.697984 0.697984
0.720436 0.720436 0.720436
0.742820 0.742820 0.742820
0.765135 0.765135 0.765135
0.787383 0.787383 0.787383
0.809563 0.809563 0.809563
0.706166 0.706166 0.706166
0.728593 0.728593 0.728593
0.750952 0.750952 0.750952
0.773243 0.773243 0.773243
0.795466 0.795466 0.795466
0.817622 0.817622 0.817622
0.839710 0.839710 0.839710
0.861731 0.861731 0.861731
0.883685 0.883685 0.883685
0.085906 0.085906 0.085906
0.110046 0.110046 0.110046
0.134131 0.134131 0.134131
0.158158 0.158158 0.158158
0.182127 0.182127 0.182127
0.206037 0.206037 0.206037
0.229886 0.229886 0.229886
0.253674 0.253674 0.253674
0.277400 0.277400 0.277400
0.166891 0.166891 0.166891
0.190839 0.190839 0.190839
0.214727 0.214727 0.214727
0.238554 0.238554 0.238554
0.262319 0.262319 0.262319
0.286022 0.286022 0.286022
0.309662 0.309662 0.309662
0.333238 0.333238 0.333238
0.356751 0.356751 0.356751
0.247213 0.247213 0.247213
0.270956 0.270956 0.270956
0.294636 0.294636 0.294636
0.318253 0.318253 0.318253
0.341806 0.341806 0.341806
0.365294 0.365294 0.365294
0.388718 0.388718 0.388718
0.412076 0.412076 0.412076
0.435369 0.435369 0.435369
0.326835 0.326835 0.326835
0.350365 0.350365 0.350365
0.373830 0.373830 0.373830
0.397230 0.397230 0.397230
0.420564 0.420564 0.420564
0.443833 0.443833 0.443833
0.467035 0.467035 0.467035
0.490171 0.490171 0.490171
0.513240 0.513240 0.513240
0.405732 0.405732 0.405732
0.429043 0.429043 0.429043
0.452287 0.452287 0.452287
0.475466 0.475466 0.475466
0.498577 0.498577 0.498577
0.521622 0.521622 0.521622
0.544599 0.544599 0.544599
0.567509 0.567509 0.567509
0.590351 0.590351 0.590351
0.483887 0.483887 0.483887
0.506974 0.506974 0.506974
0.529995 0.529995 0.529995
0.552947 0.552947 0.552947
0.575833 0.575833 0.575833
0.598650 0.598650 0.598650
0.621400 0.621400 0.621400
0.644082 0.644082 0.644082
0.666697 0.666697 0.666697
0.561287 0.561287 0.561287
0.584148 0.584148 0.584148
0.606941 0.606941 0.606941
0.629666 0.629666 0.629666
0.652323 0.652323 0.652323
0.674913 0.674913 0.674913
0.697434 0.697434 0.697434
0.719888 0.719888 0.719888
0.742273 0.742273 0.742273
0.637923 0.637923 0.637923
0.660555 0.660555 0.660555
0.683120 0.683120 0.683120
0.705616 0.705616 0.705616
0.728045 0.728045 0.728045
0.750406 0.750406 0.750406
0.772698 0.772698 0.772698
0.794923 0.794923 0.794923
0.817081 0.817081 0.817081
0.713790 0.713790 0.713790
0.736194 0.736194 0.736194
0.758530 0.758530 0.758530
0.780798 0.780798 0.780798
0.802998 0.802998 0.802998
0.825130 0.825130 0.825130
0.847196 0.847196 0.847196
0.869194 0.869194 0.869194
0.891125 0.891125 0.891125
0.094110 0.094110 0.094110
0.118232 0.118232 0.118232
0.142297 0.142297 0.142297
0.166305 0.166305 0.166305
0.190254 0.190254 0.190254
0.214143 0.214143 0.214143
0.237972 0.237972 0.237972
0.261739 0.261739 0.261739
0.285443 0.285443 0.285443
0.175031 0.175031 0.175031
0.198958 0.198958 0.198958
0.222825 0.222825 0.222825
0.246632 0.246632 0.246632
0.270376 0.270376 0.270376
0.294057 0.294057 0.294057
0.317676 0.317676 0.317676
0.341230 0.341230 0.341230
0.364721 0.364721 0.364721
0.255283 0.255283 0.255283
0.279005 0.279005 0.279005
0.302663 0.302663 0.302663
0.326259 0.326259 0.326259
0.349790 0.349790 0.349790
0.373257 0.373257 0.373257
0.396658 0.396658 0.396658
0.419994 0.419994 0.419994
0.443264 0.443264 0.443264
0.334833 0.334833 0.334833
0.358341 0.358341 0.358341
0.381784 0.381784 0.381784
0.405161 0.405161 0.405161
0.428474 0.428474 0.428474
0.451720 0.451720 0.451720
0.474899 0.474899 0.474899
0.498013 0.498013 0.498013
0.521059 0.521059 0.521059
0.413656 0.413656 0.413656
0.436944 0.436944 0.436944
0.460166 0.460166 0.460166
0.483322 0.483322 0.483322
0.506411 0.506411 0.506411
0.529432 0.529432 0.529432
0.552387 0.552387 0.552387
0.575274 0.575274 0.575274
0.598093 0.598093 0.598093
0.491735 0.491735 0.491735
0.514800 0.514800 0.514800
0.537797 0.537797 0.537797
0.560727 0.560727 0.560727
0.583589 0.583589 0.583589
0.606384 0.606384 0.606384
0.629111 0.629111 0.629111
0.651770 0.651770 0.651770
0.674361 0.674361 0.674361
0.569058 0.569058 0.569058
0.591896 0.591896 0.591896
0.614666 0.614666 0.614666
0.637368 0.637368 0.637368
0.660002 0.660002 0.660002
0.682569 0.682569 0.682569
0.705067 0.705067 0.705067
0.727497 0.727497 0.727497
0.749860 0.749860 0.749860
0.645616 0.645616 0.645616
0.668226 0.668226 0.668226
0.690767 0.690767 0.690767
0.713241 0.713241 0.713241
0.735646 0.735646 0.735646
0.757984 0.757984 0.757984
0.780254 0.780254 0.780254
0.802456 0.802456 0.802456
0.824590 0.824590 0.824590
0.721406 0.721406 0.721406
0.743787 0.743787 0.743787
0.766099 0.766099 0.766099
0.788344 0.788344 0.788344
0.810522 0.810522 0.810522
0.832631 0.832631 0.832631
0.854674 0.854674 0.854674
0.876649 0.876649 0.876649
0.898558 0.898558 0.898558
0.102308 0.102308 0.102308
0.126411 0.126411 0.126411
0.150457 0.150457 0.150457
0.174445 0.174445 0.174445
0.198374 0.198374 0.198374
0.222242 0.222242 0.222242
0.246050 0.246050 0.246050
0.269796 0.269796 0.269796
0.293479 0.293479 0.293479
0.183163 0.183163 0.183163
0.207070 0.207070 0.207070
0.230917 0.230917 0.230917
0.254702 0.254702 0.254702
0.278425 0.278425 0.278425
0.302086 0.302086 0.302086
0.325682 0.325682 0.325682
0.349215 0.349215 0.349215
0.372683 0.372683 0.372683
0.263346 0.263346 0.263346
0.287046 0.287046 0.287046
0.310684 0.310684 0.310684
0.334257 0.334257 0.334257
0.357767 0.357767 0.357767
0.381211 0.381211 0.381211
0.404590 0.404590 0.404590
0.427904 0.427904 0.427904
0.451152 0.451152 0.451152
0.342824 0.342824 0.342824
0.366309 0.366309 0.366309
0.389730 0.389730 0.389730
0.413086 0.413086 0.413086
0.436376 0.436376 0.436376
0.459599 0.459599 0.459599
0.482756 0.482756 0.482756
0.505847 0.505847 0.505847
0.528870 0.528870 0.528870
0.421572 0.421572 0.421572
0.444838 0.444838 0.444838
0.468038 0.468038 0.468038
0.491170 0.491170 0.491170
0.514236 0.514236 0.514236
0.537235 0.537235 0.537235
0.560167 0.560167 0.560167
0.583031 0.583031 0.583031
0.605827 0.605827 0.605827
0.499576 0.499576 0.499576
0.522617 0.522617 0.522617
0.545592 0.545592 0.545592
0.568499 0.568499 0.568499
0.591338 0.591338 0.591338
0.614110 0.614110 0.614110
0.636814 0.636814 0.636814
0.659450 0.659450 0.659450
0.682018 0.682018 0.682018
0.576822 0.576822 0.576822
0.599636 0.599636 0.599636
0.622383 0.622383 0.622383
0.645063 0.645063 0.645063
0.667674 0.667674 0.667674
0.690217 0.690217 0.690217
0.712692 0.712692 0.712692
0.735099 0.735099 0.735099
0.757438 0.757438 0.757438
0.653302 0.653302 0.653302
0.675889 0.675889 0.675889
0.698407 0.698407 0.698407
0.720858 0.720858 0.720858
0.743240 0.743240 0.743240
0.765555 0.765555 0.765555
0.787801 0.787801 0.787801
0.809980 0.809980 0.809980
0.832091 0.832091 0.832091
0.729014 0.729014 0.729014
0.751372 0.751372 0.751372
0.773662 0.773662 0.773662
0.795884 0.795884 0.795884
0.818038 0.818038 0.818038
0.840125 0.840125 0.840125
0.862144 0.862144 0.862144
0.884097 0.884097 0.884097
0.905983 0.905983 0.905983
0.110500 0.110500 0.110500
0.134583 0.134583 0.134583
0.158610 0.158610 0.158610
0.182578 0.182578 0.182578
0.206486 0.206486 0.206486
0.230334 0.230334 0.230334
0.254121 0.254121 0.254121
0.277846 0.277846 0.277846
0.301508 0.301508 0.301508
0.191289 0.191289 0.191289
0.215176 0.215176 0.215176
0.239001 0.239001 0.239001
0.262766 0.262766 0.262766
0.286467 0.286467 0.286467
0.310106 0.310106 0.310106
0.333681 0.333681 0.333681
0.357192 0.357192 0.357192
0.380638 0.380638 0.380638
0.271402 0.271402 0.271402
0.295081 0.295081 0.295081
0.318697 0.318697 0.318697
0.342248 0.342248 0.342248
0.365736 0.365736 0.365736
0.389158 0.389158 0.389158
0.412515 0.412515 0.412515
0.435807 0.435807 0.435807
0.459032 0.459032 0.459032
0.350807 0.350807 0.350807
0.374271 0.374271 0.374271
0.397669 0.397669 0.397669
0.421002 0.421002 0.421002
0.444270 0.444270 0.444270
0.467471 0.467471 0.467471
0.490605 0.490605 0.490605
0.513673 0.513673 0.513673
0.536674 0.536674 0.536674
0.429481 0.429481 0.429481
0.452724 0.452724 0.452724
0.475901 0.475901 0.475901
0.499011 0.499011 0.499011
0.522054 0.522054 0.522054
0.545031 0.545031 0.545031
0.567939 0.567939 0.567939
0.590780 0.590780 0.590780
0.613554 0.613554 0.613554
0.507408 0.507408 0.507408
0.530427 0.530427 0.530427
0.553379 0.553379 0.553379
0.576263 0.576263 0.576263
0.599079 0.599079 0.599079
0.621828 0.621828 0.621828
0.644509 0.644509 0.644509
0.667121 0.667121 0.667121
0.689666 0.689666 0.689666
0.584577 0.584577 0.584577
0.607369 0.607369 0.607369
0.630093 0.630093 0.630093
0.652749 0.652749 0.652749
0.675337 0.675337 0.675337
0.697857 0.697857 0.697857
0.720309 0.720309 0.720309
0.742693 0.742693 0.742693
0.765010 0.765010 0.765010
0.660980 0.660980 0.660980
0.683544 0.683544 0.683544
0.706039 0.706039 0.706039
0.728466 0.728466 0.728466
0.750826 0.750826 0.750826
0.773117 0.773117 0.773117
0.795341 0.795341 0.795341
0.817497 0.817497 0.817497
0.839585 0.839585 0.839585
0.736615 0.736615 0.736615
0.758949 0.758949 0.758949
0.781216 0.781216 0.781216
0.803415 0.803415 0.803415
0.825546 0.825546 0.825546
0.847610 0.847610 0.847610
0.869607 0.869607 0.869607
0.891537 0.891537 0.891537
0.913401 0.913401 0.913401
