source/experimental_legacy_banks/bank_a/looks/memory/look.CUBE
#Created by: Infinite Arch Leica Look Builder
#Unique Leica Look ID: 0
#Based Filmstyle Mode: Standard
TITLE "Memory"
LUT_3D_SIZE 5
DOMAIN_MIN 0.0 0.0 0.0
DOMAIN_MAX 1.0 1.0 1.0
0.044791 0.044791 0.044791
0.093201 0.093201 0.093201
0.141393 0.141393 0.141393
0.189354 0.189354 0.189354
0.237076 0.237076 0.237076
0.206756 0.206756 0.206756
0.254389 0.254389 0.254389
0.301774 0.301774 0.301774
0.348906 0.348906 0.348906
0.395779 0.395779 0.395779
0.366000 0.366000 0.366000
0.412779 0.412779 0.412779
0.459294 0.459294 0.459294
0.505543 0.505543 0.505543
0.551524 0.551524 0.551524
0.522314 0.522314 0.522314
0.568197 0.568197 0.568197
0.613810 0.613810 0.613810
0.659152 0.659152 0.659152
0.704222 0.704222 0.704222
0.675592 0.675592 0.675592
0.720562 0.720562 0.720562
0.765261 0.765261 0.765261
0.809688 0.809688 0.809688
0.853846 0.853846 0.853846
0.061255 0.061255 0.061255
0.109592 0.109592 0.109592
0.157707 0.157707 0.157707
0.205588 0.205588 0.205588
0.253227 0.253227 0.253227
0.222960 0.222960 0.222960
0.270510 0.270510 0.270510
0.317809 0.317809 0.317809
0.364853 0.364853 0.364853
0.411638 0.411638 0.411638
0.381916 0.381916 0.381916
0.428605 0.428605 0.428605
0.475030 0.475030 0.475030
0.521189 0.521189 0.521189
0.567078 0.567078 0.567078
0.537927 0.537927 0.537927
0.583718 0.583718 0.583718
0.629239 0.629239 0.629239
0.674488 0.674488 0.674488
0.719466 0.719466 0.719466
0.690894 0.690894 0.690894
0.735773 0.735773 0.735773
0.780379 0.780379 0.780379
0.824715 0.824715 0.824715
0.868781 0.868781 0.868781
0.077695 0.077695 0.077695
0.125958 0.125958 0.125958
0.173994 0.173994 0.173994
0.221794 0.221794 0.221794
0.269350 0.269350 0.269350
0.239136 0.239136 0.239136
0.286601 0.286601 0.286601
0.333814 0.333814 0.333814
0.380771 0.380771 0.380771
0.427466 0.427466 0.427466
0.397801 0.397801 0.397801
0.444401 0.444401 0.444401
0.490736 0.490736 0.490736
0.536803 0.536803 0.536803
0.582601 0.582601 0.582601
0.553508 0.553508 0.553508
0.599208 0.599208 0.599208
0.644636 0.644636 0.644636
0.689793 0.689793 0.689793
0.734678 0.734678 0.734678
0.706166 0.706166 0.706166
0.750952 0.750952 0.750952
0.795466 0.795466 0.795466
0.839710 0.839710 0.839710
0.883685 0.883685 0.883685
0.094110 0.094110 0.094110
0.142297 0.142297 0.142297
0.190254 0.190254 0.190254
0.237972 0.237972 0.237972
0.285443 0.285443 0.285443
0.255283 0.255283 0.255283
0.302663 0.302663 0.302663
0.349790 0.349790 0.349790
0.396658 0.396658 0.396658
0.443264 0.443264 0.443264
0.413656 0.413656 0.413656
0.460166 0.460166 0.460166
0.506411 0.506411 0.506411
0.552387 0.552387 0.552387
0.598093 0.598093 0.598093
0.569058 0.569058 0.569058
0.614666 0.614666 0.614666
0.660002 0.660002 0.660002
0.705067 0.705067 0.705067
0.749860 0.749860 0.749860
0.721406 0.721406 0.721406
0.766099 0.766099 0.766099
0.810522 0.810522 0.810522
0.854674 0.854674 0.854674
0.898558 0.898558 0.898558
0.110500 0.110500 0.110500
0.158610 0.158610 0.158610
0.206486 0.206486 0.206486
0.254121 0.254121 0.254121
0.301508 0.301508 0.301508
0.271402 0.271402 0.271402
0.318697 0.318697 0.318697
0.365736 0.365736 0.365736
0.412515 0.412515 0.412515
0.459032 0.459032 0.459032
0.429481 0.429481 0.429481
0.475901 0.475901 0.475901
0.522054 0.522054 0.522054
0.567939 0.567939 0.567939
0.613554 0.613554 0.613554
0.584577 0.584577 0.584577
0.630093 0.630093 0.630093
0.675337 0.675337 0.675337
0.720309 0.720309 0.720309
0.765010 0.765010 0.765010
0.736615 0.736615 0.736615
0.781216 0.781216 0.781216
0.825546 0.825546 0.825546
0.869607 0.869607 0.869607
0.913401 0.913401 0.913401
