source/experimental_legacy_banks/bank_a/looks/memory/look.CUBE
#Created by: Infinite Arch Leica Look Builder
#Unique Leica Look ID: 0
#Based Filmstyle Mode: Standard
TITLE "Memory"
LUT_3D_SIZE 17
DOMAIN_MIN 0.0 0.0 0.0
DOMAIN_MAX 1.0 1.0 1.0
0.044791 0.044791 0.044791
0.056914 0.056914 0.056914
0.069023 0.069023 0.069023
0.081119 0.081119 0.081119
0.093201 0.093201 0.093201
0.105270 0.105270 0.105270
0.117325 0.117325 0.117325
0.129366 0.129366 0.129366
0.141393 0.141393 0.141393
0.153405 0.153405 0.153405
0.165403 0.165403 0.165403
0.177386 0.177386 0.177386
0.189354 0.189354 0.189354
0.201307 0.201307 0.201307
0.213245 0.213245 0.213245
0.225168 0.225168 0.225168
0.237076 0.237076 0.237076
0.085519 0.085519 0.085519
0.097597 0.097597 0.097597
0.109660 0.109660 0.109660
0.121710 0.121710 0.121710
0.133746 0.133746 0.133746
0.145767 0.145767 0.145767
0.157774 0.157774 0.157774
0.169767 0.169767 0.169767
0.181745 0.181745 0.181745
0.193707 0.193707 0.193707
0.205655 0.205655 0.205655
0.217588 0.217588 0.217588
0.229505 0.229505 0.229505
0.241408 0.241408 0.241408
0.253294 0.253294 0.253294
0.265165 0.265165 0.265165
0.277021 0.277021 0.277021
0.126094 0.126094 0.126094
0.138124 0.138124 0.138124
0.150140 0.150140 0.150140
0.162142 0.162142 0.162142
0.174129 0.174129 0.174129
0.186102 0.186102 0.186102
0.198059 0.198059 0.198059
0.210001 0.210001 0.210001
0.221928 0.221928 0.221928
0.233840 0.233840 0.233840
0.245737 0.245737 0.245737
0.257618 0.257618 0.257618
0.269483 0.269483 0.269483
0.281333 0.281333 0.281333
0.293168 0.293168 0.293168
0.304986 0.304986 0.304986
0.316788 0.316788 0.316788
0.166508 0.166508 0.166508
0.178490 0.178490 0.178490
0.190457 0.190457 0.190457
0.202408 0.202408 0.202408
0.214345 0.214345 0.214345
0.226267 0.226267 0.226267
0.238173 0.238173 0.238173
0.250064 0.250064 0.250064
0.261940 0.261940 0.261940
0.273799 0.273799 0.273799
0.285644 0.285644 0.285644
0.297472 0.297472 0.297472
0.309285 0.309285 0.309285
0.321081 0.321081 0.321081
0.332862 0.332862 0.332862
0.344627 0.344627 0.344627
0.356375 0.356375 0.356375
0.206756 0.206756 0.206756
0.218687 0.218687 0.218687
0.230603 0.230603 0.230603
0.242504 0.242504 0.242504
0.254389 0.254389 0.254389
0.266259 0.266259 0.266259
0.278113 0.278113 0.278113
0.289952 0.289952 0.289952
0.301774 0.301774 0.301774
0.313581 0.313581 0.313581
0.325372 0.325372 0.325372
0.337147 0.337147 0.337147
0.348906 0.348906 0.348906
0.360648 0.360648 0.360648
0.372375 0.372375 0.372375
0.384085 0.384085 0.384085
0.395779 0.395779 0.395779
0.246833 0.246833 0.246833
0.258712 0.258712 0.258712
0.270577 0.270577 0.270577
0.282425 0.282425 0.282425
0.294258 0.294258 0.294258
0.306075 0.306075 0.306075
0.317876 0.317876 0.317876
0.329661 0.329661 0.329661
0.341430 0.341430 0.341430
0.353183 0.353183 0.353183
0.364919 0.364919 0.364919
0.376640 0.376640 0.376640
0.388344 0.388344 0.388344
0.400032 0.400032 0.400032
0.411703 0.411703 0.411703
0.423358 0.423358 0.423358
0.434997 0.434997 0.434997
0.286735 0.286735 0.286735
0.298562 0.298562 0.298562
0.310373 0.310373 0.310373
0.322168 0.322168 0.322168
0.333947 0.333947 0.333947
0.345710 0.345710 0.345710
0.357457 0.357457 0.357457
0.369188 0.369188 0.369188
0.380903 0.380903 0.380903
0.392601 0.392601 0.392601
0.404283 0.404283 0.404283
0.415949 0.415949 0.415949
0.427598 0.427598 0.427598
0.439230 0.439230 0.439230
0.450846 0.450846 0.450846
0.462446 0.462446 0.462446
0.474028 0.474028 0.474028
0.326458 0.326458 0.326458
0.338232 0.338232 0.338232
0.349989 0.349989 0.349989
0.361730 0.361730 0.361730
0.373455 0.373455 0.373455
0.385164 0.385164 0.385164
0.396856 0.396856 0.396856
0.408532 0.408532 0.408532
0.420191 0.420191 0.420191
0.431834 0.431834 0.431834
0.443461 0.443461 0.443461
0.455071 0.455071 0.455071
0.466664 0.466664 0.466664
0.478241 0.478241 0.478241
0.489801 0.489801 0.489801
0.501345 0.501345 0.501345
0.512871 0.512871 0.512871
0.366000 0.366000 0.366000
0.377720 0.377720 0.377720
0.389422 0.389422 0.389422
0.401109 0.401109 0.401109
0.412779 0.412779 0.412779
0.424432 0.424432 0.424432
0.436069 0.436069 0.436069
0.447690 0.447690 0.447690
0.459294 0.459294 0.459294
0.470881 0.470881 0.470881
0.482452 0.482452 0.482452
0.494006 0.494006 0.494006
0.505543 0.505543 0.505543
0.517063 0.517063 0.517063
0.528567 0.528567 0.528567
0.540054 0.540054 0.540054
0.551524 0.551524 0.551524
0.405359 0.405359 0.405359
0.417023 0.417023 0.417023
0.428671 0.428671 0.428671
0.440302 0.440302 0.440302
0.451916 0.451916 0.451916
0.463514 0.463514 0.463514
0.475095 0.475095 0.475095
0.486660 0.486660 0.486660
0.498208 0.498208 0.498208
0.509739 0.509739 0.509739
0.521254 0.521254 0.521254
0.532751 0.532751 0.532751
0.544232 0.544232 0.544232
0.555696 0.555696 0.555696
0.567143 0.567143 0.567143
0.578573 0.578573 0.578573
0.589986 0.589986 0.589986
0.444532 0.444532 0.444532
0.456141 0.456141 0.456141
0.467732 0.467732 0.467732
0.479308 0.479308 0.479308
0.490866 0.490866 0.490866
0.502408 0.502408 0.502408
0.513933 0.513933 0.513933
0.525441 0.525441 0.525441
0.536933 0.536933 0.536933
0.548407 0.548407 0.548407
0.559865 0.559865 0.559865
0.571306 0.571306 0.571306
0.582730 0.582730 0.582730
0.594137 0.594137 0.594137
0.605528 0.605528 0.605528
0.616901 0.616901 0.616901
0.628257 0.628257 0.628257
0.483518 0.483518 0.483518
0.495070 0.495070 0.495070
0.506606 0.506606 0.506606
0.518125 0.518125 0.518125
0.529627 0.529627 0.529627
0.541112 0.541112 0.541112
0.552581 0.552581 0.552581
0.564032 0.564032 0.564032
0.575467 0.575467 0.575467
0.586885 0.586885 0.586885
0.598286 0.598286 0.598286
0.609670 0.609670 0.609670
0.621037 0.621037 0.621037
0.632387 0.632387 0.632387
0.643720 0.643720 0.643720
0.655036 0.655036 0.655036
0.666336 0.666336 0.666336
0.522314 0.522314 0.522314
0.533810 0.533810 0.533810
0.545289 0.545289 0.545289
0.556752 0.556752 0.556752
0.568197 0.568197 0.568197
0.579626 0.579626 0.579626
0.591038 0.591038 0.591038
0.602433 0.602433 0.602433
0.613810 0.613810 0.613810
0.625171 0.625171 0.625171
0.636515 0.636515 0.636515
0.647842 0.647842 0.647842
0.659152 0.659152 0.659152
0.670445 0.670445 0.670445
0.681721 0.681721 0.681721
0.692980 0.692980 0.692980
0.704222 0.704222 0.704222
0.560921 0.560921 0.560921
0.572360 0.572360 0.572360
0.583783 0.583783 0.583783
0.595188 0.595188 0.595188
0.606577 0.606577 0.606577
0.617948 0.617948 0.617948
0.629303 0.629303 0.629303
0.640641 0.640641 0.640641
0.651962 0.651962 0.651962
0.663265 0.663265 0.663265
0.674552 0.674552 0.674552
0.685822 0.685822 0.685822
0.697075 0.697075 0.697075
0.708310 0.708310 0.708310
0.719529 0.719529 0.719529
0.730731 0.730731 0.730731
0.741915 0.741915 0.741915
0.599336 0.599336 0.599336
0.610719 0.610719 0.610719
0.622084 0.622084 0.622084
0.633433 0.633433 0.633433
0.644764 0.644764 0.644764
0.656079 0.656079 0.656079
0.667376 0.667376 0.667376
0.678657 0.678657 0.678657
0.689920 0.689920 0.689920
0.701167 0.701167 0.701167
0.712397 0.712397 0.712397
0.723609 0.723609 0.723609
0.734805 0.734805 0.734805
0.745983 0.745983 0.745983
0.757145 0.757145 0.757145
0.768289 0.768289 0.768289
0.779417 0.779417 0.779417
0.637560 0.637560 0.637560
0.648885 0.648885 0.648885
0.660194 0.660194 0.660194
0.671485 0.671485 0.671485
0.682760 0.682760 0.682760
0.694017 0.694017 0.694017
0.705257 0.705257 0.705257
0.716481 0.716481 0.716481
0.727687 0.727687 0.727687
0.738876 0.738876 0.738876
0.750049 0.750049 0.750049
0.761204 0.761204 0.761204
0.772342 0.772342 0.772342
0.783464 0.783464 0.783464
0.794568 0.794568 0.794568
0.805656 0.805656 0.805656
0.816727 0.816727 0.816727
0.675592 0.675592 0.675592
0.686860 0.686860 0.686860
0.698111 0.698111 0.698111
0.709345 0.709345 0.709345
0.720562 0.720562 0.720562
0.731763 0.731763 0.731763
0.742946 0.742946 0.742946
0.754112 0.754112 0.754112
0.765261 0.765261 0.765261
0.776393 0.776393 0.776393
0.787509 0.787509 0.787509
0.798607 0.798607 0.798607
0.809688 0.809688 0.809688
0.820753 0.820753 0.820753
0.831801 0.831801 0.831801
0.842832 0.842832 0.842832
0.853846 0.853846 0.853846
0.048910 0.048910 0.048910
0.061027 0.061027 0.061027
0.073132 0.073132 0.073132
0.085223 0.085223 0.085223
0.097301 0.097301 0.097301
0.109366 0.109366 0.109366
0.121416 0.121416 0.121416
0.133452 0.133452 0.133452
0.145474 0.145474 0.145474
0.157481 0.157481 0.157481
0.169474 0.169474 0.169474
0.181452 0.181452 0.181452
0.193415 0.193415 0.193415
0.205363 0.205363 0.205363
0.217296 0.217296 0.217296
0.229214 0.229214 0.229214
0.241117 0.241117 0.241117
0.089622 0.089622 0.089622
0.101695 0.101695 0.101695
0.113754 0.113754 0.113754
0.125799 0.125799 0.125799
0.137830 0.137830 0.137830
0.149847 0.149847 0.149847
0.161849 0.161849 0.161849
0.173836 0.173836 0.173836
0.185809 0.185809 0.185809
0.197767 0.197767 0.197767
0.209709 0.209709 0.209709
0.221637 0.221637 0.221637
0.233549 0.233549 0.233549
0.245446 0.245446 0.245446
0.257328 0.257328 0.257328
0.269193 0.269193 0.269193
0.281044 0.281044 0.281044
0.130181 0.130181 0.130181
0.142207 0.142207 0.142207
0.154218 0.154218 0.154218
0.166215 0.166215 0.166215
0.178197 0.178197 0.178197
0.190164 0.190164 0.190164
0.202116 0.202116 0.202116
0.214053 0.214053 0.214053
0.225975 0.225975 0.225975
0.237882 0.237882 0.237882
0.249773 0.249773 0.249773
0.261649 0.261649 0.261649
0.273509 0.273509 0.273509
0.285354 0.285354 0.285354
0.297183 0.297183 0.297183
0.308996 0.308996 0.308996
0.320793 0.320793 0.320793
0.170579 0.170579 0.170579
0.182555 0.182555 0.182555
0.194517 0.194517 0.194517
0.206464 0.206464 0.206464
0.218396 0.218396 0.218396
0.230312 0.230312 0.230312
0.242213 0.242213 0.242213
0.254099 0.254099 0.254099
0.265969 0.265969 0.265969
0.277823 0.277823 0.277823
0.289662 0.289662 0.289662
0.301485 0.301485 0.301485
0.313293 0.313293 0.313293
0.325084 0.325084 0.325084
0.336859 0.336859 0.336859
0.348618 0.348618 0.348618
0.360361 0.360361 0.360361
0.210810 0.210810 0.210810
0.222736 0.222736 0.222736
0.234647 0.234647 0.234647
0.246542 0.246542 0.246542
0.258422 0.258422 0.258422
0.270287 0.270287 0.270287
0.282135 0.282135 0.282135
0.293968 0.293968 0.293968
0.305786 0.305786 0.305786
0.317587 0.317587 0.317587
0.329373 0.329373 0.329373
0.341142 0.341142 0.341142
0.352895 0.352895 0.352895
0.364632 0.364632 0.364632
0.376353 0.376353 0.376353
0.388058 0.388058 0.388058
0.399746 0.399746 0.399746
0.250869 0.250869 0.250869
0.262743 0.262743 0.262743
0.274602 0.274602 0.274602
0.286445 0.286445 0.286445
0.298273 0.298273 0.298273
0.310084 0.310084 0.310084
0.321880 0.321880 0.321880
0.333659 0.333659 0.333659
0.345423 0.345423 0.345423
0.357170 0.357170 0.357170
0.368901 0.368901 0.368901
0.380616 0.380616 0.380616
0.392315 0.392315 0.392315
0.403997 0.403997 0.403997
0.415663 0.415663 0.415663
0.427313 0.427313 0.427313
0.438946 0.438946 0.438946
0.290753 0.290753 0.290753
0.302575 0.302575 0.302575
0.314380 0.314380 0.314380
0.326170 0.326170 0.326170
0.337944 0.337944 0.337944
0.349701 0.349701 0.349701
0.361443 0.361443 0.361443
0.373168 0.373168 0.373168
0.384877 0.384877 0.384877
0.396570 0.396570 0.396570
0.408246 0.408246 0.408246
0.419906 0.419906 0.419906
0.431550 0.431550 0.431550
0.443177 0.443177 0.443177
0.454787 0.454787 0.454787
0.466381 0.466381 0.466381
0.477958 0.477958 0.477958
0.330458 0.330458 0.330458
0.342226 0.342226 0.342226
0.353978 0.353978 0.353978
0.365714 0.365714 0.365714
0.377433 0.377433 0.377433
0.389136 0.389136 0.389136
0.400823 0.400823 0.400823
0.412493 0.412493 0.412493
0.424147 0.424147 0.424147
0.435785 0.435785 0.435785
0.447406 0.447406 0.447406
0.459010 0.459010 0.459010
0.470598 0.470598 0.470598
0.482169 0.482169 0.482169
0.493723 0.493723 0.493723
0.505261 0.505261 0.505261
0.516782 0.516782 0.516782
0.369982 0.369982 0.369982
0.381696 0.381696 0.381696
0.393393 0.393393 0.393393
0.405074 0.405074 0.405074
0.416738 0.416738 0.416738
0.428386 0.428386 0.428386
0.440017 0.440017 0.440017
0.451632 0.451632 0.451632
0.463231 0.463231 0.463231
0.474812 0.474812 0.474812
0.486377 0.486377 0.486377
0.497926 0.497926 0.497926
0.509457 0.509457 0.509457
0.520972 0.520972 0.520972
0.532470 0.532470 0.532470
0.543951 0.543951 0.543951
0.555416 0.555416 0.555416
0.409322 0.409322 0.409322
0.420981 0.420981 0.420981
0.432623 0.432623 0.432623
0.444248 0.444248 0.444248
0.455857 0.455857 0.455857
0.467449 0.467449 0.467449
0.479025 0.479025 0.479025
0.490584 0.490584 0.490584
0.502126 0.502126 0.502126
0.513651 0.513651 0.513651
0.525160 0.525160 0.525160
0.536652 0.536652 0.536652
0.548127 0.548127 0.548127
0.559585 0.559585 0.559585
0.571027 0.571027 0.571027
0.582451 0.582451 0.582451
0.593859 0.593859 0.593859
0.448476 0.448476 0.448476
0.460079 0.460079 0.460079
0.471665 0.471665 0.471665
0.483235 0.483235 0.483235
0.494788 0.494788 0.494788
0.506324 0.506324 0.506324
0.517843 0.517843 0.517843
0.529346 0.529346 0.529346
0.540832 0.540832 0.540832
0.552300 0.552300 0.552300
0.563753 0.563753 0.563753
0.575188 0.575188 0.575188
0.586606 0.586606 0.586606
0.598007 0.598007 0.598007
0.609392 0.609392 0.609392
0.620759 0.620759 0.620759
0.632110 0.632110 0.632110
0.487443 0.487443 0.487443
0.498989 0.498989 0.498989
0.510520 0.510520 0.510520
0.522033 0.522033 0.522033
0.533529 0.533529 0.533529
0.545009 0.545009 0.545009
0.556472 0.556472 0.556472
0.567918 0.567918 0.567918
0.579347 0.579347 0.579347
0.590759 0.590759 0.590759
0.602154 0.602154 0.602154
0.613532 0.613532 0.613532
0.624894 0.624894 0.624894
0.636238 0.636238 0.636238
0.647565 0.647565 0.647565
0.658876 0.658876 0.658876
0.670169 0.670169 0.670169
0.526220 0.526220 0.526220
0.537711 0.537711 0.537711
0.549184 0.549184 0.549184
0.560641 0.560641 0.560641
0.572081 0.572081 0.572081
0.583503 0.583503 0.583503
0.594909 0.594909 0.594909
0.606298 0.606298 0.606298
0.617670 0.617670 0.617670
0.629026 0.629026 0.629026
0.640364 0.640364 0.640364
0.651685 0.651685 0.651685
0.662989 0.662989 0.662989
0.674276 0.674276 0.674276
0.685546 0.685546 0.685546
0.696799 0.696799 0.696799
0.708036 0.708036 0.708036
0.564807 0.564807 0.564807
0.576241 0.576241 0.576241
0.587658 0.587658 0.587658
0.599058 0.599058 0.599058
0.610441 0.610441 0.610441
0.621806 0.621806 0.621806
0.633155 0.633155 0.633155
0.644487 0.644487 0.644487
0.655802 0.655802 0.655802
0.667100 0.667100 0.667100
0.678381 0.678381 0.678381
0.689645 0.689645 0.689645
0.700892 0.700892 0.700892
0.712122 0.712122 0.712122
0.723335 0.723335 0.723335
0.734531 0.734531 0.734531
0.745710 0.745710 0.745710
0.603204 0.603204 0.603204
0.614580 0.614580 0.614580
0.625940 0.625940 0.625940
0.637283 0.637283 0.637283
0.648609 0.648609 0.648609
0.659917 0.659917 0.659917
0.671209 0.671209 0.671209
0.682484 0.682484 0.682484
0.693742 0.693742 0.693742
0.704983 0.704983 0.704983
0.716206 0.716206 0.716206
0.727413 0.727413 0.727413
0.738603 0.738603 0.738603
0.749776 0.749776 0.749776
0.760931 0.760931 0.760931
0.772070 0.772070 0.772070
0.783192 0.783192 0.783192
0.641408 0.641408 0.641408
0.652728 0.652728 0.652728
0.664030 0.664030 0.664030
0.675316 0.675316 0.675316
0.686584 0.686584 0.686584
0.697836 0.697836 0.697836
0.709071 0.709071 0.709071
0.720288 0.720288 0.720288
0.731489 0.731489 0.731489
0.742672 0.742672 0.742672
0.753839 0.753839 0.753839
0.764989 0.764989 0.764989
0.776121 0.776121 0.776121
0.787237 0.787237 0.787237
0.798336 0.798336 0.798336
0.809418 0.809418 0.809418
0.820483 0.820483 0.820483
0.679420 0.679420 0.679420
0.690683 0.690683 0.690683
0.701928 0.701928 0.701928
0.713157 0.713157 0.713157
0.724368 0.724368 0.724368
0.735562 0.735562 0.735562
0.746740 0.746740 0.746740
0.757900 0.757900 0.757900
0.769044 0.769044 0.769044
0.780170 0.780170 0.780170
0.791280 0.791280 0.791280
0.802372 0.802372 0.802372
0.813448 0.813448 0.813448
0.824507 0.824507 0.824507
0.835549 0.835549 0.835549
0.846574 0.846574 0.846574
0.857582 0.857582 0.857582
0.053026 0.053026 0.053026
0.065140 0.065140 0.065140
0.077240 0.077240 0.077240
0.089327 0.089327 0.089327
0.101400 0.101400 0.101400
0.113459 0.113459 0.113459
0.125505 0.125505 0.125505
0.137536 0.137536 0.137536
0.149553 0.149553 0.149553
0.161555 0.161555 0.161555
0.173543 0.173543 0.173543
0.185516 0.185516 0.185516
0.197474 0.197474 0.197474
0.209417 0.209417 0.209417
0.221345 0.221345 0.221345
0.233258 0.233258 0.233258
0.245155 0.245155 0.245155
0.093724 0.093724 0.093724
0.105792 0.105792 0.105792
0.117846 0.117846 0.117846
0.129887 0.129887 0.129887
0.141913 0.141913 0.141913
0.153924 0.153924 0.153924
0.165921 0.165921 0.165921
0.177904 0.177904 0.177904
0.189871 0.189871 0.189871
0.201824 0.201824 0.201824
0.213762 0.213762 0.213762
0.225684 0.225684 0.225684
0.237591 0.237591 0.237591
0.249483 0.249483 0.249483
0.261359 0.261359 0.261359
0.273220 0.273220 0.273220
0.285065 0.285065 0.285065
0.134267 0.134267 0.134267
0.146287 0.146287 0.146287
0.158294 0.158294 0.158294
0.170286 0.170286 0.170286
0.182263 0.182263 0.182263
0.194225 0.194225 0.194225
0.206172 0.206172 0.206172
0.218104 0.218104 0.218104
0.230021 0.230021 0.230021
0.241922 0.241922 0.241922
0.253808 0.253808 0.253808
0.265679 0.265679 0.265679
0.277534 0.277534 0.277534
0.289373 0.289373 0.289373
0.301196 0.301196 0.301196
0.313004 0.313004 0.313004
0.324796 0.324796 0.324796
0.174648 0.174648 0.174648
0.186619 0.186619 0.186619
0.198576 0.198576 0.198576
0.210518 0.210518 0.210518
0.222444 0.222444 0.222444
0.234355 0.234355 0.234355
0.246251 0.246251 0.246251
0.258132 0.258132 0.258132
0.269997 0.269997 0.269997
0.281846 0.281846 0.281846
0.293679 0.293679 0.293679
0.305497 0.305497 0.305497
0.317299 0.317299 0.317299
0.329085 0.329085 0.329085
0.340854 0.340854 0.340854
0.352608 0.352608 0.352608
0.364346 0.364346 0.364346
0.214861 0.214861 0.214861
0.226782 0.226782 0.226782
0.238688 0.238688 0.238688
0.250578 0.250578 0.250578
0.262453 0.262453 0.262453
0.274312 0.274312 0.274312
0.286156 0.286156 0.286156
0.297983 0.297983 0.297983
0.309795 0.309795 0.309795
0.321591 0.321591 0.321591
0.333371 0.333371 0.333371
0.345135 0.345135 0.345135
0.356883 0.356883 0.356883
0.368615 0.368615 0.368615
0.380330 0.380330 0.380330
0.392029 0.392029 0.392029
0.403712 0.403712 0.403712
0.254903 0.254903 0.254903
0.266772 0.266772 0.266772
0.278626 0.278626 0.278626
0.290464 0.290464 0.290464
0.302286 0.302286 0.302286
0.314092 0.314092 0.314092
0.325882 0.325882 0.325882
0.337656 0.337656 0.337656
0.349414 0.349414 0.349414
0.361156 0.361156 0.361156
0.372882 0.372882 0.372882
0.384591 0.384591 0.384591
0.396284 0.396284 0.396284
0.407961 0.407961 0.407961
0.419621 0.419621 0.419621
0.431265 0.431265 0.431265
0.442893 0.442893 0.442893
0.294769 0.294769 0.294769
0.306586 0.306586 0.306586
0.318386 0.318386 0.318386
0.330170 0.330170 0.330170
0.341939 0.341939 0.341939
0.353691 0.353691 0.353691
0.365427 0.365427 0.365427
0.377147 0.377147 0.377147
0.388850 0.388850 0.388850
0.400537 0.400537 0.400537
0.412208 0.412208 0.412208
0.423862 0.423862 0.423862
0.435500 0.435500 0.435500
0.447122 0.447122 0.447122
0.458726 0.458726 0.458726
0.470315 0.470315 0.470315
0.481886 0.481886 0.481886
0.334457 0.334457 0.334457
0.346219 0.346219 0.346219
0.357965 0.357965 0.357965
0.369695 0.369695 0.369695
0.381409 0.381409 0.381409
0.393107 0.393107 0.393107
0.404788 0.404788 0.404788
0.416453 0.416453 0.416453
0.428101 0.428101 0.428101
0.439733 0.439733 0.439733
0.451348 0.451348 0.451348
0.462947 0.462947 0.462947
0.474529 0.474529 0.474529
0.486095 0.486095 0.486095
0.497643 0.497643 0.497643
0.509175 0.509175 0.509175
0.520691 0.520691 0.520691
0.373962 0.373962 0.373962
0.385670 0.385670 0.385670
0.397362 0.397362 0.397362
0.409037 0.409037 0.409037
0.420696 0.420696 0.420696
0.432338 0.432338 0.432338
0.443964 0.443964 0.443964
0.455573 0.455573 0.455573
0.467166 0.467166 0.467166
0.478742 0.478742 0.478742
0.490301 0.490301 0.490301
0.501844 0.501844 0.501844
0.513370 0.513370 0.513370
0.524879 0.524879 0.524879
0.536371 0.536371 0.536371
0.547847 0.547847 0.547847
0.559305 0.559305 0.559305
0.413283 0.413283 0.413283
0.424936 0.424936 0.424936
0.436572 0.436572 0.436572
0.448192 0.448192 0.448192
0.459795 0.459795 0.459795
0.471382 0.471382 0.471382
0.482952 0.482952 0.482952
0.494505 0.494505 0.494505
0.506042 0.506042 0.506042
0.517562 0.517562 0.517562
0.529065 0.529065 0.529065
0.540551 0.540551 0.540551
0.552020 0.552020 0.552020
0.563473 0.563473 0.563473
0.574908 0.574908 0.574908
0.586327 0.586327 0.586327
0.597729 0.597729 0.597729
0.452418 0.452418 0.452418
0.464016 0.464016 0.464016
0.475596 0.475596 0.475596
0.487160 0.487160 0.487160
0.498707 0.498707 0.498707
0.510238 0.510238 0.510238
0.521751 0.521751 0.521751
0.533248 0.533248 0.533248
0.544728 0.544728 0.544728
0.556192 0.556192 0.556192
0.567638 0.567638 0.567638
0.579067 0.579067 0.579067
0.590480 0.590480 0.590480
0.601875 0.601875 0.601875
0.613254 0.613254 0.613254
0.624616 0.624616 0.624616
0.635961 0.635961 0.635961
0.491366 0.491366 0.491366
0.502907 0.502907 0.502907
0.514431 0.514431 0.514431
0.525939 0.525939 0.525939
0.537430 0.537430 0.537430
0.548904 0.548904 0.548904
0.560361 0.560361 0.560361
0.571801 0.571801 0.571801
0.583224 0.583224 0.583224
0.594631 0.594631 0.594631
0.606020 0.606020 0.606020
0.617393 0.617393 0.617393
0.628748 0.628748 0.628748
0.640087 0.640087 0.640087
0.651408 0.651408 0.651408
0.662713 0.662713 0.662713
0.674000 0.674000 0.674000
0.530124 0.530124 0.530124
0.541609 0.541609 0.541609
0.553077 0.553077 0.553077
0.564528 0.564528 0.564528
0.575962 0.575962 0.575962
0.587379 0.587379 0.587379
0.598779 0.598779 0.598779
0.610162 0.610162 0.610162
0.621529 0.621529 0.621529
0.632878 0.632878 0.632878
0.644210 0.644210 0.644210
0.655526 0.655526 0.655526
0.666824 0.666824 0.666824
0.678105 0.678105 0.678105
0.689370 0.689370 0.689370
0.700617 0.700617 0.700617
0.711848 0.711848 0.711848
0.568692 0.568692 0.568692
0.580120 0.580120 0.580120
0.591531 0.591531 0.591531
0.602925 0.602925 0.602925
0.614302 0.614302 0.614302
0.625662 0.625662 0.625662
0.637006 0.637006 0.637006
0.648332 0.648332 0.648332
0.659641 0.659641 0.659641
0.670933 0.670933 0.670933
0.682208 0.682208 0.682208
0.693467 0.693467 0.693467
0.704708 0.704708 0.704708
0.715932 0.715932 0.715932
0.727139 0.727139 0.727139
0.738329 0.738329 0.738329
0.749503 0.749503 0.749503
0.607069 0.607069 0.607069
0.618440 0.618440 0.618440
0.629794 0.629794 0.629794
0.641131 0.641131 0.641131
0.652451 0.652451 0.652451
0.663754 0.663754 0.663754
0.675040 0.675040 0.675040
0.686309 0.686309 0.686309
0.697561 0.697561 0.697561
0.708796 0.708796 0.708796
0.720014 0.720014 0.720014
0.731215 0.731215 0.731215
0.742399 0.742399 0.742399
0.753566 0.753566 0.753566
0.764716 0.764716 0.764716
0.775849 0.775849 0.775849
0.786965 0.786965 0.786965
0.645254 0.645254 0.645254
0.656568 0.656568 0.656568
0.667865 0.667865 0.667865
0.679145 0.679145 0.679145
0.690407 0.690407 0.690407
0.701653 0.701653 0.701653
0.712882 0.712882 0.712882
0.724094 0.724094 0.724094
0.735289 0.735289 0.735289
0.746467 0.746467 0.746467
0.757627 0.757627 0.757627
0.768771 0.768771 0.768771
0.779898 0.779898 0.779898
0.791008 0.791008 0.791008
0.802101 0.802101 0.802101
0.813177 0.813177 0.813177
0.824236 0.824236 0.824236
0.683247 0.683247 0.683247
0.694504 0.694504 0.694504
0.705743 0.705743 0.705743
0.716966 0.716966 0.716966
0.728171 0.728171 0.728171
0.739360 0.739360 0.739360
0.750532 0.750532 0.750532
0.761686 0.761686 0.761686
0.772824 0.772824 0.772824
0.783945 0.783945 0.783945
0.795049 0.795049 0.795049
0.806135 0.806135 0.806135
0.817205 0.817205 0.817205
0.828259 0.828259 0.828259
0.839295 0.839295 0.839295
0.850314 0.850314 0.850314
0.861317 0.861317 0.861317
0.057141 0.057141 0.057141
0.069250 0.069250 0.069250
0.081346 0.081346 0.081346
0.093428 0.093428 0.093428
0.105497 0.105497 0.105497
0.117552 0.117552 0.117552
0.129592 0.129592 0.129592
0.141619 0.141619 0.141619
0.153631 0.153631 0.153631
0.165628 0.165628 0.165628
0.177611 0.177611 0.177611
0.189579 0.189579 0.189579
0.201532 0.201532 0.201532
0.213470 0.213470 0.213470
0.225393 0.225393 0.225393
