source/experimental_legacy_banks/bank_a/looks/witness/look.CUBE
#Created by: Infinite Arch Leica Look Builder
#Unique Leica Look ID: 0
#Based Filmstyle Mode: Standard
TITLE "Witness"
LUT_3D_SIZE 9
DOMAIN_MIN 0.0 0.0 0.0
DOMAIN_MAX 1.0 1.0 1.0
0.000000 0.000000 0.000000
0.000000 0.000000 0.000000
0.009231 0.009231 0.009231
0.038097 0.038097 0.038097
0.067053 0.067053 0.067053
0.096103 0.096103 0.096103
0.125249 0.125249 0.125249
0.154492 0.154492 0.154492
0.183833 0.183833 0.183833
0.048629 0.048629 0.048629
0.077618 0.077618 0.077618
0.106703 0.106703 0.106703
0.135884 0.135884 0.135884
0.165162 0.165162 0.165162
0.194539 0.194539 0.194539
0.224014 0.224014 0.224014
0.253587 0.253587 0.253587
0.283260 0.283260 0.283260
0.146532 0.146532 0.146532
0.175846 0.175846 0.175846
0.205258 0.205258 0.205258
0.234769 0.234769 0.234769
0.264378 0.264378 0.264378
0.294087 0.294087 0.294087
0.323895 0.323895 0.323895
0.353801 0.353801 0.353801
0.383806 0.383806 0.383806
0.245537 0.245537 0.245537
0.275183 0.275183 0.275183
0.304927 0.304927 0.304927
0.334771 0.334771 0.334771
0.364713 0.364713 0.364713
0.394755 0.394755 0.394755
0.424894 0.424894 0.424894
0.455131 0.455131 0.455131
0.485466 0.485466 0.485466
0.345661 0.345661 0.345661
0.375639 0.375639 0.375639
0.405716 0.405716 0.405716
0.435891 0.435891 0.435891
0.466164 0.466164 0.466164
0.496534 0.496534 0.496534
0.527001 0.527001 0.527001
0.557564 0.557564 0.557564
0.588222 0.588222 0.588222
0.446901 0.446901 0.446901
0.477209 0.477209 0.477209
0.507615 0.507615 0.507615
0.538117 0.538117 0.538117
0.568715 0.568715 0.568715
0.599407 0.599407 0.599407
0.630194 0.630194 0.630194
0.661073 0.661073 0.661073
0.692045 0.692045 0.692045
0.549245 0.549245 0.549245
0.579878 0.579878 0.579878
0.610605 0.610605 0.610605
0.641425 0.641425 0.641425
0.672338 0.672338 0.672338
0.703343 0.703343 0.703343
0.734437 0.734437 0.734437
0.765620 0.765620 0.765620
0.796890 0.796890 0.796890
0.652669 0.652669 0.652669
0.683616 0.683616 0.683616
0.714653 0.714653 0.714653
0.745780 0.745780 0.745780
0.776995 0.776995 0.776995
0.808295 0.808295 0.808295
0.839680 0.839680 0.839680
0.871146 0.871146 0.871146
0.902691 0.902691 0.902691
0.757134 0.757134 0.757134
0.788380 0.788380 0.788380
0.819712 0.819712 0.819712
0.851126 0.851126 0.851126
0.882621 0.882621 0.882621
0.914194 0.914194 0.914194
0.945840 0.945840 0.945840
0.977555 0.977555 0.977555
1.000000 1.000000 1.000000
0.000000 0.000000 0.000000
0.000000 0.000000 0.000000
0.019025 0.019025 0.019025
0.047921 0.047921 0.047921
0.076908 0.076908 0.076908
0.105991 0.105991 0.105991
0.135169 0.135169 0.135169
0.164445 0.164445 0.164445
0.193819 0.193819 0.193819
0.058463 0.058463 0.058463
0.087485 0.087485 0.087485
0.116602 0.116602 0.116602
0.145816 0.145816 0.145816
0.175128 0.175128 0.175128
0.204538 0.204538 0.204538
0.234046 0.234046 0.234046
0.263653 0.263653 0.263653
0.293359 0.293359 0.293359
0.156476 0.156476 0.156476
0.185823 0.185823 0.185823
0.215269 0.215269 0.215269
0.244813 0.244813 0.244813
0.274457 0.274457 0.274457
0.304199 0.304199 0.304199
0.334040 0.334040 0.334040
0.363980 0.363980 0.363980
0.394019 0.394019 0.394019
0.255594 0.255594 0.255594
0.285273 0.285273 0.285273
0.315051 0.315051 0.315051
0.344929 0.344929 0.344929
0.374905 0.374905 0.374905
0.404979 0.404979 0.404979
0.435152 0.435152 0.435152
0.465422 0.465422 0.465422
0.495790 0.495790 0.495790
0.355830 0.355830 0.355830
0.385842 0.385842 0.385842
0.415952 0.415952 0.415952
0.446161 0.446161 0.446161
0.476467 0.476467 0.476467
0.506870 0.506870 0.506870
0.537370 0.537370 0.537370
0.567965 0.567965 0.567965
0.598655 0.598655 0.598655
0.457183 0.457183 0.457183
0.487524 0.487524 0.487524
0.517963 0.517963 0.517963
0.548497 0.548497 0.548497
0.579127 0.579127 0.579127
0.609852 0.609852 0.609852
0.640670 0.640670 0.640670
0.671581 0.671581 0.671581
0.702584 0.702584 0.702584
0.559638 0.559638 0.559638
0.590302 0.590302 0.590302
0.621061 0.621061 0.621061
0.651913 0.651913 0.651913
0.682858 0.682858 0.682858
0.713893 0.713893 0.713893
0.745018 0.745018 0.745018
0.776230 0.776230 0.776230
0.807529 0.807529 0.807529
0.663168 0.663168 0.663168
0.694146 0.694146 0.694146
0.725214 0.725214 0.725214
0.756371 0.756371 0.756371
0.787615 0.787615 0.787615
0.818944 0.818944 0.818944
0.850357 0.850357 0.850357
0.881850 0.881850 0.881850
0.913421 0.913421 0.913421
0.767736 0.767736 0.767736
0.799011 0.799011 0.799011
0.830371 0.830371 0.830371
0.861813 0.861813 0.861813
0.893335 0.893335 0.893335
0.924933 0.924933 0.924933
0.956603 0.956603 0.956603
0.988340 0.988340 0.988340
1.000000 1.000000 1.000000
0.000000 0.000000 0.000000
0.000000 0.000000 0.000000
0.028828 0.028828 0.028828
0.057754 0.057754 0.057754
0.086774 0.086774 0.086774
0.115889 0.115889 0.115889
0.145100 0.145100 0.145100
0.174410 0.174410 0.174410
0.203817 0.203817 0.203817
0.068308 0.068308 0.068308
0.097363 0.097363 0.097363
0.126513 0.126513 0.126513
0.155760 0.155760 0.155760
0.185104 0.185104 0.185104
0.214548 0.214548 0.214548
0.244090 0.244090 0.244090
0.273730 0.273730 0.273730
0.303470 0.303470 0.303470
0.166432 0.166432 0.166432
0.195812 0.195812 0.195812
0.225291 0.225291 0.225291
0.254869 0.254869 0.254869
0.284546 0.284546 0.284546
0.314322 0.314322 0.314322
0.344197 0.344197 0.344197
0.374170 0.374170 0.374170
0.404242 0.404242 0.404242
0.265662 0.265662 0.265662
0.295375 0.295375 0.295375
0.325187 0.325187 0.325187
0.355097 0.355097 0.355097
0.385107 0.385107 0.385107
0.415215 0.415215 0.415215
0.445421 0.445421 0.445421
0.475724 0.475724 0.475724
0.506125 0.506125 0.506125
0.366011 0.366011 0.366011
0.396057 0.396057 0.396057
0.426200 0.426200 0.426200
0.456442 0.456442 0.456442
0.486781 0.486781 0.486781
0.517217 0.517217 0.517217
0.547749 0.547749 0.547749
0.578377 0.578377 0.578377
0.609099 0.609099 0.609099
0.467476 0.467476 0.467476
0.497851 0.497851 0.497851
0.528322 0.528322 0.528322
0.558889 0.558889 0.558889
0.589551 0.589551 0.589551
0.620308 0.620308 0.620308
0.651157 0.651157 0.651157
0.682100 0.682100 0.682100
0.713133 0.713133 0.713133
0.570041 0.570041 0.570041
0.600737 0.600737 0.600737
0.631528 0.631528 0.631528
0.662412 0.662412 0.662412
0.693387 0.693387 0.693387
0.724453 0.724453 0.724453
0.755608 0.755608 0.755608
0.786850 0.786850 0.786850
0.818177 0.818177 0.818177
0.673678 0.673678 0.673678
0.704687 0.704687 0.704687
0.735785 0.735785 0.735785
0.766972 0.766972 0.766972
0.798245 0.798245 0.798245
0.829603 0.829603 0.829603
0.861043 0.861043 0.861043
0.892563 0.892563 0.892563
0.924159 0.924159 0.924159
0.778347 0.778347 0.778347
0.809652 0.809652 0.809652
0.841040 0.841040 0.841040
0.872510 0.872510 0.872510
0.904058 0.904058 0.904058
0.935681 0.935681 0.935681
0.967374 0.967374 0.967374
0.999131 0.999131 0.999131
1.000000 1.000000 1.000000
0.000000 0.000000 0.000000
0.009774 0.009774 0.009774
0.038641 0.038641 0.038641
0.067599 0.067599 0.067599
0.096651 0.096651 0.096651
0.125798 0.125798 0.125798
0.155043 0.155043 0.155043
0.184386 0.184386 0.184386
0.213826 0.213826 0.213826
0.078165 0.078165 0.078165
0.107251 0.107251 0.107251
0.136434 0.136434 0.136434
0.165714 0.165714 0.165714
0.195092 0.195092 0.195092
0.224569 0.224569 0.224569
0.254145 0.254145 0.254145
0.283819 0.283819 0.283819
0.313592 0.313592 0.313592
0.176398 0.176398 0.176398
0.205812 0.205812 0.205812
0.235325 0.235325 0.235325
0.264936 0.264936 0.264936
0.294647 0.294647 0.294647
0.324456 0.324456 0.324456
0.354365 0.354365 0.354365
0.384372 0.384372 0.384372
0.414477 0.414477 0.414477
0.275742 0.275742 0.275742
0.305488 0.305488 0.305488
0.335333 0.335333 0.335333
0.365278 0.365278 0.365278
0.395321 0.395321 0.395321
0.425462 0.425462 0.425462
0.455701 0.455701 0.455701
0.486038 0.486038 0.486038
0.516471 0.516471 0.516471
0.376204 0.376204 0.376204
0.406283 0.406283 0.406283
0.436460 0.436460 0.436460
0.466734 0.466734 0.466734
0.497106 0.497106 0.497106
0.527575 0.527575 0.527575
0.558140 0.558140 0.558140
0.588800 0.588800 0.588800
0.619554 0.619554 0.619554
0.477781 0.477781 0.477781
0.508188 0.508188 0.508188
0.538692 0.538692 0.538692
0.569291 0.569291 0.569291
0.599986 0.599986 0.599986
0.630774 0.630774 0.630774
0.661655 0.661655 0.661655
0.692628 0.692628 0.692628
0.723692 0.723692 0.723692
0.580455 0.580455 0.580455
0.611184 0.611184 0.611184
0.642006 0.642006 0.642006
0.672921 0.672921 0.672921
0.703927 0.703927 0.703927
0.735023 0.735023 0.735023
0.766208 0.766208 0.766208
0.797479 0.797479 0.797479
0.828835 0.828835 0.828835
0.684199 0.684199 0.684199
0.715238 0.715238 0.715238
0.746366 0.746366 0.746366
0.777583 0.777583 0.777583
0.808885 0.808885 0.808885
0.840271 0.840271 0.840271
0.871739 0.871739 0.871739
0.903285 0.903285 0.903285
0.934906 0.934906 0.934906
0.788969 0.788969 0.788969
0.820302 0.820302 0.820302
0.851718 0.851718 0.851718
0.883215 0.883215 0.883215
0.914789 0.914789 0.914789
0.946436 0.946436 0.946436
0.978152 0.978152 0.978152
1.000000 1.000000 1.000000
1.000000 1.000000 1.000000
0.000000 0.000000 0.000000
0.019568 0.019568 0.019568
0.048465 0.048465 0.048465
0.077454 0.077454 0.077454
0.106539 0.106539 0.106539
0.135719 0.135719 0.135719
0.164997 0.164997 0.164997
0.194373 0.194373 0.194373
0.223847 0.223847 0.223847
0.088032 0.088032 0.088032
0.117151 0.117151 0.117151
0.146367 0.146367 0.146367
0.175680 0.175680 0.175680
0.205092 0.205092 0.205092
0.234602 0.234602 0.234602
0.264211 0.264211 0.264211
0.293919 0.293919 0.293919
0.323726 0.323726 0.323726
0.186377 0.186377 0.186377
0.215824 0.215824 0.215824
0.245370 0.245370 0.245370
0.275015 0.275015 0.275015
0.304759 0.304759 0.304759
0.334602 0.334602 0.334602
0.364544 0.364544 0.364544
0.394585 0.394585 0.394585
0.424724 0.424724 0.424724
0.285832 0.285832 0.285832
0.315613 0.315613 0.315613
0.345492 0.345492 0.345492
0.375469 0.375469 0.375469
0.405546 0.405546 0.405546
0.435720 0.435720 0.435720
0.465993 0.465993 0.465993
0.496362 0.496362 0.496362
0.526829 0.526829 0.526829
0.386408 0.386408 0.386408
0.416520 0.416520 0.416520
0.446730 0.446730 0.446730
0.477038 0.477038 0.477038
0.507443 0.507443 0.507443
0.537944 0.537944 0.537944
0.568542 0.568542 0.568542
0.599234 0.599234 0.599234
0.630020 0.630020 0.630020
0.488096 0.488096 0.488096
0.518536 0.518536 0.518536
0.549073 0.549073 0.549073
0.579704 0.579704 0.579704
0.610431 0.610431 0.610431
0.641251 0.641251 0.641251
0.672164 0.672164 0.672164
0.703168 0.703168 0.703168
0.734262 0.734262 0.734262
0.590880 0.590880 0.590880
0.621641 0.621641 0.621641
0.652495 0.652495 0.652495
0.683441 0.683441 0.683441
0.714478 0.714478 0.714478
0.745604 0.745604 0.745604
0.776818 0.776818 0.776818
0.808118 0.808118 0.808118
0.839503 0.839503 0.839503
0.694730 0.694730 0.694730
0.725799 0.725799 0.725799
0.756958 0.756958 0.756958
0.788204 0.788204 0.788204
0.819535 0.819535 0.819535
0.850949 0.850949 0.850949
0.882443 0.882443 0.882443
0.914016 0.914016 0.914016
0.945661 0.945661 0.945661
0.799600 0.799600 0.799600
0.830962 0.830962 0.830962
0.862406 0.862406 0.862406
0.893929 0.893929 0.893929
0.925528 0.925528 0.925528
0.957200 0.957200 0.957200
0.988937 0.988937 0.988937
1.000000 1.000000 1.000000
1.000000 1.000000 1.000000
0.000531 0.000531 0.000531
0.029371 0.029371 0.029371
0.058300 0.058300 0.058300
0.087321 0.087321 0.087321
0.116438 0.116438 0.116438
0.145651 0.145651 0.145651
0.174962 0.174962 0.174962
0.204371 0.204371 0.204371
0.233879 0.233879 0.233879
0.097910 0.097910 0.097910
0.127062 0.127062 0.127062
0.156311 0.156311 0.156311
0.185657 0.185657 0.185657
0.215103 0.215103 0.215103
0.244646 0.244646 0.244646
0.274289 0.274289 0.274289
0.304031 0.304031 0.304031
0.333871 0.333871 0.333871
0.196366 0.196366 0.196366
0.225847 0.225847 0.225847
0.255427 0.255427 0.255427
0.285105 0.285105 0.285105
0.314883 0.314883 0.314883
0.344760 0.344760 0.344760
0.374735 0.374735 0.374735
0.404809 0.404809 0.404809
0.434981 0.434981 0.434981
0.295935 0.295935 0.295935
0.325749 0.325749 0.325749
0.355661 0.355661 0.355661
0.385672 0.385672 0.385672
0.415782 0.415782 0.415782
0.445990 0.445990 0.445990
0.476296 0.476296 0.476296
0.506698 0.506698 0.506698
0.537197 0.537197 0.537197
0.396623 0.396623 0.396623
0.426768 0.426768 0.426768
0.457012 0.457012 0.457012
0.487353 0.487353 0.487353
0.517791 0.517791 0.517791
0.548325 0.548325 0.548325
0.578954 0.578954 0.578954
0.609678 0.609678 0.609678
0.640496 0.640496 0.640496
0.498423 0.498423 0.498423
0.528896 0.528896 0.528896
0.559465 0.559465 0.559465
0.590129 0.590129 0.590129
0.620887 0.620887 0.620887
0.651739 0.651739 0.651739
0.682683 0.682683 0.682683
0.713717 0.713717 0.713717
0.744842 0.744842 0.744842
0.601316 0.601316 0.601316
0.632108 0.632108 0.632108
0.662994 0.662994 0.662994
0.693971 0.693971 0.693971
0.725038 0.725038 0.725038
0.756195 0.756195 0.756195
0.787438 0.787438 0.787438
0.818767 0.818767 0.818767
0.850179 0.850179 0.850179
0.705271 0.705271 0.705271
0.736371 0.736371 0.736371
0.767559 0.767559 0.767559
0.798834 0.798834 0.798834
0.830194 0.830194 0.830194
0.861636 0.861636 0.861636
0.893157 0.893157 0.893157
0.924755 0.924755 0.924755
0.956424 0.956424 0.956424
0.810242 0.810242 0.810242
0.841631 0.841631 0.841631
0.873102 0.873102 0.873102
0.904652 0.904652 0.904652
0.936276 0.936276 0.936276
0.967971 0.967971 0.967971
0.999729 0.999729 0.999729
1.000000 1.000000 1.000000
1.000000 1.000000 1.000000
0.010316 0.010316 0.010316
0.039185 0.039185 0.039185
0.068145 0.068145 0.068145
0.097198 0.097198 0.097198
0.126348 0.126348 0.126348
0.155594 0.155594 0.155594
0.184939 0.184939 0.184939
0.214381 0.214381 0.214381
0.243922 0.243922 0.243922
0.107799 0.107799 0.107799
0.136984 0.136984 0.136984
0.166266 0.166266 0.166266
0.195646 0.195646 0.195646
0.225125 0.225125 0.225125
0.254702 0.254702 0.254702
0.284378 0.284378 0.284378
0.314153 0.314153 0.314153
0.344028 0.344028 0.344028
0.206367 0.206367 0.206367
0.235881 0.235881 0.235881
0.265495 0.265495 0.265495
0.295207 0.295207 0.295207
0.325018 0.325018 0.325018
0.354928 0.354928 0.354928
0.384937 0.384937 0.384937
0.415045 0.415045 0.415045
0.445250 0.445250 0.445250
0.306049 0.306049 0.306049
0.335896 0.335896 0.335896
0.365842 0.365842 0.365842
0.395887 0.395887 0.395887
0.426030 0.426030 0.426030
0.456271 0.456271 0.456271
0.486610 0.486610 0.486610
0.517045 0.517045 0.517045
0.547577 0.547577 0.547577
0.406850 0.406850 0.406850
0.437028 0.437028 0.437028
0.467305 0.467305 0.467305
0.497679 0.497679 0.497679
0.528149 0.528149 0.528149
0.558716 0.558716 0.558716
0.589378 0.589378 0.589378
0.620134 0.620134 0.620134
0.650983 0.650983 0.650983
0.508761 0.508761 0.508761
0.539266 0.539266 0.539266
0.569868 0.569868 0.569868
0.600564 0.600564 0.600564
0.631354 0.631354 0.631354
0.662237 0.662237 0.662237
0.693212 0.693212 0.693212
0.724277 0.724277 0.724277
0.755432 0.755432 0.755432
0.611763 0.611763 0.611763
0.642587 0.642587 0.642587
0.673503 0.673503 0.673503
0.704511 0.704511 0.704511
0.735609 0.735609 0.735609
0.766796 0.766796 0.766796
0.798068 0.798068 0.798068
0.829426 0.829426 0.829426
0.860866 0.860866 0.860866
0.715823 0.715823 0.715823
0.746953 0.746953 0.746953
0.778171 0.778171 0.778171
0.809475 0.809475 0.809475
0.840863 0.840863 0.840863
0.872332 0.872332 0.872332
0.903879 0.903879 0.903879
0.935502 0.935502 0.935502
0.967195 0.967195 0.967195
0.820892 0.820892 0.820892
0.852310 0.852310 0.852310
0.883808 0.883808 0.883808
0.915383 0.915383 0.915383
0.947032 0.947032 0.947032
0.978749 0.978749 0.978749
1.000000 1.000000 1.000000
1.000000 1.000000 1.000000
1.000000 1.000000 1.000000
0.020111 0.020111 0.020111
0.049010 0.049010 0.049010
0.078001 0.078001 0.078001
0.107087 0.107087 0.107087
0.136269 0.136269 0.136269
0.165549 0.165549 0.165549
0.194926 0.194926 0.194926
0.224402 0.224402 0.224402
0.253977 0.253977 0.253977
0.117700 0.117700 0.117700
0.146917 0.146917 0.146917
0.176233 0.176233 0.176233
0.205646 0.205646 0.205646
0.235158 0.235158 0.235158
0.264769 0.264769 0.264769
0.294479 0.294479 0.294479
0.324288 0.324288 0.324288
0.354196 0.354196 0.354196
0.216379 0.216379 0.216379
0.245927 0.245927 0.245927
0.275574 0.275574 0.275574
0.305320 0.305320 0.305320
0.335165 0.335165 0.335165
0.365108 0.365108 0.365108
0.395151 0.395151 0.395151
0.425292 0.425292 0.425292
0.455530 0.455530 0.455530
0.316174 0.316174 0.316174
0.346055 0.346055 0.346055
0.376034 0.376034 0.376034
0.406113 0.406113 0.406113
0.436289 0.436289 0.436289
0.466563 0.466563 0.466563
0.496935 0.496935 0.496935
0.527403 0.527403 0.527403
0.557967 0.557967 0.557967
0.417087 0.417087 0.417087
0.447299 0.447299 0.447299
0.477609 0.477609 0.477609
0.508016 0.508016 0.508016
0.538519 0.538519 0.538519
0.569118 0.569118 0.569118
0.599812 0.599812 0.599812
0.630600 0.630600 0.630600
0.661481 0.661481 0.661481
0.519110 0.519110 0.519110
0.549648 0.549648 0.549648
0.580282 0.580282 0.580282
0.611010 0.611010 0.611010
0.641832 0.641832 0.641832
0.672746 0.672746 0.672746
0.703752 0.703752 0.703752
0.734848 0.734848 0.734848
0.766032 0.766032 0.766032
0.622220 0.622220 0.622220
0.653076 0.653076 0.653076
0.684024 0.684024 0.684024
0.715062 0.715062 0.715062
0.746190 0.746190 0.746190
0.777406 0.777406 0.777406
0.808708 0.808708 0.808708
0.840094 0.840094 0.840094
0.871561 0.871561 0.871561
0.726385 0.726385 0.726385
0.757545 0.757545 0.757545
0.788792 0.788792 0.788792
0.820125 0.820125 0.820125
0.851541 0.851541 0.851541
0.883037 0.883037 0.883037
0.914610 0.914610 0.914610
0.946257 0.946257 0.946257
0.977973 0.977973 0.977973
0.831553 0.831553 0.831553
0.862998 0.862998 0.862998
0.894523 0.894523 0.894523
0.926124 0.926124 0.926124
0.957796 0.957796 0.957796
0.989535 0.989535 0.989535
1.000000 1.000000 1.000000
1.000000 1.000000 1.000000
1.000000 1.000000 1.000000
0.029915 0.029915 0.029915
0.058845 0.058845 0.058845
0.087868 0.087868 0.087868
0.116986 0.116986 0.116986
0.146202 0.146202 0.146202
0.175514 0.175514 0.175514
0.204926 0.204926 0.204926
0.234435 0.234435 0.234435
0.264044 0.264044 0.264044
0.127611 0.127611 0.127611
0.156862 0.156862 0.156862
0.186211 0.186211 0.186211
0.215657 0.215657 0.215657
0.245203 0.245203 0.245203
0.274848 0.274848 0.274848
0.304591 0.304591 0.304591
0.334434 0.334434 0.334434
0.364375 0.364375 0.364375
0.226403 0.226403 0.226403
0.255984 0.255984 0.255984
0.285665 0.285665 0.285665
0.315444 0.315444 0.315444
0.345323 0.345323 0.345323
0.375300 0.375300 0.375300
0.405376 0.405376 0.405376
0.435550 0.435550 0.435550
0.465822 0.465822 0.465822
0.326310 0.326310 0.326310
0.356225 0.356225 0.356225
0.386238 0.386238 0.386238
0.416350 0.416350 0.416350
0.446559 0.446559 0.446559
0.476867 0.476867 0.476867
0.507271 0.507271 0.507271
0.537772 0.537772 0.537772
0.568369 0.568369 0.568369
0.427337 0.427337 0.427337
0.457582 0.457582 0.457582
0.487925 0.487925 0.487925
0.518364 0.518364 0.518364
0.548900 0.548900 0.548900
0.579531 0.579531 0.579531
0.610257 0.610257 0.610257
0.641077 0.641077 0.641077
0.671989 0.671989 0.671989
0.529470 0.529470 0.529470
0.560041 0.560041 0.560041
0.590707 0.590707 0.590707
0.621467 0.621467 0.621467
0.652320 0.652320 0.652320
0.683266 0.683266 0.683266
0.714302 0.714302 0.714302
0.745428 0.745428 0.745428
0.776642 0.776642 0.776642
0.632689 0.632689 0.632689
0.663576 0.663576 0.663576
0.694555 0.694555 0.694555
0.725624 0.725624 0.725624
0.756782 0.756782 0.756782
0.788027 0.788027 0.788027
0.819358 0.819358 0.819358
0.850771 0.850771 0.850771
0.882265 0.882265 0.882265
0.736957 0.736957 0.736957
0.768147 0.768147 0.768147
0.799424 0.799424 0.799424
0.830785 0.830785 0.830785
0.862228 0.862228 0.862228
0.893751 0.893751 0.893751
0.925350 0.925350 0.925350
0.957021 0.957021 0.957021
0.988758 0.988758 0.988758
0.842223 0.842223 0.842223
0.873695 0.873695 0.873695
0.905246 0.905246 0.905246
0.936872 0.936872 0.936872
0.968568 0.968568 0.968568
1.000000 1.000000 1.000000
1.000000 1.000000 1.000000
1.000000 1.000000 1.000000
1.000000 1.000000 1.000000
