source/experimental_legacy_banks/bank_a/looks/witness/look.CUBE
#Created by: Infinite Arch Leica Look Builder
#Unique Leica Look ID: 0
#Based Filmstyle Mode: Standard
TITLE "Witness"
LUT_3D_SIZE 5
DOMAIN_MIN 0.0 0.0 0.0
DOMAIN_MAX 1.0 1.0 1.0
0.000000 0.000000 0.000000
0.009231 0.009231 0.009231
0.067053 0.067053 0.067053
0.125249 0.125249 0.125249
0.183833 0.183833 0.183833
0.146532 0.146532 0.146532
0.205258 0.205258 0.205258
0.264378 0.264378 0.264378
0.323895 0.323895 0.323895
0.383806 0.383806 0.383806
0.345661 0.345661 0.345661
0.405716 0.405716 0.405716
0.466164 0.466164 0.466164
0.527001 0.527001 0.527001
0.588222 0.588222 0.588222
0.549245 0.549245 0.549245
0.610605 0.610605 0.610605
0.672338 0.672338 0.672338
0.734437 0.734437 0.734437
0.796890 0.796890 0.796890
0.757134 0.757134 0.757134
0.819712 0.819712 0.819712
0.882621 0.882621 0.882621
0.945840 0.945840 0.945840
1.000000 1.000000 1.000000
0.000000 0.000000 0.000000
0.028828 0.028828 0.028828
0.086774 0.086774 0.086774
0.145100 0.145100 0.145100
0.203817 0.203817 0.203817
0.166432 0.166432 0.166432
0.225291 0.225291 0.225291
0.284546 0.284546 0.284546
0.344197 0.344197 0.344197
0.404242 0.404242 0.404242
0.366011 0.366011 0.366011
0.426200 0.426200 0.426200
0.486781 0.486781 0.486781
0.547749 0.547749 0.547749
0.609099 0.609099 0.609099
0.570041 0.570041 0.570041
0.631528 0.631528 0.631528
0.693387 0.693387 0.693387
0.755608 0.755608 0.755608
0.818177 0.818177 0.818177
0.778347 0.778347 0.778347
0.841040 0.841040 0.841040
0.904058 0.904058 0.904058
0.967374 0.967374 0.967374
1.000000 1.000000 1.000000
0.000000 0.000000 0.000000
0.048465 0.048465 0.048465
0.106539 0.106539 0.106539
0.164997 0.164997 0.164997
0.223847 0.223847 0.223847
0.186377 0.186377 0.186377
0.245370 0.245370 0.245370
0.304759 0.304759 0.304759
0.364544 0.364544 0.364544
0.424724 0.424724 0.424724
0.386408 0.386408 0.386408
0.446730 0.446730 0.446730
0.507443 0.507443 0.507443
0.568542 0.568542 0.568542
0.630020 0.630020 0.630020
0.590880 0.590880 0.590880
0.652495 0.652495 0.652495
0.714478 0.714478 0.714478
0.776818 0.776818 0.776818
0.839503 0.839503 0.839503
0.799600 0.799600 0.799600
0.862406 0.862406 0.862406
0.925528 0.925528 0.925528
0.988937 0.988937 0.988937
1.000000 1.000000 1.000000
0.010316 0.010316 0.010316
0.068145 0.068145 0.068145
0.126348 0.126348 0.126348
0.184939 0.184939 0.184939
0.243922 0.243922 0.243922
0.206367 0.206367 0.206367
0.265495 0.265495 0.265495
0.325018 0.325018 0.325018
0.384937 0.384937 0.384937
0.445250 0.445250 0.445250
0.406850 0.406850 0.406850
0.467305 0.467305 0.467305
0.528149 0.528149 0.528149
0.589378 0.589378 0.589378
0.650983 0.650983 0.650983
0.611763 0.611763 0.611763
0.673503 0.673503 0.673503
0.735609 0.735609 0.735609
0.798068 0.798068 0.798068
0.860866 0.860866 0.860866
0.820892 0.820892 0.820892
0.883808 0.883808 0.883808
0.947032 0.947032 0.947032
1.000000 1.000000 1.000000
1.000000 1.000000 1.000000
0.029915 0.029915 0.029915
0.087868 0.087868 0.087868
0.146202 0.146202 0.146202
0.204926 0.204926 0.204926
0.264044 0.264044 0.264044
0.226403 0.226403 0.226403
0.285665 0.285665 0.285665
0.345323 0.345323 0.345323
0.405376 0.405376 0.405376
0.465822 0.465822 0.465822
0.427337 0.427337 0.427337
0.487925 0.487925 0.487925
0.548900 0.548900 0.548900
0.610257 0.610257 0.610257
0.671989 0.671989 0.671989
0.632689 0.632689 0.632689
0.694555 0.694555 0.694555
0.756782 0.756782 0.756782
0.819358 0.819358 0.819358
0.882265 0.882265 0.882265
0.842223 0.842223 0.842223
0.905246 0.905246 0.905246
0.968568 0.968568 0.968568
1.000000 1.000000 1.000000
1.000000 1.000000 1.000000
