source/experimental_legacy_banks/bank_a/looks/witness/look.CUBE
#Created by: Infinite Arch Leica Look Builder
#Unique Leica Look ID: 0
#Based Filmstyle Mode: Standard
TITLE "Witness"
LUT_3D_SIZE 17
DOMAIN_MIN 0.0 0.0 0.0
DOMAIN_MAX 1.0 1.0 1.0
0.000000 0.000000 0.000000
0.000000 0.000000 0.000000
0.000000 0.000000 0.000000
0.000000 0.000000 0.000000
0.009231 0.009231 0.009231
0.023654 0.023654 0.023654
0.038097 0.038097 0.038097
0.052564 0.052564 0.052564
0.067053 0.067053 0.067053
0.081566 0.081566 0.081566
0.096103 0.096103 0.096103
0.110664 0.110664 0.110664
0.125249 0.125249 0.125249
0.139858 0.139858 0.139858
0.154492 0.154492 0.154492
0.169150 0.169150 0.169150
0.183833 0.183833 0.183833
0.000071 0.000071 0.000071
0.014480 0.014480 0.014480
0.028910 0.028910 0.028910
0.043361 0.043361 0.043361
0.057836 0.057836 0.057836
0.072334 0.072334 0.072334
0.086856 0.086856 0.086856
0.101402 0.101402 0.101402
0.115971 0.115971 0.115971
0.130565 0.130565 0.130565
0.145183 0.145183 0.145183
0.159826 0.159826 0.159826
0.174493 0.174493 0.174493
0.189184 0.189184 0.189184
0.203900 0.203900 0.203900
0.218641 0.218641 0.218641
0.233406 0.233406 0.233406
0.048629 0.048629 0.048629
0.063112 0.063112 0.063112
0.077618 0.077618 0.077618
0.092149 0.092149 0.092149
0.106703 0.106703 0.106703
0.121281 0.121281 0.121281
0.135884 0.135884 0.135884
0.150511 0.150511 0.150511
0.165162 0.165162 0.165162
0.179838 0.179838 0.179838
0.194539 0.194539 0.194539
0.209264 0.209264 0.209264
0.224014 0.224014 0.224014
0.238788 0.238788 0.238788
0.253587 0.253587 0.253587
0.268411 0.268411 0.268411
0.283260 0.283260 0.283260
0.097445 0.097445 0.097445
0.112008 0.112008 0.112008
0.126595 0.126595 0.126595
0.141206 0.141206 0.141206
0.155842 0.155842 0.155842
0.170503 0.170503 0.170503
0.185187 0.185187 0.185187
0.199897 0.199897 0.199897
0.214631 0.214631 0.214631
0.229390 0.229390 0.229390
0.244173 0.244173 0.244173
0.258981 0.258981 0.258981
0.273814 0.273814 0.273814
0.288672 0.288672 0.288672
0.303554 0.303554 0.303554
0.318461 0.318461 0.318461
0.333393 0.333393 0.333393
0.146532 0.146532 0.146532
0.161177 0.161177 0.161177
0.175846 0.175846 0.175846
0.190540 0.190540 0.190540
0.205258 0.205258 0.205258
0.220001 0.220001 0.220001
0.234769 0.234769 0.234769
0.249561 0.249561 0.249561
0.264378 0.264378 0.264378
0.279220 0.279220 0.279220
0.294087 0.294087 0.294087
0.308978 0.308978 0.308978
0.323895 0.323895 0.323895
0.338835 0.338835 0.338835
0.353801 0.353801 0.353801
0.368791 0.368791 0.368791
0.383806 0.383806 0.383806
0.195895 0.195895 0.195895
0.210623 0.210623 0.210623
0.225375 0.225375 0.225375
0.240151 0.240151 0.240151
0.254953 0.254953 0.254953
0.269779 0.269779 0.269779
0.284630 0.284630 0.284630
0.299506 0.299506 0.299506
0.314406 0.314406 0.314406
0.329331 0.329331 0.329331
0.344281 0.344281 0.344281
0.359256 0.359256 0.359256
0.374255 0.374255 0.374255
0.389279 0.389279 0.389279
0.404327 0.404327 0.404327
0.419400 0.419400 0.419400
0.434498 0.434498 0.434498
0.245537 0.245537 0.245537
0.260348 0.260348 0.260348
0.275183 0.275183 0.275183
0.290043 0.290043 0.290043
0.304927 0.304927 0.304927
0.319837 0.319837 0.319837
0.334771 0.334771 0.334771
0.349730 0.349730 0.349730
0.364713 0.364713 0.364713
0.379722 0.379722 0.379722
0.394755 0.394755 0.394755
0.409812 0.409812 0.409812
0.424894 0.424894 0.424894
0.440000 0.440000 0.440000
0.455131 0.455131 0.455131
0.470287 0.470287 0.470287
0.485466 0.485466 0.485466
0.295459 0.295459 0.295459
0.310353 0.310353 0.310353
0.325271 0.325271 0.325271
0.340214 0.340214 0.340214
0.355182 0.355182 0.355182
0.370175 0.370175 0.370175
0.385192 0.385192 0.385192
0.400234 0.400234 0.400234
0.415300 0.415300 0.415300
0.430391 0.430391 0.430391
0.445506 0.445506 0.445506
0.460646 0.460646 0.460646
0.475810 0.475810 0.475810
0.490999 0.490999 0.490999
0.506211 0.506211 0.506211
0.521448 0.521448 0.521448
0.536709 0.536709 0.536709
0.345661 0.345661 0.345661
0.360637 0.360637 0.360637
0.375639 0.375639 0.375639
0.390665 0.390665 0.390665
0.405716 0.405716 0.405716
0.420791 0.420791 0.420791
0.435891 0.435891 0.435891
0.451015 0.451015 0.451015
0.466164 0.466164 0.466164
0.481337 0.481337 0.481337
0.496534 0.496534 0.496534
0.511756 0.511756 0.511756
0.527001 0.527001 0.527001
0.542271 0.542271 0.542271
0.557564 0.557564 0.557564
0.572881 0.572881 0.572881
0.588222 0.588222 0.588222
0.396142 0.396142 0.396142
0.411201 0.411201 0.411201
0.426286 0.426286 0.426286
0.441394 0.441394 0.441394
0.456527 0.456527 0.456527
0.471685 0.471685 0.471685
0.486867 0.486867 0.486867
0.502073 0.502073 0.502073
0.517303 0.517303 0.517303
0.532557 0.532557 0.532557
0.547836 0.547836 0.547836
0.563138 0.563138 0.563138
0.578464 0.578464 0.578464
0.593813 0.593813 0.593813
0.609186 0.609186 0.609186
0.624583 0.624583 0.624583
0.640003 0.640003 0.640003
0.446901 0.446901 0.446901
0.462043 0.462043 0.462043
0.477209 0.477209 0.477209
0.492400 0.492400 0.492400
0.507615 0.507615 0.507615
0.522854 0.522854 0.522854
0.538117 0.538117 0.538117
0.553404 0.553404 0.553404
0.568715 0.568715 0.568715
0.584049 0.584049 0.584049
0.599407 0.599407 0.599407
0.614789 0.614789 0.614789
0.630194 0.630194 0.630194
0.645622 0.645622 0.645622
0.661073 0.661073 0.661073
0.676548 0.676548 0.676548
0.692045 0.692045 0.692045
0.497936 0.497936 0.497936
0.513160 0.513160 0.513160
0.528408 0.528408 0.528408
0.543679 0.543679 0.543679
0.558975 0.558975 0.558975
0.574295 0.574295 0.574295
0.589638 0.589638 0.589638
0.605004 0.605004 0.605004
0.620395 0.620395 0.620395
0.635808 0.635808 0.635808
0.651245 0.651245 0.651245
0.666704 0.666704 0.666704
0.682187 0.682187 0.682187
0.697692 0.697692 0.697692
0.713220 0.713220 0.713220
0.728771 0.728771 0.728771
0.744343 0.744343 0.744343
0.549245 0.549245 0.549245
0.564550 0.564550 0.564550
0.579878 0.579878 0.579878
0.595229 0.595229 0.595229
0.610605 0.610605 0.610605
0.626003 0.626003 0.626003
0.641425 0.641425 0.641425
0.656870 0.656870 0.656870
0.672338 0.672338 0.672338
0.687829 0.687829 0.687829
0.703343 0.703343 0.703343
0.718879 0.718879 0.718879
0.734437 0.734437 0.734437
0.750018 0.750018 0.750018
0.765620 0.765620 0.765620
0.781245 0.781245 0.781245
0.796890 0.796890 0.796890
0.600824 0.600824 0.600824
0.616208 0.616208 0.616208
0.631615 0.631615 0.631615
0.647046 0.647046 0.647046
0.662499 0.662499 0.662499
0.677976 0.677976 0.677976
0.693475 0.693475 0.693475
0.708997 0.708997 0.708997
0.724541 0.724541 0.724541
0.740107 0.740107 0.740107
0.755696 0.755696 0.755696
0.771306 0.771306 0.771306
0.786938 0.786938 0.786938
0.802591 0.802591 0.802591
0.818266 0.818266 0.818266
0.833961 0.833961 0.833961
0.849676 0.849676 0.849676
0.652669 0.652669 0.652669
0.668131 0.668131 0.668131
0.683616 0.683616 0.683616
0.699123 0.699123 0.699123
0.714653 0.714653 0.714653
0.730205 0.730205 0.730205
0.745780 0.745780 0.745780
0.761376 0.761376 0.761376
0.776995 0.776995 0.776995
0.792634 0.792634 0.792634
0.808295 0.808295 0.808295
0.823977 0.823977 0.823977
0.839680 0.839680 0.839680
0.855403 0.855403 0.855403
0.871146 0.871146 0.871146
0.886909 0.886909 0.886909
0.902691 0.902691 0.902691
0.704774 0.704774 0.704774
0.720313 0.720313 0.720313
0.735873 0.735873 0.735873
0.751456 0.751456 0.751456
0.767060 0.767060 0.767060
0.782686 0.782686 0.782686
0.798334 0.798334 0.798334
0.814002 0.814002 0.814002
0.829692 0.829692 0.829692
0.845402 0.845402 0.845402
0.861132 0.861132 0.861132
0.876882 0.876882 0.876882
0.892652 0.892652 0.892652
0.908441 0.908441 0.908441
0.924249 0.924249 0.924249
0.940074 0.940074 0.940074
0.955917 0.955917 0.955917
0.757134 0.757134 0.757134
0.772746 0.772746 0.772746
0.788380 0.788380 0.788380
0.804035 0.804035 0.804035
0.819712 0.819712 0.819712
0.835409 0.835409 0.835409
0.851126 0.851126 0.851126
0.866864 0.866864 0.866864
0.882621 0.882621 0.882621
0.898398 0.898398 0.898398
0.914194 0.914194 0.914194
0.930008 0.930008 0.930008
0.945840 0.945840 0.945840
0.961689 0.961689 0.961689
0.977555 0.977555 0.977555
0.993436 0.993436 0.993436
1.000000 1.000000 1.000000
0.000000 0.000000 0.000000
0.000000 0.000000 0.000000
0.000000 0.000000 0.000000
0.000000 0.000000 0.000000
0.014127 0.014127 0.014127
0.028556 0.028556 0.028556
0.043008 0.043008 0.043008
0.057482 0.057482 0.057482
0.071979 0.071979 0.071979
0.086501 0.086501 0.086501
0.101046 0.101046 0.101046
0.115615 0.115615 0.115615
0.130208 0.130208 0.130208
0.144825 0.144825 0.144825
0.159467 0.159467 0.159467
0.174133 0.174133 0.174133
0.188824 0.188824 0.188824
0.004962 0.004962 0.004962
0.019378 0.019378 0.019378
0.033815 0.033815 0.033815
0.048275 0.048275 0.048275
0.062757 0.062757 0.062757
0.077263 0.077263 0.077263
0.091793 0.091793 0.091793
0.106347 0.106347 0.106347
0.120925 0.120925 0.120925
0.135527 0.135527 0.135527
0.150153 0.150153 0.150153
0.164804 0.164804 0.164804
0.179479 0.179479 0.179479
0.194179 0.194179 0.194179
0.208903 0.208903 0.208903
0.223653 0.223653 0.223653
0.238426 0.238426 0.238426
0.053544 0.053544 0.053544
0.068036 0.068036 0.068036
0.082550 0.082550 0.082550
0.097089 0.097089 0.097089
0.111651 0.111651 0.111651
0.126238 0.126238 0.126238
0.140849 0.140849 0.140849
0.155484 0.155484 0.155484
0.170144 0.170144 0.170144
0.184828 0.184828 0.184828
0.199537 0.199537 0.199537
0.214270 0.214270 0.214270
0.229028 0.229028 0.229028
0.243811 0.243811 0.243811
0.258619 0.258619 0.258619
0.273451 0.273451 0.273451
0.288308 0.288308 0.288308
0.102388 0.102388 0.102388
0.116959 0.116959 0.116959
0.131554 0.131554 0.131554
0.146174 0.146174 0.146174
0.160818 0.160818 0.160818
0.175487 0.175487 0.175487
0.190180 0.190180 0.190180
0.204898 0.204898 0.204898
0.219640 0.219640 0.219640
0.234407 0.234407 0.234407
0.249199 0.249199 0.249199
0.264016 0.264016 0.264016
0.278857 0.278857 0.278857
0.293723 0.293723 0.293723
0.308614 0.308614 0.308614
0.323529 0.323529 0.323529
0.338470 0.338470 0.338470
0.151503 0.151503 0.151503
0.166156 0.166156 0.166156
0.180833 0.180833 0.180833
0.195535 0.195535 0.195535
0.210262 0.210262 0.210262
0.225014 0.225014 0.225014
0.239790 0.239790 0.239790
0.254590 0.254590 0.254590
0.269416 0.269416 0.269416
0.284266 0.284266 0.284266
0.299141 0.299141 0.299141
0.314041 0.314041 0.314041
0.328966 0.328966 0.328966
0.343915 0.343915 0.343915
0.358889 0.358889 0.358889
0.373888 0.373888 0.373888
0.388911 0.388911 0.388911
0.200894 0.200894 0.200894
0.215630 0.215630 0.215630
0.230390 0.230390 0.230390
0.245175 0.245175 0.245175
0.259985 0.259985 0.259985
0.274820 0.274820 0.274820
0.289679 0.289679 0.289679
0.304563 0.304563 0.304563
0.319472 0.319472 0.319472
0.334405 0.334405 0.334405
0.349364 0.349364 0.349364
0.364347 0.364347 0.364347
0.379354 0.379354 0.379354
0.394387 0.394387 0.394387
0.409443 0.409443 0.409443
0.424525 0.424525 0.424525
0.439631 0.439631 0.439631
0.250564 0.250564 0.250564
0.265383 0.265383 0.265383
0.280227 0.280227 0.280227
0.295095 0.295095 0.295095
0.309988 0.309988 0.309988
0.324906 0.324906 0.324906
0.339848 0.339848 0.339848
0.354816 0.354816 0.354816
0.369808 0.369808 0.369808
0.384824 0.384824 0.384824
0.399865 0.399865 0.399865
0.414931 0.414931 0.414931
0.430021 0.430021 0.430021
0.445136 0.445136 0.445136
0.460275 0.460275 0.460275
0.475439 0.475439 0.475439
0.490627 0.490627 0.490627
0.300514 0.300514 0.300514
0.315416 0.315416 0.315416
0.330343 0.330343 0.330343
0.345295 0.345295 0.345295
0.360271 0.360271 0.360271
0.375272 0.375272 0.375272
0.390297 0.390297 0.390297
0.405347 0.405347 0.405347
0.420422 0.420422 0.420422
0.435521 0.435521 0.435521
0.450645 0.450645 0.450645
0.465793 0.465793 0.465793
0.480965 0.480965 0.480965
0.496162 0.496162 0.496162
0.511383 0.511383 0.511383
0.526628 0.526628 0.526628
0.541897 0.541897 0.541897
0.350744 0.350744 0.350744
0.365729 0.365729 0.365729
0.380739 0.380739 0.380739
0.395774 0.395774 0.395774
0.410833 0.410833 0.410833
0.425916 0.425916 0.425916
0.441025 0.441025 0.441025
0.456157 0.456157 0.456157
0.471314 0.471314 0.471314
0.486495 0.486495 0.486495
0.501701 0.501701 0.501701
0.516930 0.516930 0.516930
0.532184 0.532184 0.532184
0.547462 0.547462 0.547462
0.562763 0.562763 0.562763
0.578088 0.578088 0.578088
0.593437 0.593437 0.593437
0.401253 0.401253 0.401253
0.416321 0.416321 0.416321
0.431414 0.431414 0.431414
0.446531 0.446531 0.446531
0.461672 0.461672 0.461672
0.476838 0.476838 0.476838
0.492028 0.492028 0.492028
0.507242 0.507242 0.507242
0.522481 0.522481 0.522481
0.537743 0.537743 0.537743
0.553030 0.553030 0.553030
0.568340 0.568340 0.568340
0.583674 0.583674 0.583674
0.599031 0.599031 0.599031
0.614412 0.614412 0.614412
0.629817 0.629817 0.629817
0.645244 0.645244 0.645244
0.452041 0.452041 0.452041
0.467191 0.467191 0.467191
0.482365 0.482365 0.482365
0.497564 0.497564 0.497564
0.512787 0.512787 0.512787
0.528035 0.528035 0.528035
0.543306 0.543306 0.543306
0.558601 0.558601 0.558601
0.573920 0.573920 0.573920
0.589262 0.589262 0.589262
0.604628 0.604628 0.604628
0.620018 0.620018 0.620018
0.635431 0.635431 0.635431
0.650867 0.650867 0.650867
0.666326 0.666326 0.666326
0.681808 0.681808 0.681808
0.697313 0.697313 0.697313
0.503104 0.503104 0.503104
0.518336 0.518336 0.518336
0.533591 0.533591 0.533591
0.548871 0.548871 0.548871
0.564175 0.564175 0.564175
0.579502 0.579502 0.579502
0.594854 0.594854 0.594854
0.610228 0.610228 0.610228
0.625626 0.625626 0.625626
0.641048 0.641048 0.641048
0.656492 0.656492 0.656492
0.671960 0.671960 0.671960
0.687450 0.687450 0.687450
0.702963 0.702963 0.702963
0.718499 0.718499 0.718499
0.734057 0.734057 0.734057
0.749637 0.749637 0.749637
0.554440 0.554440 0.554440
0.569752 0.569752 0.569752
0.585089 0.585089 0.585089
0.600448 0.600448 0.600448
0.615831 0.615831 0.615831
0.631238 0.631238 0.631238
0.646668 0.646668 0.646668
0.662121 0.662121 0.662121
0.677597 0.677597 0.677597
0.693095 0.693095 0.693095
0.708617 0.708617 0.708617
0.724160 0.724160 0.724160
0.739726 0.739726 0.739726
0.755314 0.755314 0.755314
0.770924 0.770924 0.770924
0.786555 0.786555 0.786555
0.802208 0.802208 0.802208
0.606046 0.606046 0.606046
0.621438 0.621438 0.621438
0.636853 0.636853 0.636853
0.652291 0.652291 0.652291
0.667752 0.667752 0.667752
0.683237 0.683237 0.683237
0.698743 0.698743 0.698743
0.714273 0.714273 0.714273
0.729825 0.729825 0.729825
0.745399 0.745399 0.745399
0.760995 0.760995 0.760995
0.776612 0.776612 0.776612
0.792252 0.792252 0.792252
0.807912 0.807912 0.807912
0.823594 0.823594 0.823594
0.839296 0.839296 0.839296
0.855018 0.855018 0.855018
0.657917 0.657917 0.657917
0.673387 0.673387 0.673387
0.688879 0.688879 0.688879
0.704395 0.704395 0.704395
0.719932 0.719932 0.719932
0.735492 0.735492 0.735492
0.751074 0.751074 0.751074
0.766678 0.766678 0.766678
0.782304 0.782304 0.782304
0.797951 0.797951 0.797951
0.813619 0.813619 0.813619
0.829308 0.829308 0.829308
0.845017 0.845017 0.845017
0.860747 0.860747 0.860747
0.876497 0.876497 0.876497
0.892266 0.892266 0.892266
0.908055 0.908055 0.908055
0.710049 0.710049 0.710049
0.725594 0.725594 0.725594
0.741162 0.741162 0.741162
0.756752 0.756752 0.756752
0.772364 0.772364 0.772364
0.787998 0.787998 0.787998
0.803652 0.803652 0.803652
0.819328 0.819328 0.819328
0.835025 0.835025 0.835025
0.850742 0.850742 0.850742
0.866479 0.866479 0.866479
0.882236 0.882236 0.882236
0.898012 0.898012 0.898012
0.913807 0.913807 0.913807
0.929621 0.929621 0.929621
0.945453 0.945453 0.945453
0.961301 0.961301 0.961301
0.762434 0.762434 0.762434
0.778053 0.778053 0.778053
0.793694 0.793694 0.793694
0.809357 0.809357 0.809357
0.825040 0.825040 0.825040
0.840744 0.840744 0.840744
0.856469 0.856469 0.856469
0.872213 0.872213 0.872213
0.887977 0.887977 0.887977
0.903760 0.903760 0.903760
0.919562 0.919562 0.919562
0.935383 0.935383 0.935383
0.951221 0.951221 0.951221
0.967076 0.967076 0.967076
0.982946 0.982946 0.982946
0.998832 0.998832 0.998832
1.000000 1.000000 1.000000
0.000000 0.000000 0.000000
0.000000 0.000000 0.000000
0.000000 0.000000 0.000000
0.004609 0.004609 0.004609
0.019025 0.019025 0.019025
0.033462 0.033462 0.033462
0.047921 0.047921 0.047921
0.062403 0.062403 0.062403
0.076908 0.076908 0.076908
0.091437 0.091437 0.091437
0.105991 0.105991 0.105991
0.120568 0.120568 0.120568
0.135169 0.135169 0.135169
0.149795 0.149795 0.149795
0.164445 0.164445 0.164445
0.179120 0.179120 0.179120
0.193819 0.193819 0.193819
0.009855 0.009855 0.009855
0.024278 0.024278 0.024278
0.038723 0.038723 0.038723
0.053190 0.053190 0.053190
0.067681 0.067681 0.067681
0.082195 0.082195 0.082195
0.096733 0.096733 0.096733
0.111295 0.111295 0.111295
0.125881 0.125881 0.125881
0.140491 0.140491 0.140491
0.155126 0.155126 0.155126
0.169785 0.169785 0.169785
0.184468 0.184468 0.184468
0.199177 0.199177 0.199177
0.213910 0.213910 0.213910
0.228667 0.228667 0.228667
0.243449 0.243449 0.243449
0.058463 0.058463 0.058463
0.072962 0.072962 0.072962
0.087485 0.087485 0.087485
0.102032 0.102032 0.102032
0.116602 0.116602 0.116602
0.131197 0.131197 0.131197
0.145816 0.145816 0.145816
0.160460 0.160460 0.160460
0.175128 0.175128 0.175128
0.189820 0.189820 0.189820
0.204538 0.204538 0.204538
0.219279 0.219279 0.219279
0.234046 0.234046 0.234046
0.248837 0.248837 0.248837
0.263653 0.263653 0.263653
0.278494 0.278494 0.278494
0.293359 0.293359 0.293359
0.107333 0.107333 0.107333
0.121913 0.121913 0.121913
0.136517 0.136517 0.136517
0.151145 0.151145 0.151145
0.165797 0.165797 0.165797
0.180474 0.180474 0.180474
0.195175 0.195175 0.195175
0.209902 0.209902 0.209902
0.224652 0.224652 0.224652
0.239428 0.239428 0.239428
0.254228 0.254228 0.254228
0.269053 0.269053 0.269053
0.283903 0.283903 0.283903
0.298777 0.298777 0.298777
0.313677 0.313677 0.313677
0.328600 0.328600 0.328600
0.343549 0.343549 0.343549
0.156476 0.156476 0.156476
0.171138 0.171138 0.171138
0.185823 0.185823 0.185823
0.200534 0.200534 0.200534
0.215269 0.215269 0.215269
0.230029 0.230029 0.230029
0.244813 0.244813 0.244813
0.259623 0.259623 0.259623
0.274457 0.274457 0.274457
0.289315 0.289315 0.289315
0.304199 0.304199 0.304199
0.319107 0.319107 0.319107
0.334040 0.334040 0.334040
0.348998 0.348998 0.348998
0.363980 0.363980 0.363980
0.378987 0.378987 0.378987
0.394019 0.394019 0.394019
0.205896 0.205896 0.205896
0.220640 0.220640 0.220640
0.235408 0.235408 0.235408
0.250202 0.250202 0.250202
0.265020 0.265020 0.265020
0.279863 0.279863 0.279863
0.294731 0.294731 0.294731
0.309623 0.309623 0.309623
0.324541 0.324541 0.324541
0.339483 0.339483 0.339483
0.354449 0.354449 0.354449
0.369441 0.369441 0.369441
0.384457 0.384457 0.384457
0.399497 0.399497 0.399497
0.414562 0.414562 0.414562
0.429652 0.429652 0.429652
0.444766 0.444766 0.444766
0.255594 0.255594 0.255594
0.270421 0.270421 0.270421
0.285273 0.285273 0.285273
0.300150 0.300150 0.300150
0.315051 0.315051 0.315051
0.329978 0.329978 0.329978
0.344929 0.344929 0.344929
0.359904 0.359904 0.359904
0.374905 0.374905 0.374905
0.389929 0.389929 0.389929
0.404979 0.404979 0.404979
0.420053 0.420053 0.420053
0.435152 0.435152 0.435152
0.450275 0.450275 0.450275
0.465422 0.465422 0.465422
0.480594 0.480594 0.480594
0.495790 0.495790 0.495790
0.305572 0.305572 0.305572
0.320483 0.320483 0.320483
0.335418 0.335418 0.335418
0.350378 0.350378 0.350378
0.365362 0.365362 0.365362
0.380372 0.380372 0.380372
0.395406 0.395406 0.395406
0.410464 0.410464 0.410464
0.425547 0.425547 0.425547
0.440655 0.440655 0.440655
0.455787 0.455787 0.455787
0.470943 0.470943 0.470943
0.486124 0.486124 0.486124
0.501328 0.501328 0.501328
0.516557 0.516557 0.516557
0.531811 0.531811 0.531811
0.547088 0.547088 0.547088
0.355830 0.355830 0.355830
0.370824 0.370824 0.370824
0.385842 0.385842 0.385842
0.400885 0.400885 0.400885
0.415952 0.415952 0.415952
0.431044 0.431044 0.431044
0.446161 0.446161 0.446161
0.461302 0.461302 0.461302
0.476467 0.476467 0.476467
0.491656 0.491656 0.491656
0.506870 0.506870 0.506870
0.522108 0.522108 0.522108
0.537370 0.537370 0.537370
0.552655 0.552655 0.552655
0.567965 0.567965 0.567965
0.583298 0.583298 0.583298
0.598655 0.598655 0.598655
0.406368 0.406368 0.406368
0.421444 0.421444 0.421444
0.436545 0.436545 0.436545
0.451670 0.451670 0.451670
0.466820 0.466820 0.466820
0.481994 0.481994 0.481994
0.497192 0.497192 0.497192
0.512415 0.512415 0.512415
0.527661 0.527661 0.527661
0.542932 0.542932 0.542932
0.558226 0.558226 0.558226
0.573545 0.573545 0.573545
0.588887 0.588887 0.588887
0.604252 0.604252 0.604252
0.619641 0.619641 0.619641
0.635053 0.635053 0.635053
0.650489 0.650489 0.650489
0.457183 0.457183 0.457183
0.472341 0.472341 0.472341
0.487524 0.487524 0.487524
0.502731 0.502731 0.502731
0.517963 0.517963 0.517963
0.533218 0.533218 0.533218
0.548497 0.548497 0.548497
0.563800 0.563800 0.563800
0.579127 0.579127 0.579127
0.594478 0.594478 0.594478
0.609852 0.609852 0.609852
0.625249 0.625249 0.625249
0.640670 0.640670 0.640670
0.656114 0.656114 0.656114
0.671581 0.671581 0.671581
0.687071 0.687071 0.687071
0.702584 0.702584 0.702584
0.508274 0.508274 0.508274
0.523514 0.523514 0.523514
0.538778 0.538778 0.538778
0.554066 0.554066 0.554066
0.569378 0.569378 0.569378
0.584713 0.584713 0.584713
0.600072 0.600072 0.600072
0.615455 0.615455 0.615455
0.630861 0.630861 0.630861
0.646290 0.646290 0.646290
0.661743 0.661743 0.661743
0.677218 0.677218 0.677218
0.692716 0.692716 0.692716
0.708237 0.708237 0.708237
0.723780 0.723780 0.723780
0.739345 0.739345 0.739345
0.754933 0.754933 0.754933
0.559638 0.559638 0.559638
0.574958 0.574958 0.574958
0.590302 0.590302 0.590302
0.605670 0.605670 0.605670
0.621061 0.621061 0.621061
0.636476 0.636476 0.636476
0.651913 0.651913 0.651913
0.667374 0.667374 0.667374
0.682858 0.682858 0.682858
0.698364 0.698364 0.698364
0.713893 0.713893 0.713893
0.729444 0.729444 0.729444
0.745018 0.745018 0.745018
0.760613 0.760613 0.760613
0.776230 0.776230 0.776230
0.791869 0.791869 0.791869
0.807529 0.807529 0.807529
0.611271 0.611271 0.611271
0.626670 0.626670 0.626670
0.642093 0.642093 0.642093
0.657539 0.657539 0.657539
0.673008 0.673008 0.673008
0.688500 0.688500 0.688500
0.704015 0.704015 0.704015
0.719552 0.719552 0.719552
0.735111 0.735111 0.735111
0.750693 0.750693 0.750693
0.766296 0.766296 0.766296
0.781921 0.781921 0.781921
0.797568 0.797568 0.797568
0.813235 0.813235 0.813235
0.828924 0.828924 0.828924
0.844633 0.844633 0.844633
0.860362 0.860362 0.860362
0.663168 0.663168 0.663168
0.678646 0.678646 0.678646
0.694146 0.694146 0.694146
0.709669 0.709669 0.709669
0.725214 0.725214 0.725214
0.740781 0.740781 0.740781
0.756371 0.756371 0.756371
0.771982 0.771982 0.771982
0.787615 0.787615 0.787615
0.803269 0.803269 0.803269
0.818944 0.818944 0.818944
0.834640 0.834640 0.834640
0.850357 0.850357 0.850357
0.866094 0.866094 0.866094
0.881850 0.881850 0.881850
0.897626 0.897626 0.897626
0.913421 0.913421 0.913421
0.715326 0.715326 0.715326
0.730879 0.730879 0.730879
0.746454 0.746454 0.746454
0.762052 0.762052 0.762052
0.777671 0.777671 0.777671
0.793312 0.793312 0.793312
0.808974 0.808974 0.808974
0.824656 0.824656 0.824656
0.840360 0.840360 0.840360
0.856084 0.856084 0.856084
0.871828 0.871828 0.871828
0.887591 0.887591 0.887591
0.903374 0.903374 0.903374
0.919176 0.919176 0.919176
0.934996 0.934996 0.934996
0.950833 0.950833 0.950833
0.966688 0.966688 0.966688
0.767736 0.767736 0.767736
0.783363 0.783363 0.783363
0.799011 0.799011 0.799011
0.814681 0.814681 0.814681
0.830371 0.830371 0.830371
0.846082 0.846082 0.846082
0.861813 0.861813 0.861813
0.877564 0.877564 0.877564
0.893335 0.893335 0.893335
0.909125 0.909125 0.909125
0.924933 0.924933 0.924933
0.940759 0.940759 0.940759
0.956603 0.956603 0.956603
0.972464 0.972464 0.972464
0.988340 0.988340 0.988340
1.000000 1.000000 1.000000
1.000000 1.000000 1.000000
0.000000 0.000000 0.000000
0.000000 0.000000 0.000000
0.000000 0.000000 0.000000
0.009503 0.009503 0.009503
0.023925 0.023925 0.023925
0.038369 0.038369 0.038369
0.052836 0.052836 0.052836
0.067326 0.067326 0.067326
0.081840 0.081840 0.081840
0.096377 0.096377 0.096377
0.110938 0.110938 0.110938
0.125524 0.125524 0.125524
0.140133 0.140133 0.140133
0.154767 0.154767 0.154767
0.169426 0.169426 0.169426
