source/experimental_legacy_banks/bank_a/looks/threshold/look.CUBE
#Created by: Infinite Arch Leica Look Builder
#Unique Leica Look ID: 0
#Based Filmstyle Mode: Standard
TITLE "Threshold"
LUT_3D_SIZE 9
DOMAIN_MIN 0.0 0.0 0.0
DOMAIN_MAX 1.0 1.0 1.0
0.000000 0.000000 0.000000
0.128378 0.000000 0.000000
0.268989 0.000000 0.000000
0.410009 0.000000 0.000000
0.551327 0.000000 0.000000
0.692833 0.000000 0.000000
0.834411 0.000000 0.000000
0.975920 0.000000 0.000000
1.000000 0.000000 0.000000
0.000000 0.119003 0.000000
0.117373 0.115732 0.000000
0.257947 0.112461 0.000000
0.398939 0.109191 0.000000
0.540237 0.105921 0.000000
0.681732 0.102651 0.000000
0.823309 0.099382 0.000000
0.964830 0.096112 0.000000
1.000000 0.092844 0.000000
0.000000 0.251824 0.000000
0.106371 0.248542 0.000000
0.246907 0.245261 0.000000
0.387870 0.241980 0.000000
0.529148 0.238699 0.000000
0.670633 0.235419 0.000000
0.812208 0.232138 0.000000
0.953739 0.228858 0.000000
1.000000 0.225578 0.000000
0.000000 0.385022 0.000000
0.095372 0.381732 0.000000
0.235870 0.378443 0.000000
0.376804 0.375154 0.000000
0.518061 0.371865 0.000000
0.659533 0.368576 0.000000
0.801106 0.365287 0.000000
0.942647 0.361998 0.000000
1.000000 0.358710 0.000000
0.000000 0.518504 0.000000
0.084377 0.515208 0.000000
0.224836 0.511913 0.000000
0.365740 0.508617 0.000000
0.506975 0.505322 0.000000
0.648435 0.502027 0.000000
0.790004 0.498732 0.000000
0.931553 0.495437 0.000000
1.000000 0.492143 0.000000
0.000000 0.652176 0.000000
0.073386 0.648877 0.000000
0.213804 0.645578 0.000000
0.354677 0.642279 0.000000
0.495891 0.638980 0.000000
0.637337 0.635681 0.000000
0.778901 0.632383 0.000000
0.920457 0.629084 0.000000
1.000000 0.625785 0.000000
0.000000 0.785945 0.000000
0.062398 0.782644 0.000000
0.202775 0.779344 0.000000
0.343617 0.776044 0.000000
0.484808 0.772744 0.000000
0.626239 0.769443 0.000000
0.767799 0.766143 0.000000
0.909361 0.762843 0.000000
1.000000 0.759543 0.000000
0.000000 0.919699 0.000000
0.051414 0.916401 0.000000
0.191749 0.913102 0.000000
0.332559 0.909804 0.000000
0.473726 0.906505 0.000000
0.615143 0.903206 0.000000
0.756697 0.899908 0.000000
0.898264 0.896609 0.000000
1.000000 0.893310 0.000000
0.000000 1.000000 0.000000
0.040434 1.000000 0.000000
0.180726 1.000000 0.000000
0.321503 1.000000 0.000000
0.462646 1.000000 0.000000
0.604047 1.000000 0.000000
0.745595 1.000000 0.000000
0.887166 1.000000 0.000000
1.000000 1.000000 0.000000
0.000000 0.000000 0.127256
0.127267 0.000000 0.123984
0.267874 0.000000 0.120713
0.408891 0.000000 0.117441
0.550207 0.000000 0.114171
0.691712 0.000000 0.110900
0.833290 0.000000 0.107630
0.974801 0.000000 0.104360
1.000000 0.000000 0.101091
0.000000 0.117892 0.116251
0.116262 0.114621 0.112980
0.256832 0.111350 0.109710
0.397821 0.108080 0.106440
0.539117 0.104810 0.103170
0.680612 0.101541 0.099900
0.822189 0.098271 0.096631
0.963711 0.095002 0.093362
1.000000 0.091734 0.090094
0.000000 0.250709 0.105249
0.105260 0.247428 0.101979
0.245793 0.244147 0.098710
0.386753 0.240866 0.095441
0.528029 0.237585 0.092172
0.669512 0.234305 0.088904
0.811087 0.231024 0.085636
0.952619 0.227744 0.082368
1.000000 0.224464 0.079100
0.000000 0.383905 0.094251
0.094262 0.380615 0.090982
0.234756 0.377326 0.087714
0.375687 0.374037 0.084446
0.516942 0.370748 0.081178
0.658413 0.367459 0.077911
0.799985 0.364170 0.074644
0.941527 0.360882 0.071377
1.000000 0.357593 0.068111
0.000000 0.517384 0.083256
0.083268 0.514089 0.079989
0.223722 0.510794 0.076722
0.364623 0.507498 0.073455
0.505856 0.504203 0.070188
0.647314 0.500908 0.066922
0.788883 0.497613 0.063656
0.930433 0.494319 0.060390
1.000000 0.491024 0.057125
0.000000 0.651056 0.072265
0.072277 0.647757 0.068999
0.212691 0.644458 0.065733
0.353561 0.641159 0.062467
0.494772 0.637860 0.059201
0.636216 0.634561 0.055936
0.777781 0.631262 0.052671
0.919337 0.627964 0.049407
1.000000 0.624665 0.046143
0.000000 0.784824 0.061278
0.061289 0.781524 0.058013
0.201662 0.778223 0.054747
0.342501 0.774923 0.051483
0.483689 0.771623 0.048218
0.625119 0.768323 0.044954
0.766678 0.765022 0.041691
0.908241 0.761722 0.038427
1.000000 0.758422 0.035164
0.000000 0.918579 0.050294
0.050306 0.915281 0.047030
0.190636 0.911982 0.043766
0.331443 0.908684 0.040503
0.472608 0.905385 0.037239
0.614023 0.902086 0.033976
0.755576 0.898787 0.030714
0.897144 0.895488 0.027452
1.000000 0.892189 0.024190
0.000000 1.000000 0.039314
0.039326 1.000000 0.036051
0.179613 1.000000 0.032789
0.320387 1.000000 0.029526
0.461528 1.000000 0.026264
0.602927 1.000000 0.023003
0.744474 1.000000 0.019741
0.886045 1.000000 0.016480
1.000000 1.000000 0.013220
0.000000 0.000000 0.270031
0.126156 0.000000 0.266748
0.266759 0.000000 0.263466
0.407774 0.000000 0.260183
0.549087 0.000000 0.256901
0.690592 0.000000 0.253619
0.832169 0.000000 0.250338
0.973681 0.000000 0.247056
1.000000 0.000000 0.243775
0.000000 0.116781 0.258988
0.115151 0.113510 0.255706
0.255718 0.110240 0.252425
0.396704 0.106970 0.249143
0.537998 0.103700 0.245862
0.679491 0.100430 0.242581
0.821068 0.097161 0.239300
0.962591 0.093892 0.236019
1.000000 0.090624 0.232739
0.000000 0.249595 0.247948
0.104150 0.246314 0.244667
0.244679 0.243032 0.241386
0.385636 0.239752 0.238106
0.526910 0.236471 0.234825
0.668391 0.233190 0.231545
0.809966 0.229910 0.228265
0.951500 0.226630 0.224985
1.000000 0.223351 0.221705
0.000000 0.382788 0.236911
0.093152 0.379498 0.233631
0.233642 0.376209 0.230351
0.374570 0.372920 0.227071
0.515823 0.369631 0.223791
0.657292 0.366342 0.220511
0.798864 0.363053 0.217232
0.940407 0.359765 0.213953
1.000000 0.356477 0.210674
0.000000 0.516265 0.225877
0.082158 0.512970 0.222597
0.222608 0.509674 0.219318
0.363506 0.506379 0.216038
0.504737 0.503084 0.212759
0.646194 0.499789 0.209481
0.787762 0.496494 0.206202
0.929312 0.493200 0.202924
1.000000 0.489905 0.199646
0.000000 0.649936 0.214845
0.071167 0.646637 0.211566
0.211577 0.643338 0.208287
0.352444 0.640039 0.205009
0.493653 0.636740 0.201731
0.635096 0.633441 0.198453
0.776660 0.630142 0.195175
0.918217 0.626843 0.191898
1.000000 0.623545 0.188621
0.000000 0.783703 0.203815
0.060180 0.780403 0.200537
0.200549 0.777103 0.197260
0.341384 0.773802 0.193982
0.482570 0.770502 0.190705
0.623999 0.767202 0.187428
0.765557 0.763902 0.184151
0.907121 0.760601 0.180875
1.000000 0.757301 0.177599
0.000000 0.917459 0.192789
0.049197 0.914161 0.189512
0.189523 0.910862 0.186235
0.330326 0.907563 0.182959
0.471489 0.904265 0.179682
0.612903 0.900966 0.176406
0.754455 0.897667 0.173130
0.896023 0.894368 0.169855
1.000000 0.891069 0.166580
0.000000 1.000000 0.181766
0.038218 1.000000 0.178490
0.178501 1.000000 0.175214
0.319271 1.000000 0.171938
0.460410 1.000000 0.168662
0.601807 1.000000 0.165387
0.743353 1.000000 0.162112
0.884925 1.000000 0.158838
1.000000 1.000000 0.155563
0.000000 0.000000 0.413227
0.125045 0.000000 0.409936
0.265645 0.000000 0.406645
0.406656 0.000000 0.403354
0.547968 0.000000 0.400063
0.689471 0.000000 0.396773
0.831049 0.000000 0.393483
0.972562 0.000000 0.390193
1.000000 0.000000 0.386903
0.000000 0.115670 0.402156
0.114040 0.112400 0.398865
0.254603 0.109129 0.395575
0.395586 0.105859 0.392285
0.536879 0.102589 0.388995
0.678371 0.099320 0.385705
0.819947 0.096051 0.382415
0.961472 0.092782 0.379126
1.000000 0.089514 0.375837
0.000000 0.248480 0.391087
0.103040 0.245199 0.387797
0.243564 0.241918 0.384507
0.384519 0.238637 0.381218
0.525791 0.235357 0.377928
0.667271 0.232077 0.374639
0.808845 0.228796 0.371350
0.950380 0.225517 0.368061
1.000000 0.222237 0.364772
0.000000 0.381671 0.380020
0.092042 0.378381 0.376731
0.232528 0.375092 0.373442
0.373453 0.371803 0.370153
0.514704 0.368514 0.366864
0.656172 0.365225 0.363575
0.797743 0.361936 0.360287
0.939287 0.358648 0.356998
1.000000 0.355360 0.353710
0.000000 0.515146 0.368955
0.081048 0.511851 0.365666
0.221494 0.508555 0.362378
0.362389 0.505260 0.359089
0.503618 0.501965 0.355801
0.645073 0.498670 0.352513
0.786641 0.495375 0.349225
0.928192 0.492081 0.345938
1.000000 0.488786 0.342650
0.000000 0.648815 0.357892
0.070058 0.645516 0.354604
0.210464 0.642217 0.351316
0.351327 0.638918 0.348028
0.492534 0.635619 0.344741
0.633976 0.632321 0.341453
0.775539 0.629022 0.338166
0.917097 0.625723 0.334879
1.000000 0.622425 0.331592
0.000000 0.782582 0.346831
0.059071 0.779282 0.343544
0.199436 0.775982 0.340256
0.340268 0.772682 0.336969
0.481452 0.769381 0.333682
0.622879 0.766081 0.330396
0.764437 0.762781 0.327109
0.906000 0.759481 0.323823
1.000000 0.756180 0.320536
0.000000 0.916339 0.335773
0.048088 0.913040 0.332486
0.188410 0.909742 0.329199
0.329210 0.906443 0.325912
0.470371 0.903144 0.322626
0.611782 0.899846 0.319340
0.753334 0.896547 0.316054
0.894903 0.893248 0.312768
1.000000 0.889949 0.309483
0.000000 1.000000 0.324716
0.037109 1.000000 0.321430
0.177388 1.000000 0.318144
0.318155 1.000000 0.314858
0.459291 1.000000 0.311572
0.600687 1.000000 0.308287
0.742232 1.000000 0.305002
0.883805 1.000000 0.301717
1.000000 1.000000 0.298432
0.000000 0.000000 0.556727
0.123934 0.000000 0.553430
0.264530 0.000000 0.550134
0.405538 0.000000 0.546837
0.546848 0.000000 0.543540
0.688350 0.000000 0.540244
0.829928 0.000000 0.536948
0.971442 0.000000 0.533652
1.000000 0.000000 0.530356
0.000000 0.114559 0.545637
0.112930 0.111289 0.542340
0.253489 0.108019 0.539044
0.394469 0.104749 0.535748
0.535759 0.101479 0.532452
0.677250 0.098210 0.529156
0.818826 0.094941 0.525860
0.960352 0.091672 0.522564
1.000000 0.088404 0.519268
0.000000 0.247366 0.534548
0.101929 0.244085 0.531252
0.242450 0.240804 0.527956
0.383402 0.237523 0.524660
0.524671 0.234243 0.521364
0.666151 0.230963 0.518069
0.807725 0.227683 0.514773
0.949260 0.224403 0.511478
1.000000 0.221123 0.508182
0.000000 0.380553 0.523460
0.090932 0.377264 0.520164
0.231414 0.373975 0.516869
0.372336 0.370686 0.513573
0.513585 0.367397 0.510278
0.655051 0.364108 0.506983
0.796623 0.360820 0.503688
0.938167 0.357531 0.500393
1.000000 0.354243 0.497098
0.000000 0.514027 0.512374
0.079939 0.510732 0.509078
0.220381 0.507436 0.505783
0.361272 0.504141 0.502488
0.502499 0.500846 0.499193
0.643953 0.497551 0.495898
0.785520 0.494257 0.492604
0.927072 0.490962 0.489309
1.000000 0.487667 0.486015
0.000000 0.647695 0.501288
0.068949 0.644396 0.497994
0.209350 0.641097 0.494699
0.350211 0.637798 0.491404
0.491415 0.634499 0.488110
0.632855 0.631200 0.484815
0.774418 0.627902 0.481521
0.915977 0.624603 0.478227
1.000000 0.621304 0.474933
0.000000 0.781462 0.490205
0.057962 0.778161 0.486910
0.198323 0.774861 0.483616
0.339151 0.771561 0.480322
0.480333 0.768261 0.477028
0.621758 0.764960 0.473734
0.763316 0.761660 0.470440
0.904880 0.758360 0.467146
1.000000 0.755060 0.463853
0.000000 0.915219 0.479122
0.046980 0.911920 0.475828
0.187298 0.908622 0.472534
0.328094 0.905323 0.469241
0.469252 0.902024 0.465947
0.610662 0.898725 0.462654
0.752214 0.895426 0.459360
0.893783 0.892127 0.456067
1.000000 0.888828 0.452774
0.000000 1.000000 0.468042
0.036001 1.000000 0.464748
0.176276 1.000000 0.461455
0.317039 1.000000 0.458161
0.458173 1.000000 0.454868
0.599567 1.000000 0.451575
0.741112 1.000000 0.448282
0.882684 1.000000 0.444990
1.000000 1.000000 0.441697
0.000000 0.000000 0.700417
0.122823 0.000000 0.697118
0.263415 0.000000 0.693818
0.404421 0.000000 0.690518
0.545729 0.000000 0.687218
0.687230 0.000000 0.683919
0.828807 0.000000 0.680619
0.970323 0.000000 0.677319
1.000000 0.000000 0.674020
0.000000 0.113449 0.689317
0.111819 0.110178 0.686017
0.252374 0.106908 0.682717
0.393352 0.103638 0.679418
0.534640 0.100369 0.676118
0.676130 0.097100 0.672819
0.817706 0.093831 0.669519
0.959232 0.090562 0.666220
1.000000 0.087294 0.662920
0.000000 0.246252 0.678217
0.100819 0.242971 0.674917
0.241336 0.239690 0.671617
0.382284 0.236409 0.668318
0.523552 0.233129 0.665019
0.665030 0.229849 0.661719
0.806604 0.226569 0.658420
0.948140 0.223289 0.655121
1.000000 0.220010 0.651822
0.000000 0.379436 0.667117
0.089822 0.376147 0.663817
0.230300 0.372858 0.660518
0.371219 0.369569 0.657219
0.512465 0.366280 0.653920
0.653931 0.362991 0.650620
0.795502 0.359703 0.647321
0.937047 0.356415 0.644022
1.000000 0.353127 0.640723
0.000000 0.512908 0.656018
0.078829 0.509612 0.652719
0.219267 0.506317 0.649419
0.360156 0.503022 0.646120
0.501380 0.499727 0.642821
0.642833 0.496432 0.639522
0.784400 0.493138 0.636223
0.925952 0.489843 0.632925
1.000000 0.486549 0.629626
0.000000 0.646574 0.644919
0.067839 0.643275 0.641620
0.208237 0.639977 0.638321
0.349094 0.636678 0.635023
0.490297 0.633379 0.631724
0.631735 0.630080 0.628425
0.773297 0.626781 0.625126
0.914857 0.623483 0.621828
1.000000 0.620184 0.618529
0.000000 0.780341 0.633822
0.056854 0.777041 0.630523
0.197209 0.773740 0.627224
0.338035 0.770440 0.623925
0.479214 0.767140 0.620627
0.620638 0.763840 0.617328
0.762195 0.760539 0.614030
0.903760 0.757239 0.610732
1.000000 0.753939 0.607433
0.000000 0.914098 0.622725
0.045871 0.910800 0.619426
0.186185 0.907501 0.616128
0.326978 0.904203 0.612829
0.468134 0.900904 0.609531
0.609542 0.897605 0.606233
0.751093 0.894306 0.602934
0.892662 0.891007 0.599636
1.000000 0.887708 0.596338
0.000000 1.000000 0.611628
0.034893 1.000000 0.608330
0.175163 1.000000 0.605032
0.315923 1.000000 0.601734
0.457054 1.000000 0.598436
0.598447 1.000000 0.595138
0.739991 1.000000 0.591840
0.881564 1.000000 0.588542
1.000000 1.000000 0.585244
0.000000 0.000000 0.844175
0.121712 0.000000 0.840875
0.262300 0.000000 0.837575
0.403303 0.000000 0.834275
0.544609 0.000000 0.830975
0.686109 0.000000 0.827675
0.827687 0.000000 0.824375
0.969203 0.000000 0.821075
1.000000 0.000000 0.817775
0.000000 0.112338 0.833074
0.110708 0.109068 0.829774
0.251260 0.105798 0.826474
0.392234 0.102528 0.823174
0.533520 0.099259 0.819874
0.675009 0.095989 0.816574
0.816585 0.092721 0.813274
0.958113 0.089452 0.809973
1.000000 0.086184 0.806673
0.000000 0.245137 0.821972
0.099709 0.241856 0.818672
0.240222 0.238576 0.815372
0.381167 0.235295 0.812072
0.522433 0.232015 0.808772
0.663910 0.228735 0.805472
0.805483 0.225455 0.802172
0.947020 0.222175 0.798871
1.000000 0.218896 0.795571
0.000000 0.378319 0.810871
0.088712 0.375030 0.807570
0.229186 0.371741 0.804270
0.370102 0.368452 0.800970
0.511346 0.365163 0.797670
0.652811 0.361875 0.794370
0.794381 0.358586 0.791069
0.935927 0.355298 0.787769
1.000000 0.352010 0.784469
0.000000 0.511789 0.799769
0.077719 0.508493 0.796468
0.218153 0.505198 0.793168
0.359039 0.501903 0.789868
0.500261 0.498608 0.786568
0.641712 0.495313 0.783267
0.783279 0.492019 0.779967
0.924832 0.488724 0.776667
1.000000 0.485430 0.773367
0.000000 0.645454 0.788666
0.066730 0.642155 0.785366
0.207123 0.638856 0.782066
0.347978 0.635557 0.778766
0.489178 0.632259 0.775465
0.630615 0.628960 0.772165
0.772177 0.625661 0.768865
0.913736 0.622362 0.765565
1.000000 0.619064 0.762264
0.000000 0.779220 0.777564
0.055745 0.775920 0.774264
0.196096 0.772620 0.770964
0.336919 0.769319 0.767663
0.478096 0.766019 0.764363
0.619518 0.762719 0.761063
0.761074 0.759419 0.757763
0.902640 0.756118 0.754462
1.000000 0.752818 0.751162
0.000000 0.912978 0.766462
0.044763 0.909680 0.763162
0.185072 0.906381 0.759861
0.325862 0.903082 0.756561
0.467015 0.899784 0.753261
0.608422 0.896485 0.749961
0.749972 0.893186 0.746661
0.891542 0.889887 0.743360
1.000000 0.886588 0.740060
0.000000 1.000000 0.755360
0.033785 1.000000 0.752060
0.174051 1.000000 0.748759
0.314807 1.000000 0.745459
0.455936 1.000000 0.742159
0.597327 1.000000 0.738859
0.738870 1.000000 0.735559
0.880443 1.000000 0.732258
1.000000 1.000000 0.728958
0.000000 0.000000 0.987849
0.120601 0.000000 0.984553
0.261186 0.000000 0.981258
0.402186 0.000000 0.977961
0.543490 0.000000 0.974665
0.684989 0.000000 0.971369
0.826566 0.000000 0.968072
0.968084 0.000000 0.964776
1.000000 0.000000 0.961479
0.000000 0.111227 0.976761
0.109598 0.107957 0.973465
0.250145 0.104687 0.970169
0.391117 0.101418 0.966872
0.532401 0.098148 0.963575
0.673889 0.094879 0.960279
0.815464 0.091611 0.956982
0.956993 0.088342 0.953684
1.000000 0.085074 0.950387
0.000000 0.244023 0.965672
0.098598 0.240742 0.962375
0.239108 0.237462 0.959078
0.380050 0.234181 0.955781
0.521314 0.230901 0.952484
0.662789 0.227621 0.949187
0.804362 0.224341 0.945889
0.945901 0.221062 0.942592
1.000000 0.217782 0.939294
0.000000 0.377202 0.954581
0.087602 0.373913 0.951284
0.228072 0.370624 0.947986
0.368985 0.367335 0.944689
0.510227 0.364046 0.941391
0.651690 0.360758 0.938093
0.793260 0.357469 0.934796
0.934807 0.354181 0.931498
1.000000 0.350893 0.928200
0.000000 0.510670 0.943488
0.076610 0.507374 0.940191
0.217040 0.504079 0.936893
0.357922 0.500784 0.933595
0.499142 0.497489 0.930297
0.640592 0.494195 0.926999
0.782158 0.490900 0.923701
0.923712 0.487605 0.920403
1.000000 0.484311 0.917104
0.000000 0.644334 0.932394
0.065621 0.641035 0.929096
0.206010 0.637736 0.925798
0.346861 0.634437 0.922500
0.488059 0.631138 0.919202
0.629495 0.627840 0.915903
0.771056 0.624541 0.912605
0.912616 0.621242 0.909306
1.000000 0.617944 0.906008
0.000000 0.778099 0.921299
0.054636 0.774799 0.918001
0.194983 0.771499 0.914702
0.335802 0.768199 0.911404
0.476977 0.764898 0.908105
0.618398 0.761598 0.904807
0.759954 0.758298 0.901508
0.901519 0.754998 0.898209
1.000000 0.751697 0.894910
0.000000 0.911858 0.910203
0.043655 0.908559 0.906904
0.183959 0.905261 0.903606
0.324746 0.901962 0.900307
0.465896 0.898663 0.897008
0.607302 0.895364 0.893709
0.748851 0.892065 0.890410
0.890421 0.888766 0.887111
1.000000 0.885467 0.883812
0.000000 1.000000 0.899106
0.032677 1.000000 0.895807
0.172938 1.000000 0.892508
0.313692 1.000000 0.889209
0.454818 1.000000 0.885910
0.596207 1.000000 0.882611
0.737749 1.000000 0.879311
0.879323 1.000000 0.876012
1.000000 1.000000 0.872713
0.000000 0.000000 1.000000
0.119490 0.000000 1.000000
0.260071 0.000000 1.000000
0.401068 0.000000 1.000000
0.542370 0.000000 1.000000
0.683868 0.000000 1.000000
0.825445 0.000000 1.000000
0.966964 0.000000 1.000000
1.000000 0.000000 1.000000
0.000000 0.110117 1.000000
0.108487 0.106847 1.000000
0.249031 0.103577 1.000000
0.390000 0.100307 1.000000
0.531282 0.097038 1.000000
0.672768 0.093769 1.000000
0.814344 0.090501 1.000000
0.955873 0.087232 1.000000
1.000000 0.083964 1.000000
0.000000 0.242909 1.000000
0.097488 0.239628 1.000000
0.237993 0.236347 1.000000
0.378933 0.233067 1.000000
0.520194 0.229787 1.000000
0.661669 0.226507 1.000000
0.803242 0.223227 1.000000
0.944781 0.219948 1.000000
1.000000 0.216669 1.000000
0.000000 0.376085 1.000000
0.086492 0.372796 1.000000
0.226958 0.369507 1.000000
0.367868 0.366218 1.000000
0.509108 0.362929 1.000000
0.650570 0.359641 1.000000
0.792140 0.356353 1.000000
0.933687 0.353065 1.000000
1.000000 0.349777 1.000000
0.000000 0.509550 1.000000
0.075500 0.506255 1.000000
0.215926 0.502960 1.000000
0.356805 0.499665 1.000000
0.498023 0.496370 1.000000
0.639472 0.493076 1.000000
0.781037 0.489781 1.000000
0.922592 0.486487 1.000000
1.000000 0.483192 1.000000
0.000000 0.643213 1.000000
0.064512 0.639914 1.000000
0.204897 0.636616 1.000000
0.345745 0.633317 1.000000
0.486940 0.630018 1.000000
0.628374 0.626719 1.000000
0.769935 0.623421 1.000000
0.911496 0.620122 1.000000
1.000000 0.616824 1.000000
0.000000 0.776978 1.000000
0.053527 0.773678 1.000000
0.193870 0.770378 1.000000
0.334686 0.767078 1.000000
0.475858 0.763777 1.000000
0.617278 0.760477 1.000000
0.758833 0.757177 1.000000
0.900399 0.753877 1.000000
1.000000 0.750577 1.000000
0.000000 0.910738 1.000000
0.042546 0.907439 1.000000
0.182847 0.904141 1.000000
0.323630 0.900842 1.000000
0.464778 0.897543 1.000000
0.606182 0.894244 1.000000
0.747731 0.890945 1.000000
0.889301 0.887646 1.000000
1.000000 0.884347 1.000000
0.000000 1.000000 1.000000
0.031569 1.000000 1.000000
0.171826 1.000000 1.000000
0.312576 1.000000 1.000000
0.453699 1.000000 1.000000
0.595087 1.000000 1.000000
0.736629 1.000000 1.000000
0.878202 1.000000 1.000000
1.000000 1.000000 1.000000
