source/experimental_legacy_banks/bank_a/looks/threshold/look.CUBE
#Created by: Infinite Arch Leica Look Builder
#Unique Leica Look ID: 0
#Based Filmstyle Mode: Standard
TITLE "Threshold"
LUT_3D_SIZE 5
DOMAIN_MIN 0.0 0.0 0.0
DOMAIN_MAX 1.0 1.0 1.0
0.000000 0.000000 0.000000
0.268989 0.000000 0.000000
0.551327 0.000000 0.000000
0.834411 0.000000 0.000000
1.000000 0.000000 0.000000
0.000000 0.251824 0.000000
0.246907 0.245261 0.000000
0.529148 0.238699 0.000000
0.812208 0.232138 0.000000
1.000000 0.225578 0.000000
0.000000 0.518504 0.000000
0.224836 0.511913 0.000000
0.506975 0.505322 0.000000
0.790004 0.498732 0.000000
1.000000 0.492143 0.000000
0.000000 0.785945 0.000000
0.202775 0.779344 0.000000
0.484808 0.772744 0.000000
0.767799 0.766143 0.000000
1.000000 0.759543 0.000000
0.000000 1.000000 0.000000
0.180726 1.000000 0.000000
0.462646 1.000000 0.000000
0.745595 1.000000 0.000000
1.000000 1.000000 0.000000
0.000000 0.000000 0.270031
0.266759 0.000000 0.263466
0.549087 0.000000 0.256901
0.832169 0.000000 0.250338
1.000000 0.000000 0.243775
0.000000 0.249595 0.247948
0.244679 0.243032 0.241386
0.526910 0.236471 0.234825
0.809966 0.229910 0.228265
1.000000 0.223351 0.221705
0.000000 0.516265 0.225877
0.222608 0.509674 0.219318
0.504737 0.503084 0.212759
0.787762 0.496494 0.206202
1.000000 0.489905 0.199646
0.000000 0.783703 0.203815
0.200549 0.777103 0.197260
0.482570 0.770502 0.190705
0.765557 0.763902 0.184151
1.000000 0.757301 0.177599
0.000000 1.000000 0.181766
0.178501 1.000000 0.175214
0.460410 1.000000 0.168662
0.743353 1.000000 0.162112
1.000000 1.000000 0.155563
0.000000 0.000000 0.556727
0.264530 0.000000 0.550134
0.546848 0.000000 0.543540
0.829928 0.000000 0.536948
1.000000 0.000000 0.530356
0.000000 0.247366 0.534548
0.242450 0.240804 0.527956
0.524671 0.234243 0.521364
0.807725 0.227683 0.514773
1.000000 0.221123 0.508182
0.000000 0.514027 0.512374
0.220381 0.507436 0.505783
0.502499 0.500846 0.499193
0.785520 0.494257 0.492604
1.000000 0.487667 0.486015
0.000000 0.781462 0.490205
0.198323 0.774861 0.483616
0.480333 0.768261 0.477028
0.763316 0.761660 0.470440
1.000000 0.755060 0.463853
0.000000 1.000000 0.468042
0.176276 1.000000 0.461455
0.458173 1.000000 0.454868
0.741112 1.000000 0.448282
1.000000 1.000000 0.441697
0.000000 0.000000 0.844175
0.262300 0.000000 0.837575
0.544609 0.000000 0.830975
0.827687 0.000000 0.824375
1.000000 0.000000 0.817775
0.000000 0.245137 0.821972
0.240222 0.238576 0.815372
0.522433 0.232015 0.808772
0.805483 0.225455 0.802172
1.000000 0.218896 0.795571
0.000000 0.511789 0.799769
0.218153 0.505198 0.793168
0.500261 0.498608 0.786568
0.783279 0.492019 0.779967
1.000000 0.485430 0.773367
0.000000 0.779220 0.777564
0.196096 0.772620 0.770964
0.478096 0.766019 0.764363
0.761074 0.759419 0.757763
1.000000 0.752818 0.751162
0.000000 1.000000 0.755360
0.174051 1.000000 0.748759
0.455936 1.000000 0.742159
0.738870 1.000000 0.735559
1.000000 1.000000 0.728958
0.000000 0.000000 1.000000
0.260071 0.000000 1.000000
0.542370 0.000000 1.000000
0.825445 0.000000 1.000000
1.000000 0.000000 1.000000
0.000000 0.242909 1.000000
0.237993 0.236347 1.000000
0.520194 0.229787 1.000000
0.803242 0.223227 1.000000
1.000000 0.216669 1.000000
0.000000 0.509550 1.000000
0.215926 0.502960 1.000000
0.498023 0.496370 1.000000
0.781037 0.489781 1.000000
1.000000 0.483192 1.000000
0.000000 0.776978 1.000000
0.193870 0.770378 1.000000
0.475858 0.763777 1.000000
0.758833 0.757177 1.000000
1.000000 0.750577 1.000000
0.000000 1.000000 1.000000
0.171826 1.000000 1.000000
0.453699 1.000000 1.000000
0.736629 1.000000 1.000000
1.000000 1.000000 1.000000
