source/experimental_legacy_banks/bank_a/looks/threshold/look.CUBE
#Created by: Infinite Arch Leica Look Builder
#Unique Leica Look ID: 0
#Based Filmstyle Mode: Standard
TITLE "Threshold"
LUT_3D_SIZE 17
DOMAIN_MIN 0.0 0.0 0.0
DOMAIN_MAX 1.0 1.0 1.0
0.000000 0.000000 0.000000
0.058264 0.000000 0.000000
0.128378 0.000000 0.000000
0.198625 0.000000 0.000000
0.268989 0.000000 0.000000
0.339455 0.000000 0.000000
0.410009 0.000000 0.000000
0.480637 0.000000 0.000000
0.551327 0.000000 0.000000
0.622063 0.000000 0.000000
0.692833 0.000000 0.000000
0.763621 0.000000 0.000000
0.834411 0.000000 0.000000
0.905185 0.000000 0.000000
0.975920 0.000000 0.000000
1.000000 0.000000 0.000000
1.000000 0.000000 0.000000
0.000000 0.052766 0.000000
0.052772 0.051134 0.000000
0.122875 0.049502 0.000000
0.193112 0.047870 0.000000
0.263468 0.046238 0.000000
0.333926 0.044606 0.000000
0.404474 0.042974 0.000000
0.475097 0.041342 0.000000
0.545782 0.039711 0.000000
0.616515 0.038079 0.000000
0.687282 0.036447 0.000000
0.758070 0.034816 0.000000
0.828860 0.033185 0.000000
0.899636 0.031553 0.000000
0.970375 0.029922 0.000000
1.000000 0.028291 0.000000
1.000000 0.026660 0.000000
0.000000 0.119003 0.000000
0.047281 0.117367 0.000000
0.117373 0.115732 0.000000
0.187600 0.114096 0.000000
0.257947 0.112461 0.000000
0.328398 0.110826 0.000000
0.398939 0.109191 0.000000
0.469556 0.107556 0.000000
0.540237 0.105921 0.000000
0.610967 0.104286 0.000000
0.681732 0.102651 0.000000
0.752518 0.101016 0.000000
0.823309 0.099382 0.000000
0.894087 0.097747 0.000000
0.964830 0.096112 0.000000
1.000000 0.094478 0.000000
1.000000 0.092844 0.000000
0.000000 0.185360 0.000000
0.041791 0.183721 0.000000
0.111871 0.182083 0.000000
0.182089 0.180445 0.000000
0.252427 0.178807 0.000000
0.322870 0.177169 0.000000
0.393404 0.175531 0.000000
0.464016 0.173893 0.000000
0.534692 0.172255 0.000000
0.605419 0.170617 0.000000
0.676182 0.168980 0.000000
0.746967 0.167342 0.000000
0.817759 0.165705 0.000000
0.888538 0.164067 0.000000
0.959285 0.162430 0.000000
1.000000 0.160792 0.000000
1.000000 0.159155 0.000000
0.000000 0.251824 0.000000
0.036303 0.250183 0.000000
0.106371 0.248542 0.000000
0.176578 0.246902 0.000000
0.246907 0.245261 0.000000
0.317343 0.243620 0.000000
0.387870 0.241980 0.000000
0.458477 0.240339 0.000000
0.529148 0.238699 0.000000
0.599872 0.237059 0.000000
0.670633 0.235419 0.000000
0.741416 0.233778 0.000000
0.812208 0.232138 0.000000
0.882989 0.230498 0.000000
0.953739 0.228858 0.000000
1.000000 0.227218 0.000000
1.000000 0.225578 0.000000
0.000000 0.318382 0.000000
0.030815 0.316739 0.000000
0.100871 0.315096 0.000000
0.171068 0.313453 0.000000
0.241388 0.311810 0.000000
0.311816 0.310168 0.000000
0.382337 0.308525 0.000000
0.452938 0.306882 0.000000
0.523605 0.305240 0.000000
0.594324 0.303597 0.000000
0.665083 0.301955 0.000000
0.735865 0.300312 0.000000
0.806657 0.298670 0.000000
0.877439 0.297027 0.000000
0.948193 0.295385 0.000000
1.000000 0.293743 0.000000
1.000000 0.292101 0.000000
0.000000 0.385022 0.000000
0.025328 0.383377 0.000000
0.095372 0.381732 0.000000
0.165559 0.380088 0.000000
0.235870 0.378443 0.000000
0.306290 0.376798 0.000000
0.376804 0.375154 0.000000
0.447399 0.373509 0.000000
0.518061 0.371865 0.000000
0.588777 0.370220 0.000000
0.659533 0.368576 0.000000
0.730314 0.366931 0.000000
0.801106 0.365287 0.000000
0.871890 0.363643 0.000000
0.942647 0.361998 0.000000
1.000000 0.360354 0.000000
1.000000 0.358710 0.000000
0.000000 0.451733 0.000000
0.019842 0.450087 0.000000
0.089874 0.448440 0.000000
0.160051 0.446794 0.000000
0.230353 0.445148 0.000000
0.300764 0.443501 0.000000
0.371272 0.441855 0.000000
0.441861 0.440209 0.000000
0.512518 0.438563 0.000000
0.583231 0.436916 0.000000
0.653984 0.435270 0.000000
0.724764 0.433624 0.000000
0.795555 0.431978 0.000000
0.866340 0.430332 0.000000
0.937100 0.428686 0.000000
1.000000 0.427040 0.000000
1.000000 0.425394 0.000000
0.000000 0.518504 0.000000
0.014357 0.516856 0.000000
0.084377 0.515208 0.000000
0.154543 0.513560 0.000000
0.224836 0.511913 0.000000
0.295239 0.510265 0.000000
0.365740 0.508617 0.000000
0.436323 0.506970 0.000000
0.506975 0.505322 0.000000
0.577684 0.503675 0.000000
0.648435 0.502027 0.000000
0.719213 0.500380 0.000000
0.790004 0.498732 0.000000
0.860790 0.497085 0.000000
0.931553 0.495437 0.000000
1.000000 0.493790 0.000000
1.000000 0.492143 0.000000
0.000000 0.585322 0.000000
0.008874 0.583673 0.000000
0.078881 0.582024 0.000000
0.149036 0.580376 0.000000
0.219320 0.578727 0.000000
0.289715 0.577078 0.000000
0.360208 0.575429 0.000000
0.430785 0.573781 0.000000
0.501433 0.572132 0.000000
0.572138 0.570483 0.000000
0.642885 0.568835 0.000000
0.713662 0.567186 0.000000
0.784452 0.565538 0.000000
0.855240 0.563889 0.000000
0.926005 0.562241 0.000000
0.996723 0.560592 0.000000
1.000000 0.558944 0.000000
0.000000 0.652176 0.000000
0.003391 0.650527 0.000000
0.073386 0.648877 0.000000
0.143530 0.647228 0.000000
0.213804 0.645578 0.000000
0.284191 0.643929 0.000000
0.354677 0.642279 0.000000
0.425248 0.640630 0.000000
0.495891 0.638980 0.000000
0.566592 0.637331 0.000000
0.637337 0.635681 0.000000
0.708111 0.634032 0.000000
0.778901 0.632383 0.000000
0.849690 0.630733 0.000000
0.920457 0.629084 0.000000
0.991180 0.627435 0.000000
1.000000 0.625785 0.000000
0.000000 0.719055 0.000000
0.000000 0.717405 0.000000
0.067892 0.715755 0.000000
0.138025 0.714105 0.000000
0.208289 0.712455 0.000000
0.278668 0.710805 0.000000
0.349147 0.709155 0.000000
0.419712 0.707505 0.000000
0.490349 0.705855 0.000000
0.561046 0.704205 0.000000
0.631788 0.702555 0.000000
0.702561 0.700905 0.000000
0.773350 0.699255 0.000000
0.844139 0.697605 0.000000
0.914909 0.695956 0.000000
0.985637 0.694306 0.000000
1.000000 0.692656 0.000000
0.000000 0.785945 0.000000
0.000000 0.784295 0.000000
0.062398 0.782644 0.000000
0.132521 0.780994 0.000000
0.202775 0.779344 0.000000
0.273146 0.777694 0.000000
0.343617 0.776044 0.000000
0.414176 0.774394 0.000000
0.484808 0.772744 0.000000
0.555500 0.771094 0.000000
0.626239 0.769443 0.000000
0.697011 0.767793 0.000000
0.767799 0.766143 0.000000
0.838589 0.764493 0.000000
0.909361 0.762843 0.000000
0.980093 0.761193 0.000000
1.000000 0.759543 0.000000
0.000000 0.852832 0.000000
0.000000 0.851182 0.000000
0.056906 0.849532 0.000000
0.127017 0.847882 0.000000
0.197262 0.846232 0.000000
0.267624 0.844582 0.000000
0.338088 0.842932 0.000000
0.408640 0.841282 0.000000
0.479267 0.839632 0.000000
0.549955 0.837982 0.000000
0.620691 0.836332 0.000000
0.691460 0.834682 0.000000
0.762248 0.833032 0.000000
0.833038 0.831382 0.000000
0.903813 0.829732 0.000000
0.974549 0.828082 0.000000
1.000000 0.826432 0.000000
0.000000 0.919699 0.000000
0.000000 0.918050 0.000000
0.051414 0.916401 0.000000
0.121514 0.914752 0.000000
0.191749 0.913102 0.000000
0.262102 0.911453 0.000000
0.332559 0.909804 0.000000
0.403105 0.908155 0.000000
0.473726 0.906505 0.000000
0.544410 0.904856 0.000000
0.615143 0.903206 0.000000
0.685910 0.901557 0.000000
0.756697 0.899908 0.000000
0.827487 0.898258 0.000000
0.898264 0.896609 0.000000
0.969004 0.894959 0.000000
1.000000 0.893310 0.000000
0.000000 0.986527 0.000000
0.000000 0.984880 0.000000
0.045924 0.983232 0.000000
0.116012 0.981584 0.000000
0.186237 0.979936 0.000000
0.256582 0.978288 0.000000
0.327031 0.976640 0.000000
0.397570 0.974991 0.000000
0.468186 0.973343 0.000000
0.538866 0.971695 0.000000
0.609595 0.970047 0.000000
0.680360 0.968398 0.000000
0.751146 0.966750 0.000000
0.821937 0.965102 0.000000
0.892715 0.963453 0.000000
0.963459 0.961805 0.000000
1.000000 0.960157 0.000000
0.000000 1.000000 0.000000
0.000000 1.000000 0.000000
0.040434 1.000000 0.000000
0.110511 1.000000 0.000000
0.180726 1.000000 0.000000
0.251062 1.000000 0.000000
0.321503 1.000000 0.000000
0.392036 1.000000 0.000000
0.462646 1.000000 0.000000
0.533321 1.000000 0.000000
0.604047 1.000000 0.000000
0.674810 1.000000 0.000000
0.745595 1.000000 0.000000
0.816386 1.000000 0.000000
0.887166 1.000000 0.000000
0.957914 1.000000 0.000000
1.000000 1.000000 0.000000
0.000000 0.000000 0.056066
0.057709 0.000000 0.054433
0.127822 0.000000 0.052801
0.198069 0.000000 0.051168
0.268432 0.000000 0.049536
0.338897 0.000000 0.047904
0.409450 0.000000 0.046272
0.480078 0.000000 0.044640
0.550767 0.000000 0.043008
0.621503 0.000000 0.041376
0.692272 0.000000 0.039745
0.763060 0.000000 0.038113
0.833850 0.000000 0.036482
0.904625 0.000000 0.034850
0.975360 0.000000 0.033219
1.000000 0.000000 0.031588
1.000000 0.000000 0.029956
0.000000 0.052212 0.050574
0.052218 0.050580 0.048942
0.122319 0.048948 0.047310
0.192556 0.047316 0.045678
0.262910 0.045684 0.044046
0.333368 0.044052 0.042414
0.403915 0.042420 0.040782
0.474537 0.040788 0.039151
0.545222 0.039156 0.037519
0.615955 0.037525 0.035888
0.686722 0.035893 0.034256
0.757509 0.034262 0.032625
0.828300 0.032631 0.030994
0.899076 0.030999 0.029363
0.969816 0.029368 0.027732
1.000000 0.027737 0.026101
1.000000 0.026106 0.024470
0.000000 0.118447 0.045084
0.046727 0.116812 0.043452
0.116817 0.115176 0.041820
0.187044 0.113541 0.040188
0.257390 0.111906 0.038557
0.327840 0.110271 0.036925
0.398380 0.108635 0.035294
0.468997 0.107000 0.033662
0.539677 0.105365 0.032031
0.610407 0.103731 0.030400
0.681172 0.102096 0.028769
0.751958 0.100461 0.027138
0.822749 0.098826 0.025507
0.893527 0.097192 0.023876
0.964271 0.095557 0.022245
1.000000 0.093923 0.020615
1.000000 0.092289 0.018984
0.000000 0.184803 0.039594
0.041237 0.183165 0.037963
0.111316 0.181527 0.036331
0.181533 0.179889 0.034700
0.251869 0.178251 0.033068
0.322312 0.176613 0.031437
0.392846 0.174975 0.029806
0.463457 0.173337 0.028175
0.534133 0.171699 0.026544
0.604859 0.170061 0.024913
0.675622 0.168424 0.023282
0.746407 0.166786 0.021652
0.817198 0.165148 0.020021
0.887978 0.163511 0.018391
0.958725 0.161874 0.016760
1.000000 0.160236 0.015130
1.000000 0.158599 0.013500
0.000000 0.251266 0.034106
0.035749 0.249626 0.032475
0.105816 0.247985 0.030843
0.176022 0.246344 0.029212
0.246350 0.244704 0.027581
0.316785 0.243063 0.025950
0.387312 0.241423 0.024319
0.457918 0.239782 0.022689
0.528589 0.238142 0.021058
0.599312 0.236502 0.019427
0.670072 0.234862 0.017797
0.740856 0.233221 0.016167
0.811647 0.231581 0.014536
0.882429 0.229941 0.012906
0.953179 0.228301 0.011276
1.000000 0.226661 0.009646
1.000000 0.225021 0.008016
0.000000 0.317824 0.028618
0.030261 0.316181 0.026987
0.100316 0.314538 0.025357
0.170512 0.312895 0.023726
0.240831 0.311252 0.022095
0.311258 0.309610 0.020464
0.381778 0.307967 0.018834
0.452379 0.306324 0.017203
0.523045 0.304682 0.015573
0.593764 0.303039 0.013943
0.664523 0.301397 0.012313
0.735305 0.299754 0.010683
0.806096 0.298112 0.009053
0.876879 0.296470 0.007423
0.947633 0.294827 0.005793
1.000000 0.293185 0.004163
1.000000 0.291543 0.002534
0.000000 0.384464 0.023132
0.024774 0.382819 0.021501
0.094817 0.381174 0.019871
0.165003 0.379529 0.018240
0.235313 0.377884 0.016610
0.305732 0.376240 0.014979
0.376245 0.374595 0.013349
0.446840 0.372951 0.011719
0.517502 0.371306 0.010089
0.588217 0.369662 0.008459
0.658973 0.368017 0.006829
0.729754 0.366373 0.005200
0.800545 0.364728 0.003570
0.871329 0.363084 0.001941
0.942087 0.361440 0.000311
1.000000 0.359796 0.000000
1.000000 0.358152 0.000000
0.000000 0.451174 0.017647
0.019288 0.449528 0.016016
0.089319 0.447881 0.014386
0.159495 0.446235 0.012756
0.229796 0.444588 0.011126
0.300207 0.442942 0.009496
0.370713 0.441296 0.007866
0.441302 0.439650 0.006236
0.511959 0.438004 0.004606
0.582671 0.436357 0.002977
0.653424 0.434711 0.001347
0.724203 0.433065 0.000000
0.794994 0.431419 0.000000
0.865780 0.429773 0.000000
0.936540 0.428127 0.000000
1.000000 0.426481 0.000000
1.000000 0.424835 0.000000
0.000000 0.517944 0.012162
0.013804 0.516296 0.010532
0.083823 0.514648 0.008902
0.153987 0.513001 0.007273
0.224279 0.511353 0.005643
0.294682 0.509705 0.004013
0.365181 0.508058 0.002384
0.435764 0.506410 0.000754
0.506416 0.504763 0.000000
0.577124 0.503115 0.000000
0.647874 0.501468 0.000000
0.718652 0.499820 0.000000
0.789443 0.498173 0.000000
0.860230 0.496525 0.000000
0.930993 0.494878 0.000000
1.000000 0.493231 0.000000
1.000000 0.491583 0.000000
0.000000 0.584762 0.006679
0.008320 0.583113 0.005049
0.078326 0.581464 0.003420
0.148480 0.579816 0.001790
0.218763 0.578167 0.000161
0.289157 0.576518 0.000000
0.359650 0.574869 0.000000
0.430226 0.573221 0.000000
0.500874 0.571572 0.000000
0.571578 0.569923 0.000000
0.642325 0.568275 0.000000
0.713102 0.566626 0.000000
0.783892 0.564978 0.000000
0.854680 0.563329 0.000000
0.925445 0.561681 0.000000
0.996164 0.560032 0.000000
1.000000 0.558384 0.000000
0.000000 0.651616 0.001197
0.002838 0.649967 0.000000
0.072831 0.648317 0.000000
0.142975 0.646668 0.000000
0.213247 0.645018 0.000000
0.283634 0.643369 0.000000
0.354119 0.641719 0.000000
0.424689 0.640070 0.000000
0.495332 0.638420 0.000000
0.566032 0.636771 0.000000
0.636776 0.635121 0.000000
0.707551 0.633472 0.000000
0.778341 0.631822 0.000000
0.849129 0.630173 0.000000
0.919897 0.628524 0.000000
0.990621 0.626874 0.000000
1.000000 0.625225 0.000000
0.000000 0.718495 0.000000
0.000000 0.716845 0.000000
0.067337 0.715195 0.000000
0.137469 0.713545 0.000000
0.207733 0.711895 0.000000
0.278111 0.710245 0.000000
0.348589 0.708595 0.000000
0.419153 0.706945 0.000000
0.489790 0.705295 0.000000
0.560486 0.703645 0.000000
0.631228 0.701995 0.000000
0.702001 0.700345 0.000000
0.772790 0.698695 0.000000
0.843579 0.697045 0.000000
0.914349 0.695395 0.000000
0.985077 0.693745 0.000000
1.000000 0.692095 0.000000
0.000000 0.785384 0.000000
0.000000 0.783734 0.000000
0.061844 0.782084 0.000000
0.131965 0.780434 0.000000
0.202219 0.778784 0.000000
0.272588 0.777134 0.000000
0.343059 0.775484 0.000000
0.413617 0.773833 0.000000
0.484249 0.772183 0.000000
0.554941 0.770533 0.000000
0.625679 0.768883 0.000000
0.696450 0.767233 0.000000
0.767239 0.765583 0.000000
0.838028 0.763933 0.000000
0.908801 0.762283 0.000000
0.979534 0.760632 0.000000
1.000000 0.758982 0.000000
0.000000 0.852271 0.000000
0.000000 0.850621 0.000000
0.056351 0.848971 0.000000
0.126461 0.847322 0.000000
0.196705 0.845672 0.000000
0.267066 0.844022 0.000000
0.337530 0.842372 0.000000
0.408081 0.840722 0.000000
0.478708 0.839072 0.000000
0.549395 0.837422 0.000000
0.620131 0.835772 0.000000
0.690900 0.834122 0.000000
0.761688 0.832472 0.000000
0.832478 0.830822 0.000000
0.903252 0.829172 0.000000
0.973989 0.827522 0.000000
1.000000 0.825872 0.000000
0.000000 0.919139 0.000000
0.000000 0.917490 0.000000
0.050860 0.915841 0.000000
0.120959 0.914192 0.000000
0.191193 0.912542 0.000000
0.261545 0.910893 0.000000
0.332001 0.909244 0.000000
0.402546 0.907594 0.000000
0.473167 0.905945 0.000000
0.543851 0.904296 0.000000
0.614583 0.902646 0.000000
0.685350 0.900997 0.000000
0.756136 0.899347 0.000000
0.826927 0.897698 0.000000
0.897704 0.896049 0.000000
0.968444 0.894399 0.000000
1.000000 0.892750 0.000000
0.000000 0.985968 0.000000
0.000000 0.984320 0.000000
0.045369 0.982672 0.000000
0.115457 0.981024 0.000000
0.185681 0.979376 0.000000
0.256024 0.977728 0.000000
0.326473 0.976080 0.000000
0.397011 0.974432 0.000000
0.467627 0.972783 0.000000
0.538306 0.971135 0.000000
0.609035 0.969487 0.000000
0.679800 0.967839 0.000000
0.750585 0.966190 0.000000
0.821376 0.964542 0.000000
0.892155 0.962894 0.000000
0.962899 0.961245 0.000000
1.000000 0.959597 0.000000
0.000000 1.000000 0.000000
0.000000 1.000000 0.000000
0.039880 1.000000 0.000000
0.109956 1.000000 0.000000
0.180170 1.000000 0.000000
0.250504 1.000000 0.000000
0.320945 1.000000 0.000000
0.391477 1.000000 0.000000
0.462087 1.000000 0.000000
0.532762 1.000000 0.000000
0.603487 1.000000 0.000000
0.674250 1.000000 0.000000
0.745034 1.000000 0.000000
0.815825 1.000000 0.000000
0.886606 1.000000 0.000000
0.957354 1.000000 0.000000
1.000000 1.000000 0.000000
0.000000 0.000000 0.127256
0.057155 0.000000 0.125620
0.127267 0.000000 0.123984
0.197512 0.000000 0.122348
0.267874 0.000000 0.120713
0.338339 0.000000 0.119077
0.408891 0.000000 0.117441
0.479519 0.000000 0.115806
0.550207 0.000000 0.114171
0.620943 0.000000 0.112535
0.691712 0.000000 0.110900
0.762500 0.000000 0.109265
0.833290 0.000000 0.107630
0.904065 0.000000 0.105995
0.974801 0.000000 0.104360
1.000000 0.000000 0.102725
1.000000 0.000000 0.101091
0.000000 0.051658 0.121753
0.051663 0.050026 0.120117
0.121764 0.048393 0.118482
0.191999 0.046761 0.116846
0.262353 0.045129 0.115211
0.332810 0.043497 0.113575
0.403356 0.041866 0.111940
0.473978 0.040234 0.110305
0.544662 0.038602 0.108670
0.615395 0.036971 0.107035
0.686162 0.035339 0.105400
0.756949 0.033708 0.103765
0.827739 0.032077 0.102130
0.898516 0.030445 0.100495
0.969256 0.028814 0.098861
1.000000 0.027183 0.097226
1.000000 0.025552 0.095592
0.000000 0.117892 0.116251
0.046173 0.116256 0.114615
0.116262 0.114621 0.112980
0.186487 0.112986 0.111345
0.256832 0.111350 0.109710
0.327282 0.109715 0.108075
0.397821 0.108080 0.106440
0.468438 0.106445 0.104805
0.539117 0.104810 0.103170
0.609847 0.103175 0.101535
0.680612 0.101541 0.099900
0.751398 0.099906 0.098266
0.822189 0.098271 0.096631
0.892967 0.096637 0.094997
0.963711 0.095002 0.093362
1.000000 0.093368 0.091728
1.000000 0.091734 0.090094
0.000000 0.184247 0.110749
0.040683 0.182609 0.109114
0.110761 0.180971 0.107479
0.180976 0.179332 0.105844
0.251312 0.177694 0.104209
0.321754 0.176056 0.102575
0.392287 0.174418 0.100940
0.462898 0.172781 0.099305
0.533573 0.171143 0.097671
0.604299 0.169505 0.096036
0.675062 0.167867 0.094402
0.745847 0.166230 0.092767
0.816638 0.164592 0.091133
0.887418 0.162955 0.089499
0.958165 0.161317 0.087865
1.000000 0.159680 0.086231
1.000000 0.158043 0.084597
0.000000 0.250709 0.105249
0.035195 0.249069 0.103614
0.105260 0.247428 0.101979
0.175466 0.245787 0.100345
0.245793 0.244147 0.098710
0.316227 0.242506 0.097076
0.386753 0.240866 0.095441
0.457358 0.239225 0.093807
0.528029 0.237585 0.092172
0.598752 0.235945 0.090538
0.669512 0.234305 0.088904
0.740296 0.232664 0.087270
0.811087 0.231024 0.085636
0.881868 0.229384 0.084002
0.952619 0.227744 0.082368
1.000000 0.226104 0.080734
1.000000 0.224464 0.079100
0.000000 0.317266 0.099750
0.029707 0.315623 0.098115
0.099761 0.313980 0.096480
0.169956 0.312337 0.094846
0.240274 0.310694 0.093212
0.310700 0.309052 0.091577
0.381220 0.307409 0.089943
0.451819 0.305767 0.088309
0.522485 0.304124 0.086675
0.593204 0.302481 0.085041
0.663962 0.300839 0.083407
0.734745 0.299197 0.081773
0.805536 0.297554 0.080139
0.876319 0.295912 0.078506
0.947073 0.294270 0.076872
1.000000 0.292627 0.075239
1.000000 0.290985 0.073605
0.000000 0.383905 0.094251
0.024220 0.382260 0.092617
0.094262 0.380615 0.090982
0.164447 0.378971 0.089348
0.234756 0.377326 0.087714
0.305174 0.375681 0.086080
0.375687 0.374037 0.084446
0.446281 0.372392 0.082812
0.516942 0.370748 0.081178
0.587657 0.369103 0.079545
0.658413 0.367459 0.077911
0.729194 0.365814 0.076277
0.799985 0.364170 0.074644
0.870769 0.362526 0.073011
0.941527 0.360882 0.071377
1.000000 0.359237 0.069744
1.000000 0.357593 0.068111
0.000000 0.450615 0.088753
0.018735 0.448968 0.087119
0.088765 0.447322 0.085485
0.158939 0.445676 0.083851
0.229239 0.444029 0.082217
0.299649 0.442383 0.080584
0.370155 0.440737 0.078950
0.440743 0.439091 0.077316
0.511399 0.437445 0.075683
0.582111 0.435798 0.074049
0.652863 0.434152 0.072416
0.723643 0.432506 0.070783
0.794434 0.430860 0.069149
0.865219 0.429214 0.067516
0.935980 0.427568 0.065883
1.000000 0.425922 0.064250
1.000000 0.424277 0.062617
0.000000 0.517384 0.083256
0.013250 0.515737 0.081623
0.083268 0.514089 0.079989
0.153431 0.512441 0.078355
0.223722 0.510794 0.076722
0.294124 0.509146 0.075088
0.364623 0.507498 0.073455
0.435205 0.505851 0.071821
0.505856 0.504203 0.070188
0.576564 0.502556 0.068555
0.647314 0.500908 0.066922
0.718092 0.499261 0.065289
0.788883 0.497613 0.063656
0.859669 0.495966 0.062023
0.930433 0.494319 0.060390
1.000000 0.492671 0.058757
1.000000 0.491024 0.057125
0.000000 0.584202 0.077760
0.007767 0.582553 0.076127
0.077772 0.580904 0.074493
0.147925 0.579256 0.072860
0.218206 0.577607 0.071227
0.288600 0.575958 0.069593
0.359091 0.574310 0.067960
0.429667 0.572661 0.066327
0.500314 0.571012 0.064694
0.571018 0.569364 0.063061
0.641765 0.567715 0.061428
0.712541 0.566066 0.059796
0.783332 0.564418 0.058163
0.854119 0.562769 0.056530
0.924885 0.561121 0.054898
0.995604 0.559472 0.053266
1.000000 0.557824 0.051633
0.000000 0.651056 0.072265
0.002284 0.649406 0.070632
0.072277 0.647757 0.068999
0.142419 0.646107 0.067366
0.212691 0.644458 0.065733
0.283076 0.642808 0.064100
0.353561 0.641159 0.062467
0.424130 0.639509 0.060834
0.494772 0.637860 0.059201
0.565472 0.636211 0.057569
0.636216 0.634561 0.055936
0.706991 0.632912 0.054304
0.777781 0.631262 0.052671
0.848569 0.629613 0.051039
0.919337 0.627964 0.049407
0.990061 0.626314 0.047775
1.000000 0.624665 0.046143
0.000000 0.717934 0.066771
0.000000 0.716284 0.065138
0.066782 0.714634 0.063505
0.136914 0.712984 0.061872
0.207176 0.711334 0.060240
0.277553 0.709684 0.058607
0.348030 0.708034 0.056974
0.418594 0.706384 0.055342
0.489230 0.704734 0.053709
0.559926 0.703085 0.052077
0.630668 0.701435 0.050445
0.701440 0.699785 0.048813
0.772229 0.698135 0.047180
0.843019 0.696485 0.045548
0.913789 0.694835 0.043917
0.984518 0.693185 0.042285
1.000000 0.691535 0.040653
0.000000 0.784824 0.061278
0.000000 0.783174 0.059645
0.061289 0.781524 0.058013
0.131409 0.779874 0.056380
0.201662 0.778223 0.054747
0.272031 0.776573 0.053115
0.342501 0.774923 0.051483
0.413058 0.773273 0.049851
0.483689 0.771623 0.048218
0.554381 0.769973 0.046586
0.625119 0.768323 0.044954
0.695890 0.766673 0.043322
0.766678 0.765022 0.041691
0.837468 0.763372 0.040059
0.908241 0.761722 0.038427
0.978974 0.760072 0.036796
1.000000 0.758422 0.035164
0.000000 0.851711 0.055786
0.000000 0.850061 0.054153
0.055797 0.848411 0.052521
0.125906 0.846761 0.050889
0.196149 0.845111 0.049256
0.266509 0.843461 0.047624
0.336971 0.841811 0.045992
0.407522 0.840162 0.044360
0.478148 0.838512 0.042728
0.548836 0.836862 0.041097
0.619571 0.835212 0.039465
0.690340 0.833562 0.037833
0.761127 0.831912 0.036202
0.831917 0.830262 0.034570
0.902692 0.828612 0.032939
0.973430 0.826962 0.031308
1.000000 0.825312 0.029677
0.000000 0.918579 0.050294
0.000000 0.916930 0.048662
0.050306 0.915281 0.047030
0.120403 0.913631 0.045398
0.190636 0.911982 0.043766
0.260988 0.910333 0.042134
0.331443 0.908684 0.040503
0.401987 0.907034 0.038871
0.472608 0.905385 0.037239
0.543291 0.903736 0.035608
0.614023 0.902086 0.033976
0.684789 0.900437 0.032345
0.755576 0.898787 0.030714
0.826367 0.897138 0.029083
0.897144 0.895488 0.027452
0.967885 0.893839 0.025821
1.000000 0.892189 0.024190
0.000000 0.985408 0.044804
0.000000 0.983760 0.043172
0.044815 0.982112 0.041540
0.114901 0.980464 0.039909
0.185124 0.978816 0.038277
0.255467 0.977168 0.036645
0.325915 0.975520 0.035014
0.396453 0.973872 0.033383
0.467068 0.972224 0.031751
0.537746 0.970576 0.030120
0.608475 0.968927 0.028489
0.679239 0.967279 0.026858
0.750025 0.965631 0.025227
0.820816 0.963982 0.023596
0.891595 0.962334 0.021966
0.962339 0.960685 0.020335
1.000000 0.959037 0.018704
0.000000 1.000000 0.039314
0.000000 1.000000 0.037683
0.039326 1.000000 0.036051
0.109400 1.000000 0.034420
0.179613 1.000000 0.032789
0.249947 1.000000 0.031157
0.320387 1.000000 0.029526
0.390918 1.000000 0.027895
0.461528 1.000000 0.026264
0.532202 1.000000 0.024633
0.602927 1.000000 0.023003
0.673689 1.000000 0.021372
0.744474 1.000000 0.019741
0.815265 1.000000 0.018111
0.886045 1.000000 0.016480
0.956794 1.000000 0.014850
1.000000 1.000000 0.013220
0.000000 0.000000 0.198583
0.056601 0.000000 0.196944
0.126711 0.000000 0.195305
0.196956 0.000000 0.193667
0.267317 0.000000 0.192028
0.337781 0.000000 0.190390
0.408332 0.000000 0.188751
0.478959 0.000000 0.187113
0.549647 0.000000 0.185474
0.620383 0.000000 0.183836
0.691152 0.000000 0.182198
0.761940 0.000000 0.180560
0.832730 0.000000 0.178921
0.903504 0.000000 0.177283
0.974241 0.000000 0.175645
