working/Infinite_Arch_Leica_Looks_v1.2/looks/natura/look.CUBE
#Created by: Infinite Arch Leica Looks v1.1
#Unique Leica Look ID: 1008
#Based Filmstyle Mode: Standard
TITLE "IA Natura"
#LUT size
LUT_3D_SIZE 5
#data domain
DOMAIN_MIN 0.0 0.0 0.0
DOMAIN_MAX 1.0 1.0 1.0
#LUT data points
0.006000 0.006000 0.006000
0.190944 0.009082 0.007064
0.494891 0.013368 0.008553
0.797187 0.018843 0.010417
0.976897 0.025079 0.012416
0.003958 0.204436 0.026643
0.173671 0.206337 0.015859
0.480485 0.215574 0.011960
0.785263 0.220470 0.012413
0.969718 0.223949 0.011840
0.003123 0.527825 0.052256
0.164651 0.528914 0.027953
0.469683 0.524456 0.020506
0.792977 0.529734 0.006718
0.984172 0.531369 0.003819
0.027592 0.832794 0.072833
0.180991 0.833927 0.030249
0.477644 0.823829 0.026859
0.793220 0.819254 0.017642
0.994772 0.825970 0.005218
0.051567 0.999307 0.100204
0.185922 0.997695 0.040239
0.476489 0.995025 0.040079
0.778809 0.992856 0.038185
0.983152 0.991248 0.029300
0.024441 0.040095 0.187969
0.187642 0.018947 0.194383
0.493957 0.028140 0.207504
0.794888 0.037315 0.217206
0.973593 0.044244 0.221069
0.007131 0.202560 0.193115
0.176973 0.206748 0.197207
0.479716 0.222905 0.210020
0.790962 0.240421 0.217844
0.971444 0.260307 0.226058
0.005453 0.521650 0.253012
0.197850 0.523351 0.232829
0.476012 0.522746 0.211619
0.800528 0.529570 0.199222
0.985930 0.528260 0.195496
0.030601 0.825601 0.299049
0.238647 0.823499 0.265413
0.501318 0.826613 0.234430
0.791248 0.818051 0.217913
0.994762 0.822309 0.203028
0.053515 0.998304 0.347260
0.267855 0.995783 0.308579
0.508293 0.994022 0.257653
0.778190 0.991625 0.240046
0.978514 0.990904 0.236467
0.048834 0.091488 0.488311
0.207288 0.055254 0.499385
0.485824 0.037048 0.504199
0.794385 0.047496 0.521787
0.971427 0.060091 0.532064
0.034144 0.297171 0.500802
0.224834 0.275925 0.503640
0.480868 0.239977 0.507100
0.792418 0.258725 0.510963
0.973046 0.271426 0.515844
0.014218 0.521113 0.496591
0.206125 0.521085 0.500122
0.484135 0.521153 0.499890
0.796909 0.537169 0.516512
0.988514 0.541961 0.521541
0.037561 0.822997 0.560263
0.245619 0.809791 0.537828
0.529075 0.818116 0.530753
0.804508 0.814155 0.513726
0.994634 0.818284 0.511916
0.057901 0.997352 0.620544
0.275317 0.992128 0.594523
0.558425 0.992957 0.579514
0.804753 0.991605 0.549454
0.986274 0.990496 0.536916
0.079096 0.157296 0.793399
0.231088 0.090703 0.808448
0.500851 0.083743 0.806648
0.784056 0.058908 0.813103
0.970344 0.067147 0.824445
0.071524 0.392960 0.802547
0.278209 0.349458 0.807240
0.508030 0.303287 0.810786
0.789598 0.271524 0.814314
0.975130 0.283307 0.809392
0.059526 0.621933 0.804175
0.283737 0.605548 0.802384
0.550661 0.586838 0.799701
0.800785 0.548886 0.802256
0.990900 0.563190 0.809884
0.050612 0.821039 0.791668
0.260362 0.818010 0.794504
0.535259 0.812871 0.794104
0.808680 0.812935 0.798293
0.994258 0.825770 0.816911
0.065969 0.996428 0.848970
0.282522 0.992504 0.841456
0.560056 0.989126 0.832384
0.826576 0.991062 0.830575
0.989185 0.990208 0.821785
0.116560 0.233530 0.989037
0.252828 0.133963 0.994365
0.533607 0.132722 0.995566
0.794313 0.109670 0.995862
0.966379 0.081066 0.996381
0.119439 0.485544 0.989326
0.344689 0.434449 0.993377
0.546788 0.366168 0.993784
0.809332 0.341746 0.992254
0.976912 0.297849 0.991060
0.117853 0.714316 0.986070
0.359023 0.688959 0.985051
0.619647 0.661682 0.984966
0.831446 0.605563 0.985107
0.992374 0.572463 0.984294
0.101425 0.892939 0.983466
0.336342 0.881784 0.983998
0.616242 0.871933 0.984364
0.854755 0.860779 0.984601
0.993763 0.832805 0.986190
0.079675 0.995207 0.981659
0.298603 0.993169 0.984612
0.575894 0.991336 0.987135
0.831777 0.989617 0.987938
0.990000 0.990000 0.990000
