working/Infinite_Arch_Leica_Looks_v1.2/looks/natura/look.CUBE
#Created by: Infinite Arch Leica Looks v1.1
#Unique Leica Look ID: 1008
#Based Filmstyle Mode: Standard
TITLE "IA Natura"
#LUT size
LUT_3D_SIZE 17
#data domain
DOMAIN_MIN 0.0 0.0 0.0
DOMAIN_MAX 1.0 1.0 1.0
#LUT data points
0.006000 0.006000 0.006000
0.034467 0.006668 0.006229
0.076041 0.007401 0.006482
0.128830 0.008205 0.006760
0.190944 0.009082 0.007064
0.260494 0.010036 0.007396
0.335592 0.011068 0.007755
0.414353 0.012179 0.008141
0.494891 0.013368 0.008553
0.575324 0.014633 0.008989
0.653770 0.015971 0.009447
0.728350 0.017377 0.009925
0.797187 0.018843 0.010417
0.858405 0.020363 0.010920
0.910132 0.021926 0.011428
0.950494 0.023521 0.011934
0.976897 0.025079 0.012416
0.006521 0.036321 0.010178
0.032320 0.036484 0.007843
0.074194 0.037681 0.006849
0.126881 0.038479 0.007085
0.188976 0.039454 0.007348
0.258442 0.040588 0.007637
0.333350 0.041857 0.007951
0.411928 0.043196 0.008285
0.492286 0.044586 0.008637
0.572548 0.046018 0.009002
0.650847 0.047500 0.009377
0.725309 0.049022 0.009757
0.794063 0.050575 0.010137
0.855238 0.052147 0.010509
0.906965 0.053726 0.010867
0.947375 0.055300 0.011205
0.973841 0.056729 0.011502
0.006329 0.080790 0.015033
0.029639 0.081331 0.011038
0.070065 0.081387 0.010174
0.124020 0.083276 0.008032
0.185443 0.084882 0.008372
0.254617 0.086197 0.008723
0.329633 0.087338 0.009083
0.408343 0.088744 0.009456
0.488810 0.090263 0.009834
0.569144 0.091887 0.010211
0.647548 0.093530 0.010580
0.722023 0.095261 0.010936
0.790830 0.096987 0.011270
0.852100 0.098694 0.011574
0.903964 0.100370 0.011841
0.944552 0.102002 0.012065
0.971123 0.103193 0.012230
0.005411 0.137515 0.020552
0.026598 0.138847 0.014141
0.065533 0.138075 0.014135
0.117568 0.138783 0.012934
0.182248 0.142644 0.010721
0.250903 0.143002 0.009932
0.325299 0.145266 0.010317
0.403728 0.146864 0.010680
0.484255 0.148251 0.011023
0.564890 0.149530 0.011342
0.643612 0.151050 0.011635
0.718575 0.152534 0.011891
0.787790 0.154105 0.012104
0.849461 0.155664 0.012266
0.901747 0.157155 0.012371
0.942765 0.158566 0.012413
0.969630 0.159394 0.012392
0.003958 0.204436 0.026643
0.023052 0.206270 0.017586
0.062089 0.206088 0.017645
0.111629 0.205105 0.017321
0.173671 0.206337 0.015859
0.247836 0.212537 0.013770
0.322014 0.211499 0.011425
0.400205 0.213340 0.011710
0.480485 0.215574 0.011960
0.561069 0.217142 0.012158
0.640009 0.218475 0.012302
0.715430 0.219510 0.012388
0.785263 0.220470 0.012413
0.847586 0.221635 0.012372
0.900535 0.222704 0.012260
0.942208 0.223671 0.012076
0.969718 0.223949 0.011840
0.002388 0.279316 0.033123
0.019420 0.281443 0.021109
0.058469 0.281936 0.021037
0.108045 0.280726 0.021033
0.167231 0.279917 0.020260
0.237675 0.281361 0.018502
0.320038 0.289770 0.016341
0.398104 0.288096 0.013243
0.478529 0.288214 0.012400
0.559203 0.290295 0.012408
0.638303 0.292106 0.012344
0.713930 0.293341 0.012210
0.784206 0.294222 0.012004
0.847127 0.294892 0.011728
0.900760 0.295334 0.011383
0.943126 0.295675 0.010970
0.971543 0.295431 0.010522
0.001300 0.359778 0.039733
0.016226 0.361959 0.024455
0.055420 0.363014 0.024226
0.105553 0.362009 0.024158
0.164088 0.360287 0.023759
0.231983 0.359792 0.022503
0.309038 0.361049 0.020351
0.398229 0.371323 0.017931
0.478568 0.369426 0.014444
0.559398 0.367654 0.011945
0.638797 0.368353 0.011654
0.714759 0.370440 0.011268
0.785357 0.371605 0.010822
0.848643 0.372369 0.010316
0.902772 0.372705 0.009757
0.945672 0.372969 0.009147
0.974959 0.372272 0.008531
0.001358 0.443399 0.046191
0.014123 0.445584 0.027401
0.053669 0.446850 0.027023
0.104235 0.446143 0.026658
0.163512 0.444272 0.026301
0.230005 0.442271 0.025390
0.304904 0.441871 0.023615
0.386906 0.442802 0.021031
0.481212 0.454593 0.018189
0.562157 0.452576 0.014416
0.641458 0.449733 0.010893
0.717605 0.449031 0.009629
0.788455 0.449722 0.009001
0.852049 0.451339 0.008302
0.906417 0.451868 0.007596
0.949588 0.452227 0.006870
0.979424 0.451741 0.006163
0.003123 0.527825 0.052256
0.013575 0.529956 0.029728
0.053602 0.531261 0.029160
0.104587 0.530768 0.028470
0.164651 0.528914 0.027953
0.231405 0.526463 0.027171
0.304536 0.524355 0.025737
0.384705 0.523926 0.023486
0.469683 0.524456 0.020506
0.566932 0.537481 0.017233
0.646524 0.535321 0.013320
0.722265 0.532112 0.009383
0.792977 0.529734 0.006718
0.856588 0.529531 0.005998
0.910996 0.530306 0.005249
0.954236 0.531570 0.004499
0.984172 0.531369 0.003819
0.006889 0.610867 0.057810
0.014823 0.612916 0.031345
0.055365 0.614118 0.030591
0.106765 0.613836 0.029592
0.167411 0.612032 0.028860
0.234894 0.609489 0.028075
0.307447 0.606686 0.026883
0.385748 0.604669 0.025000
0.469126 0.604160 0.022411
0.554881 0.604315 0.019168
0.652454 0.618316 0.015696
0.728520 0.616178 0.011771
0.798693 0.612965 0.007704
0.861745 0.609620 0.004189
0.915808 0.608473 0.003031
0.958731 0.608095 0.002442
0.988450 0.608805 0.001887
0.012577 0.690549 0.062907
0.017798 0.692540 0.032323
0.058811 0.693615 0.031432
0.110521 0.693283 0.030287
0.171488 0.691763 0.029276
0.239530 0.689255 0.028458
0.312456 0.686357 0.027438
0.389503 0.683531 0.025945
0.470559 0.681574 0.023786
0.555052 0.681080 0.021053
0.639339 0.680974 0.017747
0.734261 0.695663 0.014429
0.804579 0.693634 0.010679
0.867052 0.690633 0.006679
0.920327 0.687191 0.003079
0.962657 0.684715 0.000907
0.991788 0.683701 0.000607
0.019725 0.765081 0.067787
0.022074 0.767028 0.032890
0.063298 0.767822 0.031932
0.115278 0.767627 0.030756
0.176239 0.766220 0.029628
0.244566 0.763977 0.028767
0.317871 0.761211 0.027913
0.394488 0.758246 0.026771
0.473907 0.755525 0.025152
0.556140 0.753927 0.022924
0.639155 0.753350 0.020233
0.719748 0.753094 0.017051
0.808944 0.768074 0.014221
0.871373 0.766228 0.010780
0.924068 0.763526 0.006959
0.965585 0.760155 0.003372
0.993935 0.756385 0.000491
0.027592 0.832794 0.072833
0.027169 0.834678 0.033577
0.068213 0.835228 0.032494
0.120151 0.835022 0.031406
0.180991 0.833927 0.030249
0.249245 0.831918 0.029468
0.322671 0.829414 0.028794
0.399252 0.826642 0.027993
0.477644 0.823829 0.026859
0.557978 0.821500 0.025241
0.638959 0.820148 0.023111
0.718407 0.819576 0.020597
0.793220 0.819254 0.017642
0.873764 0.833983 0.015470
0.926329 0.832377 0.012369
0.967333 0.830040 0.008737
0.994772 0.825970 0.005218
0.035343 0.892054 0.078476
0.034962 0.893750 0.037359
0.072793 0.894162 0.033517
0.124476 0.893914 0.032622
0.185034 0.892971 0.031654
0.252963 0.891356 0.030925
0.326298 0.889233 0.030432
0.402852 0.886804 0.029960
0.480982 0.884242 0.029261
0.559835 0.881799 0.028196
0.638842 0.879871 0.026658
0.716539 0.878760 0.024683
0.790499 0.878249 0.022369
0.857641 0.877922 0.019625
0.926859 0.891721 0.018048
0.967748 0.890399 0.015213
0.994414 0.886665 0.011561
0.042260 0.941199 0.085083
0.041960 0.942634 0.042129
0.076419 0.942927 0.035316
0.127735 0.942633 0.034682
0.187913 0.941841 0.033951
0.255355 0.940539 0.033342
0.328417 0.938818 0.033038
0.404891 0.936828 0.032820
0.482883 0.934690 0.032486
0.561003 0.932524 0.031865
0.638554 0.930528 0.030853
0.714542 0.929036 0.029364
0.787206 0.928190 0.027494
0.853915 0.927775 0.025296
0.911649 0.927487 0.022652
0.967048 0.939537 0.021419
0.993356 0.936376 0.018443
0.047907 0.978523 0.092853
0.047705 0.979625 0.048102
0.078742 0.979777 0.038050
0.129665 0.979414 0.037691
0.189457 0.978742 0.037194
0.256395 0.977737 0.036673
0.329152 0.976430 0.036515
0.405509 0.974915 0.036486
0.483447 0.973281 0.036430
0.561300 0.971585 0.036141
0.637879 0.969919 0.035510
0.712576 0.968431 0.034459
0.783931 0.967381 0.032918
0.849886 0.966796 0.031035
0.907653 0.966491 0.028818
0.954303 0.966266 0.026129
0.992078 0.973778 0.024677
0.051567 0.999307 0.100204
0.051335 0.999567 0.054302
0.078337 0.999158 0.040805
0.127762 0.998417 0.040579
0.185922 0.997695 0.040239
0.251330 0.996993 0.039881
0.322768 0.996311 0.039785
0.398480 0.995653 0.039909
0.476489 0.995025 0.040079
0.554981 0.994431 0.040125
0.632403 0.993873 0.039893
0.707477 0.993348 0.039278
0.778809 0.992856 0.038185
0.844341 0.992398 0.036571
0.901851 0.991976 0.034553
0.948933 0.991592 0.032159
0.983152 0.991248 0.029300
0.009995 0.012787 0.034202
0.034014 0.008758 0.035061
0.075988 0.010291 0.036794
0.128692 0.011656 0.038064
0.190743 0.012651 0.038733
0.260238 0.013563 0.039129
0.335296 0.014450 0.039402
0.414015 0.015389 0.039621
0.494520 0.016376 0.039829
0.574930 0.017407 0.040038
0.653359 0.018495 0.040242
0.727928 0.019636 0.040446
0.796762 0.020824 0.040649
0.857983 0.022053 0.040850
0.909720 0.023312 0.041045
0.950100 0.024594 0.041232
0.976500 0.025802 0.041279
0.007300 0.036037 0.034851
0.032764 0.036513 0.035403
0.073994 0.038692 0.037218
0.127785 0.041344 0.038563
0.188480 0.044864 0.040339
0.257396 0.047869 0.041299
0.331885 0.050193 0.041746
0.410255 0.051431 0.042201
0.490439 0.052645 0.042637
0.570676 0.053674 0.043172
0.648988 0.054697 0.043700
0.723503 0.055718 0.044219
0.792352 0.056734 0.044726
0.853632 0.058445 0.045237
0.905502 0.060148 0.045724
0.946094 0.061830 0.046179
0.973019 0.063362 0.046517
0.006571 0.079989 0.043328
0.033632 0.080781 0.041063
0.070507 0.081442 0.038755
0.124877 0.083707 0.037868
0.185922 0.085208 0.038194
0.254569 0.089454 0.038632
0.328992 0.092892 0.038456
0.407485 0.093475 0.038202
0.487723 0.093658 0.038029
0.568109 0.093469 0.037896
0.646560 0.093399 0.037949
0.721201 0.093416 0.038084
0.790170 0.093492 0.038272
0.851477 0.094988 0.038629
0.903412 0.096479 0.038957
0.944110 0.097949 0.039246
0.971094 0.099150 0.039419
0.005493 0.136283 0.051588
0.033557 0.137266 0.047684
0.068292 0.139470 0.044050
0.116699 0.139072 0.042215
0.181773 0.142250 0.040617
0.251494 0.141917 0.039582
0.325989 0.142037 0.038410
0.404317 0.144202 0.037233
0.484784 0.146198 0.036250
0.565549 0.146708 0.035318
0.644432 0.146286 0.034475
0.719549 0.145374 0.033596
0.788672 0.144248 0.033114
0.850027 0.144711 0.033054
0.902059 0.145258 0.032976
0.942894 0.145846 0.032865
0.969762 0.145942 0.032648
0.003959 0.202910 0.060035
0.033288 0.205162 0.055279
0.066887 0.208248 0.048969
0.110776 0.203871 0.045858
0.170215 0.205930 0.045626
0.246809 0.215512 0.044054
0.322062 0.210553 0.041872
0.401214 0.208660 0.039634
0.481900 0.207745 0.037579
0.562623 0.208644 0.036037
0.641606 0.209201 0.034385
0.717101 0.208915 0.032821
0.786979 0.207913 0.031201
0.848963 0.207221 0.030184
0.901515 0.206535 0.029297
0.942777 0.205906 0.028416
0.969543 0.204296 0.027482
0.002364 0.277551 0.068668
0.033104 0.281115 0.063460
0.066056 0.287226 0.055082
0.112775 0.282255 0.052473
0.166981 0.279421 0.049957
0.232805 0.280671 0.048962
0.318969 0.296585 0.047190
0.397873 0.288139 0.044036
0.479044 0.284366 0.041043
0.560685 0.281627 0.038503
0.640312 0.280376 0.036372
0.715969 0.279913 0.034294
0.786091 0.279228 0.032021
0.848512 0.278265 0.029862
0.901713 0.276987 0.028044
0.943602 0.275611 0.026305
0.970919 0.272853 0.024616
0.001305 0.357838 0.077305
0.033516 0.362264 0.071563
0.064405 0.369416 0.060032
0.114772 0.367753 0.058569
0.167863 0.360290 0.055154
0.233879 0.360060 0.053417
0.303283 0.360228 0.051589
0.397441 0.378479 0.049237
0.478372 0.370421 0.045480
0.559672 0.365769 0.041775
0.639830 0.361542 0.038552
0.716468 0.358321 0.035855
0.787359 0.356167 0.033451
0.850173 0.354948 0.030843
0.903674 0.353378 0.028288
0.945970 0.351495 0.025752
0.973966 0.348065 0.023377
0.001436 0.441304 0.085681
0.035218 0.445985 0.079231
0.062730 0.452480 0.063240
0.116442 0.453896 0.063331
0.171722 0.446820 0.059882
0.234280 0.442572 0.057412
0.306444 0.442089 0.055562
0.380672 0.441941 0.053132
0.480883 0.461400 0.050099
0.562073 0.454261 0.045769
0.641576 0.449098 0.041381
0.718177 0.444205 0.037569
0.789598 0.439452 0.034267
0.853332 0.436356 0.031386
0.907428 0.433639 0.028729
0.949964 0.431526 0.025880
0.978318 0.427813 0.023283
0.003307 0.525619 0.093582
0.038776 0.530363 0.086412
0.062878 0.536280 0.065876
0.118334 0.538810 0.066529
0.176758 0.533814 0.063616
0.239713 0.527787 0.060993
0.309941 0.525312 0.058662
0.385172 0.523851 0.056394
0.463118 0.523579 0.053482
0.567067 0.543678 0.049911
0.646663 0.537438 0.045219
0.722525 0.532082 0.040308
0.793429 0.527151 0.035923
0.857324 0.522425 0.032188
0.911754 0.517918 0.028911
0.954697 0.514484 0.025994
0.983231 0.509540 0.023397
0.007191 0.608608 0.100909
0.044297 0.613011 0.093070
0.064736 0.618201 0.067797
0.120806 0.621061 0.068364
0.182042 0.618129 0.066335
0.245857 0.612025 0.063385
0.315640 0.607801 0.061231
0.390349 0.605563 0.058757
0.468750 0.603824 0.056215
0.549108 0.603522 0.053006
0.652819 0.623453 0.049240
0.728790 0.618076 0.044456
0.798864 0.612994 0.039180
0.862077 0.608789 0.034387
0.916368 0.604061 0.030423
0.959269 0.599430 0.026936
0.988004 0.593629 0.023878
0.012979 0.688295 0.107728
0.051604 0.692276 0.099310
0.068287 0.696786 0.069293
0.124329 0.699477 0.069518
0.187793 0.698285 0.068340
0.253170 0.692901 0.065372
0.322709 0.687897 0.063177
0.397006 0.684708 0.061027
0.474162 0.682302 0.058486
0.554070 0.680656 0.055811
0.634438 0.680293 0.052489
0.734656 0.699724 0.048966
0.804849 0.695201 0.044288
0.867217 0.690990 0.038923
0.920653 0.687057 0.033998
0.963104 0.682831 0.029776
0.991810 0.677188 0.026183
0.020188 0.762902 0.114295
0.060115 0.766414 0.105432
0.072909 0.770340 0.070592
0.128719 0.772830 0.070589
0.192763 0.772154 0.069776
0.260428 0.768323 0.067378
0.330258 0.763357 0.065048
0.404087 0.759537 0.063296
0.480647 0.756829 0.061135
0.558118 0.754246 0.058583
0.637720 0.752908 0.055984
0.715728 0.752546 0.052741
0.809239 0.771086 0.049824
0.871557 0.767905 0.045364
0.924163 0.764105 0.040107
0.965772 0.760507 0.035092
0.994079 0.756104 0.030635
0.028063 0.830763 0.121002
0.069026 0.833773 0.111850
0.077849 0.837168 0.072064
0.132994 0.839089 0.071861
0.197432 0.839116 0.071517
0.266172 0.836299 0.069735
0.337090 0.832009 0.067421
0.410499 0.828129 0.065837
0.486664 0.825248 0.064315
0.563237 0.822647 0.062197
0.639904 0.820281 0.059838
0.716676 0.819164 0.057361
0.790058 0.818849 0.054309
0.873876 0.836531 0.052063
0.926375 0.833990 0.047961
0.967317 0.830692 0.042829
0.994783 0.826388 0.037598
0.035773 0.890244 0.128280
0.077511 0.892648 0.119022
0.082382 0.895531 0.074180
0.136869 0.896958 0.074036
0.200854 0.897143 0.073968
0.270437 0.895499 0.072890
0.341977 0.892038 0.070800
0.415543 0.888431 0.069175
0.491155 0.885457 0.068018
0.567349 0.882990 0.066561
0.642676 0.880639 0.064542
0.716875 0.878747 0.062359
0.788784 0.877876 0.060041
0.855010 0.877605 0.057167
0.926828 0.893758 0.055585
0.967682 0.891809 0.051791
0.994322 0.887216 0.046497
0.042611 0.939683 0.136488
0.084949 0.941439 0.127225
0.085874 0.943785 0.077104
0.139677 0.944724 0.077119
0.203013 0.944854 0.077303
0.272447 0.943757 0.076694
0.344840 0.941400 0.075087
0.418803 0.938449 0.073441
0.494023 0.935740 0.072452
0.570057 0.933512 0.071522
0.644777 0.931456 0.070065
0.717241 0.929501 0.068140
0.787115 0.928097 0.066064
0.852345 0.927468 0.063835
0.909593 0.927263 0.061034
0.966950 0.941040 0.059830
0.993201 0.937354 0.055872
0.048163 0.977368 0.145815
0.091033 0.978417 0.136583
0.091062 0.980110 0.083999
0.141212 0.980613 0.081166
0.203950 0.980594 0.081588
0.273207 0.979864 0.081386
0.345984 0.978340 0.080245
0.420404 0.976274 0.078728
0.495777 0.974166 0.077680
0.571448 0.972306 0.076965
0.645931 0.970648 0.075994
0.717606 0.969066 0.074446
0.785737 0.967611 0.072508
0.849557 0.966676 0.070433
0.906348 0.966265 0.068173
0.952851 0.966127 0.065308
0.991917 0.974642 0.063716
0.051858 0.999052 0.154225
0.094366 0.998362 0.144290
0.094116 0.998614 0.090834
0.138361 0.998027 0.083723
0.198616 0.997306 0.084021
0.265747 0.996611 0.084022
0.337443 0.995952 0.083374
0.411861 0.995331 0.082211
0.487931 0.994739 0.081473
0.564326 0.994177 0.081183
0.639844 0.993646 0.080847
0.712571 0.993150 0.079988
0.781219 0.992688 0.078500
0.844818 0.992255 0.076648
0.901346 0.991851 0.074534
0.948019 0.991482 0.072107
0.982245 0.991150 0.069016
0.014415 0.020750 0.075108
0.036697 0.015117 0.076722
0.074866 0.011827 0.077408
0.128801 0.013355 0.079973
0.190795 0.015397 0.082081
0.260173 0.017214 0.084033
0.335098 0.018806 0.085556
0.413706 0.020193 0.086623
0.494101 0.021527 0.087441
0.574406 0.022827 0.088071
0.652730 0.024151 0.088590
0.727218 0.025441 0.089019
0.795975 0.026756 0.089383
0.857128 0.028092 0.089693
0.908804 0.029451 0.089969
0.949134 0.030814 0.090201
0.975428 0.032053 0.090129
0.012380 0.048526 0.076920
0.038911 0.045757 0.077409
0.073972 0.041059 0.077995
0.127611 0.044043 0.078984
0.188862 0.046873 0.080951
0.257311 0.049754 0.083766
0.331693 0.051821 0.085249
0.410135 0.053369 0.085783
0.490428 0.054796 0.086044
0.570616 0.056238 0.086468
0.648886 0.057643 0.086946
0.723352 0.059049 0.087487
0.792143 0.060451 0.088072
0.853392 0.061866 0.088405
0.905233 0.063253 0.088679
0.945800 0.064604 0.088895
0.972594 0.065759 0.088837
0.007867 0.080075 0.076892
0.034363 0.080681 0.077875
0.071180 0.081545 0.078434
0.123172 0.085368 0.081779
0.184800 0.087732 0.083408
0.256416 0.092312 0.085059
0.331906 0.095256 0.087110
0.408833 0.100044 0.089734
0.487384 0.105090 0.091909
0.567136 0.109446 0.093318
0.645056 0.113333 0.094352
0.719316 0.116407 0.094830
0.788013 0.119419 0.095214
0.849464 0.120866 0.095595
0.901605 0.122194 0.095901
0.942572 0.123404 0.096131
0.970032 0.124278 0.096122
0.006138 0.136177 0.088785
0.034245 0.134551 0.085848
0.071951 0.138140 0.085335
0.119078 0.138811 0.083113
0.182734 0.142860 0.083768
0.251854 0.144486 0.083438
0.326478 0.145721 0.083146
0.405370 0.151438 0.085766
0.484819 0.158307 0.087996
0.564605 0.164276 0.089004
0.642636 0.168970 0.089445
0.717111 0.171614 0.089134
0.786059 0.174288 0.088811
0.847849 0.174288 0.088588
0.900328 0.174230 0.088365
0.941643 0.174107 0.088129
0.969459 0.173602 0.087727
0.004362 0.202259 0.100064
0.033797 0.200686 0.095906
0.072821 0.204610 0.093878
0.117325 0.207301 0.090029
0.174984 0.206487 0.087537
0.249644 0.214127 0.086717
0.324513 0.212595 0.084877
0.400836 0.212341 0.084577
0.481952 0.216263 0.085305
0.562049 0.221528 0.085622
0.640510 0.226960 0.085639
0.715561 0.231037 0.084924
0.785077 0.234866 0.084004
0.847425 0.234965 0.083028
0.900394 0.234612 0.082062
0.942133 0.233893 0.081098
0.970108 0.232303 0.079973
0.002676 0.276461 0.111232
0.033241 0.276107 0.106328
0.073583 0.278750 0.102674
0.116330 0.283579 0.096447
0.171719 0.281848 0.094063
0.238252 0.281945 0.091518
0.320499 0.291582 0.089560
0.398941 0.286645 0.087017
0.479620 0.286079 0.085879
0.560824 0.287074 0.084810
0.639767 0.288882 0.083641
0.715205 0.291494 0.082176
0.785220 0.295300 0.080815
0.848111 0.297527 0.078949
0.901668 0.298645 0.077214
0.943945 0.298914 0.075596
0.972157 0.297661 0.073872
0.001604 0.356392 0.122072
0.033479 0.357034 0.116552
0.074806 0.358491 0.110813
0.115174 0.362365 0.100991
0.172621 0.363556 0.100179
0.235201 0.359963 0.096034
0.307449 0.361370 0.094330
0.397263 0.375329 0.091674
0.478279 0.367776 0.088497
0.560522 0.365516 0.086341
0.640937 0.364770 0.084252
0.716897 0.363450 0.081809
0.787024 0.362548 0.079424
0.850151 0.364005 0.076801
0.904000 0.365058 0.074183
0.946739 0.366206 0.071760
0.975352 0.365628 0.069199
0.001783 0.439608 0.132428
0.035176 0.440895 0.126159
0.078014 0.442478 0.119266
0.115692 0.445854 0.104954
0.174731 0.445932 0.104727
0.234787 0.441236 0.099530
0.306536 0.440986 0.097368
0.382320 0.442102 0.095853
0.479829 0.462893 0.092672
0.561787 0.454328 0.089049
0.642253 0.447972 0.085932
0.719380 0.444960 0.082861
0.790580 0.442343 0.079759
0.854026 0.439525 0.076359
0.907875 0.437858 0.073020
0.950627 0.437335 0.069861
0.979369 0.436278 0.066750
0.003738 0.523719 0.142149
0.038754 0.525404 0.135111
0.083452 0.527384 0.127511
0.118989 0.532620 0.109122
0.180174 0.532926 0.108640
0.241503 0.527093 0.104911
0.303210 0.520736 0.099050
0.385297 0.522614 0.098343
0.462249 0.522712 0.096299
0.566273 0.549731 0.092675
0.646485 0.540920 0.088720
0.723020 0.531272 0.084934
0.794359 0.526328 0.081282
0.858295 0.522430 0.077329
0.912591 0.518478 0.073463
0.955408 0.514696 0.069771
0.983868 0.511222 0.066072
0.007714 0.606574 0.151174
0.044345 0.608338 0.143422
0.090897 0.610809 0.135419
0.124098 0.617023 0.113368
0.188287 0.619145 0.113405
0.252225 0.613921 0.109910
0.313963 0.604915 0.104166
0.384842 0.601725 0.100022
0.470310 0.602916 0.098945
0.546159 0.602219 0.096204
0.652215 0.632801 0.092342
0.728798 0.625344 0.088296
0.799453 0.614357 0.084124
0.862829 0.607672 0.079777
0.916974 0.602485 0.075523
0.959823 0.597564 0.071439
0.988356 0.591578 0.067352
0.013575 0.686186 0.159605
0.051727 0.687969 0.151263
0.099907 0.690690 0.142891
0.129795 0.697024 0.116551
0.196483 0.700484 0.117624
0.263234 0.697058 0.114521
0.327569 0.688023 0.109122
0.393130 0.680816 0.103731
0.471286 0.679559 0.100751
0.556325 0.679818 0.099260
0.629712 0.678733 0.096168
0.733949 0.710373 0.092666
0.804788 0.705576 0.088648
0.867429 0.693191 0.084031
0.920951 0.686095 0.079501
0.963379 0.680682 0.075086
0.992017 0.674372 0.070731
0.020829 0.760838 0.167737
0.060292 0.762518 0.158934
0.109726 0.765217 0.150256
0.135445 0.771047 0.119083
0.203207 0.774783 0.120956
0.273226 0.773627 0.119363
0.339527 0.766109 0.113899
0.406622 0.757885 0.108758
0.477671 0.753280 0.104303
0.559493 0.752777 0.102092
0.640039 0.752102 0.100218
0.709824 0.750936 0.097014
0.808231 0.782558 0.094250
0.871074 0.777505 0.090329
0.924049 0.767515 0.085576
0.965844 0.760444 0.080891
0.994184 0.754141 0.076274
0.028699 0.828819 0.175958
0.069224 0.830339 0.166860
0.119645 0.832964 0.158046
0.140908 0.838191 0.121846
0.209433 0.842019 0.124646
0.280891 0.841770 0.124292
0.350060 0.836715 0.119599
0.418035 0.828927 0.114170
0.488126 0.822720 0.109713
0.563929 0.820310 0.106478
0.643873 0.819583 0.104371
0.718739 0.818373 0.102360
0.783304 0.817266 0.099167
0.872618 0.846169 0.097354
0.925574 0.842481 0.093564
0.966963 0.834664 0.088762
0.994781 0.827032 0.083745
0.036354 0.888495 0.184707
0.077672 0.889737 0.175455
0.128721 0.891953 0.166444
0.145027 0.896236 0.124815
0.212511 0.899177 0.127519
0.285630 0.899898 0.128793
0.356917 0.896585 0.125414
0.426300 0.890650 0.120091
0.496918 0.884780 0.115993
0.569549 0.881030 0.112506
0.644889 0.879312 0.109792
0.720336 0.878330 0.108011
0.789241 0.877107 0.105941
0.848364 0.876235 0.102814
0.925511 0.901566 0.101664
0.966789 0.898905 0.097970
0.994161 0.891519 0.092807
0.043102 0.938203 0.194339
0.085047 0.939111 0.185037
0.136579 0.940840 0.175913
0.147975 0.944174 0.128708
0.214402 0.946246 0.131381
0.287793 0.946992 0.133466
0.361787 0.945433 0.132029
0.432578 0.941214 0.127217
0.503281 0.936425 0.122860
0.575163 0.932515 0.119627
0.647746 0.930118 0.116698
0.720551 0.928929 0.114536
0.789681 0.927831 0.112748
0.851515 0.926790 0.110593
0.903454 0.926149 0.107453
0.965807 0.946968 0.106588
0.992893 0.943657 0.102492
0.048550 0.976228 0.205032
0.091055 0.976733 0.195721
0.143036 0.977861 0.186503
0.149595 0.980207 0.133553
0.215049 0.981394 0.136183
0.288302 0.981834 0.138741
0.363374 0.980963 0.138483
0.436538 0.978569 0.134885
0.507757 0.975281 0.130283
0.579424 0.972145 0.127174
0.651371 0.969889 0.124602
0.721989 0.968482 0.122119
0.789397 0.967488 0.120008
0.851078 0.966487 0.118055
0.904649 0.965736 0.115746
0.947667 0.965312 0.112481
0.991609 0.979334 0.111031
0.052266 0.998800 0.214528
0.094653 0.998115 0.204458
0.145711 0.997459 0.194045
0.146615 0.997681 0.135440
0.208509 0.996961 0.136959
0.278410 0.996253 0.139085
0.351908 0.995595 0.139701
0.426060 0.994998 0.137833
0.499963 0.994449 0.134726
0.573981 0.993926 0.132300
0.647828 0.993423 0.130724
0.719282 0.992950 0.128881
0.786410 0.992511 0.126766
0.847710 0.992104 0.124770
0.901903 0.991726 0.122823
0.946362 0.991386 0.120379
0.978964 0.991088 0.116892
0.019237 0.029863 0.126954
0.039944 0.020449 0.130229
0.077227 0.019274 0.129761
0.126695 0.015221 0.131148
0.190873 0.016614 0.134890
0.260309 0.019038 0.137057
0.335175 0.021356 0.139710
0.413663 0.023529 0.142181
0.493926 0.025543 0.144307
0.574090 0.027450 0.146107
0.652309 0.029149 0.147462
0.726676 0.030829 0.148612
0.795338 0.032418 0.149532
