working/Infinite_Arch_Leica_Looks_v1.2/looks/natura/look.CUBE
#Created by: Infinite Arch Leica Looks v1.1
#Unique Leica Look ID: 1008
#Based Filmstyle Mode: Standard
TITLE "IA Natura"
#LUT size
LUT_3D_SIZE 9
#data domain
DOMAIN_MIN 0.0 0.0 0.0
DOMAIN_MAX 1.0 1.0 1.0
#LUT data points
0.006000 0.006000 0.006000
0.076041 0.007401 0.006482
0.190944 0.009082 0.007064
0.335592 0.011068 0.007755
0.494891 0.013368 0.008553
0.653770 0.015971 0.009447
0.797187 0.018843 0.010417
0.910132 0.021926 0.011428
0.976897 0.025079 0.012416
0.006329 0.080790 0.015033
0.070065 0.081387 0.010174
0.185443 0.084882 0.008372
0.329633 0.087338 0.009083
0.488810 0.090263 0.009834
0.647548 0.093530 0.010580
0.790830 0.096987 0.011270
0.903964 0.100370 0.011841
0.971123 0.103193 0.012230
0.003958 0.204436 0.026643
0.062089 0.206088 0.017645
0.173671 0.206337 0.015859
0.322014 0.211499 0.011425
0.480485 0.215574 0.011960
0.640009 0.218475 0.012302
0.785263 0.220470 0.012413
0.900535 0.222704 0.012260
0.969718 0.223949 0.011840
0.001300 0.359778 0.039733
0.055420 0.363014 0.024226
0.164088 0.360287 0.023759
0.309038 0.361049 0.020351
0.478568 0.369426 0.014444
0.638797 0.368353 0.011654
0.785357 0.371605 0.010822
0.902772 0.372705 0.009757
0.974959 0.372272 0.008531
0.003123 0.527825 0.052256
0.053602 0.531261 0.029160
0.164651 0.528914 0.027953
0.304536 0.524355 0.025737
0.469683 0.524456 0.020506
0.646524 0.535321 0.013320
0.792977 0.529734 0.006718
0.910996 0.530306 0.005249
0.984172 0.531369 0.003819
0.012577 0.690549 0.062907
0.058811 0.693615 0.031432
0.171488 0.691763 0.029276
0.312456 0.686357 0.027438
0.470559 0.681574 0.023786
0.639339 0.680974 0.017747
0.804579 0.693634 0.010679
0.920327 0.687191 0.003079
0.991788 0.683701 0.000607
0.027592 0.832794 0.072833
0.068213 0.835228 0.032494
0.180991 0.833927 0.030249
0.322671 0.829414 0.028794
0.477644 0.823829 0.026859
0.638959 0.820148 0.023111
0.793220 0.819254 0.017642
0.926329 0.832377 0.012369
0.994772 0.825970 0.005218
0.042260 0.941199 0.085083
0.076419 0.942927 0.035316
0.187913 0.941841 0.033951
0.328417 0.938818 0.033038
0.482883 0.934690 0.032486
0.638554 0.930528 0.030853
0.787206 0.928190 0.027494
0.911649 0.927487 0.022652
0.993356 0.936376 0.018443
0.051567 0.999307 0.100204
0.078337 0.999158 0.040805
0.185922 0.997695 0.040239
0.322768 0.996311 0.039785
0.476489 0.995025 0.040079
0.632403 0.993873 0.039893
0.778809 0.992856 0.038185
0.901851 0.991976 0.034553
0.983152 0.991248 0.029300
0.014415 0.020750 0.075108
0.074866 0.011827 0.077408
0.190795 0.015397 0.082081
0.335098 0.018806 0.085556
0.494101 0.021527 0.087441
0.652730 0.024151 0.088590
0.795975 0.026756 0.089383
0.908804 0.029451 0.089969
0.975428 0.032053 0.090129
0.007867 0.080075 0.076892
0.071180 0.081545 0.078434
0.184800 0.087732 0.083408
0.331906 0.095256 0.087110
0.487384 0.105090 0.091909
0.645056 0.113333 0.094352
0.788013 0.119419 0.095214
0.901605 0.122194 0.095901
0.970032 0.124278 0.096122
0.004362 0.202259 0.100064
0.072821 0.204610 0.093878
0.174984 0.206487 0.087537
0.324513 0.212595 0.084877
0.481952 0.216263 0.085305
0.640510 0.226960 0.085639
0.785077 0.234866 0.084004
0.900394 0.234612 0.082062
0.970108 0.232303 0.079973
0.001604 0.356392 0.122072
0.074806 0.358491 0.110813
0.172621 0.363556 0.100179
0.307449 0.361370 0.094330
0.478279 0.367776 0.088497
0.640937 0.364770 0.084252
0.787024 0.362548 0.079424
0.904000 0.365058 0.074183
0.975352 0.365628 0.069199
0.003738 0.523719 0.142149
0.083452 0.527384 0.127511
0.180174 0.532926 0.108640
0.303210 0.520736 0.099050
0.462249 0.522712 0.096299
0.646485 0.540920 0.088720
0.794359 0.526328 0.081282
0.912591 0.518478 0.073463
0.983868 0.511222 0.066072
0.013575 0.686186 0.159605
0.099907 0.690690 0.142891
0.196483 0.700484 0.117624
0.327569 0.688023 0.109122
0.471286 0.679559 0.100751
0.629712 0.678733 0.096168
0.804788 0.705576 0.088648
0.920951 0.686095 0.079501
0.992017 0.674372 0.070731
0.028699 0.828819 0.175958
0.119645 0.832964 0.158046
0.209433 0.842019 0.124646
0.350060 0.836715 0.119599
0.488126 0.822720 0.109713
0.643873 0.819583 0.104371
0.783304 0.817266 0.099167
0.925574 0.842481 0.093564
0.994781 0.827032 0.083745
0.043102 0.938203 0.194339
0.136579 0.940840 0.175913
0.214402 0.946246 0.131381
0.361787 0.945433 0.132029
0.503281 0.936425 0.122860
0.647746 0.930118 0.116698
0.789681 0.927831 0.112748
0.903454 0.926149 0.107453
0.992893 0.943657 0.102492
0.052266 0.998800 0.214528
0.145711 0.997459 0.194045
0.208509 0.996961 0.136959
0.351908 0.995595 0.139701
0.499963 0.994449 0.134726
0.647828 0.993423 0.130724
0.786410 0.992511 0.126766
0.901903 0.991726 0.122823
0.978964 0.991088 0.116892
0.024441 0.040095 0.187969
0.082075 0.026397 0.192464
0.187642 0.018947 0.194383
0.335275 0.022856 0.201572
0.493957 0.028140 0.207504
0.652105 0.032999 0.212983
0.794888 0.037315 0.217206
0.907391 0.041026 0.220052
0.973593 0.044244 0.221069
0.018685 0.114413 0.193124
0.087508 0.106970 0.194518
0.184635 0.094286 0.196167
0.331347 0.102720 0.198941
0.488254 0.110620 0.204327
0.644846 0.118420 0.211896
0.787683 0.123661 0.215553
0.901456 0.127093 0.216340
0.969709 0.129401 0.215472
0.007131 0.202560 0.193115
0.074815 0.204360 0.195798
0.176973 0.206748 0.197207
0.320253 0.217055 0.206116
0.479716 0.222905 0.210020
0.645224 0.234179 0.213507
0.790962 0.240421 0.217844
0.903486 0.250914 0.223252
0.971444 0.260307 0.226058
0.003286 0.355964 0.225328
0.076905 0.351095 0.216694
0.183468 0.359624 0.214367
0.314710 0.360134 0.207206
0.481806 0.368591 0.207318
0.643330 0.370371 0.204635
0.789772 0.370714 0.201862
0.907897 0.381634 0.206427
0.977970 0.392888 0.208624
0.005453 0.521650 0.253012
0.085166 0.516233 0.240309
0.197850 0.523351 0.232829
0.323614 0.527375 0.220335
0.476012 0.522746 0.211619
0.653888 0.536511 0.206241
0.800528 0.529570 0.199222
0.914152 0.525444 0.196490
0.985930 0.528260 0.195496
0.015533 0.683145 0.277050
0.100674 0.679843 0.261757
0.217953 0.682309 0.249569
0.339347 0.689291 0.230355
0.485440 0.682915 0.222212
0.643431 0.679828 0.213505
0.807758 0.694832 0.206006
0.922884 0.681999 0.198244
0.992624 0.675724 0.193820
0.030601 0.825601 0.299049
0.119898 0.823882 0.282455
0.238647 0.823499 0.265413
0.351412 0.827485 0.237417
0.501318 0.826613 0.234430
0.647409 0.818459 0.222664
0.791248 0.818051 0.217913
0.925373 0.836980 0.211512
0.994762 0.822309 0.203028
0.044618 0.935606 0.322441
0.136645 0.934759 0.305202
0.257052 0.934384 0.286545
0.359770 0.936626 0.247631
0.510613 0.934737 0.247725
0.648716 0.928051 0.234056
0.789599 0.926076 0.229320
0.905189 0.925824 0.226745
0.992573 0.946019 0.221756
0.053515 0.998304 0.347260
0.146980 0.996982 0.328685
0.267855 0.995783 0.308579
0.357858 0.995158 0.257280
0.508293 0.994022 0.257653
0.651755 0.993075 0.252198
0.778190 0.991625 0.240046
0.902837 0.991493 0.240168
0.978514 0.990904 0.236467
0.035934 0.063781 0.330431
0.090774 0.039583 0.339194
0.194045 0.036915 0.337987
0.329512 0.027388 0.341732
0.493955 0.031225 0.351819
0.652076 0.037600 0.357655
0.794542 0.043691 0.364675
0.906655 0.049258 0.371042
0.972287 0.053898 0.374213
0.030583 0.151279 0.336540
0.104617 0.135428 0.339638
0.193488 0.118755 0.341989
0.328072 0.108268 0.344958
0.491938 0.117335 0.350765
0.648616 0.124981 0.353617
0.789941 0.132793 0.360363
0.902371 0.139724 0.367007
0.969464 0.144428 0.369985
0.018986 0.249107 0.341423
0.097451 0.244063 0.341973
0.199593 0.238031 0.341801
0.320289 0.223411 0.344166
0.481480 0.234797 0.352731
0.641925 0.243107 0.355504
0.787221 0.250525 0.358518
0.901886 0.258574 0.364619
0.972148 0.264562 0.368352
0.007268 0.356027 0.338674
0.081092 0.357510 0.341401
0.185646 0.357435 0.341587
0.316984 0.360393 0.343732
0.478188 0.371224 0.353521
0.639934 0.377900 0.359655
0.788165 0.381349 0.361470
0.910271 0.391690 0.363677
0.978998 0.393738 0.360685
0.008743 0.521614 0.374230
0.088303 0.518604 0.368015
0.198276 0.515791 0.360771
0.334115 0.522473 0.358085
0.481882 0.521903 0.350967
0.644262 0.523921 0.348371
0.796848 0.526819 0.349122
0.915159 0.527528 0.347561
0.986583 0.523573 0.341782
0.018692 0.682040 0.403221
0.104343 0.676885 0.392424
0.219045 0.666847 0.377192
0.357555 0.680464 0.375077
0.498229 0.681905 0.362843
0.649851 0.676412 0.353811
0.805543 0.685048 0.350325
0.931974 0.693744 0.353178
0.993257 0.681597 0.342732
0.033450 0.823694 0.429726
0.122933 0.819291 0.417015
0.241390 0.810656 0.399485
0.381333 0.820477 0.394922
0.510839 0.823780 0.374964
0.660534 0.819856 0.370534
0.800198 0.815914 0.360996
0.928268 0.829937 0.357549
0.994709 0.821055 0.347605
0.046897 0.933711 0.457163
0.138811 0.930830 0.443470
0.259399 0.925950 0.425358
0.399395 0.929934 0.418735
0.518575 0.933439 0.390190
0.668484 0.933481 0.390878
0.799833 0.927320 0.380719
0.914376 0.925877 0.372491
0.992634 0.935652 0.365431
0.055369 0.997821 0.486044
0.149364 0.996517 0.472154
0.272000 0.994800 0.454501
0.409876 0.994260 0.442170
0.515694 0.993619 0.400874
0.662473 0.992683 0.403080
0.793397 0.991917 0.396126
0.907129 0.991237 0.389560
0.983019 0.990684 0.381862
0.048834 0.091488 0.488311
0.098485 0.055403 0.497960
0.207288 0.055254 0.499385
0.335192 0.047177 0.499945
0.485824 0.037048 0.504199
0.651791 0.040603 0.516929
0.794385 0.047496 0.521787
0.906339 0.054247 0.528597
0.971427 0.060091 0.532064
0.043791 0.189950 0.493965
0.124913 0.170587 0.502400
0.206519 0.144639 0.503520
0.335818 0.137370 0.504784
0.485335 0.123117 0.507997
0.649640 0.130625 0.515018
0.792278 0.139073 0.518717
0.904028 0.146705 0.523781
0.969513 0.152589 0.525964
0.034144 0.297171 0.500802
0.119970 0.286967 0.501780
0.224834 0.275925 0.503640
0.334399 0.251137 0.504438
0.480868 0.239977 0.507100
0.645135 0.250921 0.512554
0.792418 0.258725 0.510963
0.906548 0.265500 0.512222
0.973046 0.271426 0.515844
0.022351 0.408459 0.503072
0.106931 0.403274 0.503919
0.219997 0.398852 0.503250
0.346158 0.393146 0.501665
0.478859 0.376539 0.503474
0.643169 0.387546 0.513241
0.790939 0.395062 0.518171
0.909365 0.400537 0.519016
0.980530 0.403461 0.516212
0.014218 0.521113 0.496591
0.094858 0.521523 0.498741
0.206125 0.521085 0.500122
0.337645 0.519665 0.498733
0.484135 0.521153 0.499890
0.648277 0.530962 0.509566
0.796909 0.537169 0.516512
0.915432 0.540781 0.520807
0.988514 0.541961 0.521541
0.023489 0.681586 0.530981
0.108768 0.678585 0.526522
0.223665 0.674881 0.519622
0.358693 0.676052 0.516650
0.507477 0.677856 0.512071
0.655524 0.676486 0.506183
0.803180 0.679357 0.507048
0.921505 0.680419 0.507471
0.993620 0.680124 0.508908
0.037561 0.822997 0.560263
0.127367 0.818705 0.552379
0.245619 0.809791 0.537828
0.380462 0.809469 0.531900
0.529075 0.818116 0.530753
0.668853 0.818552 0.520876
0.804508 0.814155 0.513726
0.922306 0.816560 0.510297
0.994634 0.818284 0.511916
0.050094 0.932646 0.589539
0.142479 0.929251 0.580322
0.263468 0.921637 0.564207
0.399501 0.919387 0.555071
0.546089 0.927993 0.554377
0.673759 0.929202 0.536838
0.808648 0.926833 0.534353
0.917436 0.923505 0.525342
0.992530 0.930495 0.522219
0.057901 0.997352 0.620544
0.152487 0.995636 0.611014
0.275317 0.992128 0.594523
0.413334 0.990104 0.583179
0.558425 0.992957 0.579514
0.670783 0.992355 0.549025
0.804753 0.991605 0.549454
0.914798 0.990987 0.545294
0.986274 0.990496 0.536916
0.063176 0.122818 0.647387
0.107490 0.074140 0.656151
0.220478 0.072476 0.662172
0.347295 0.070086 0.659790
0.490946 0.058292 0.662263
0.642107 0.047679 0.666454
0.793813 0.050865 0.680653
0.906070 0.057579 0.684458
0.970814 0.064150 0.685328
0.058793 0.230453 0.651890
0.147586 0.208391 0.662459
0.222311 0.170255 0.662997
0.350264 0.168906 0.665270
0.491838 0.156235 0.666264
0.642137 0.138247 0.669868
0.792112 0.143420 0.677168
0.905251 0.152022 0.680765
0.969706 0.158063 0.678759
0.051586 0.345424 0.659198
0.145052 0.332685 0.663436
0.250343 0.311939 0.662245
0.351180 0.283732 0.665431
0.492739 0.269753 0.666172
0.642501 0.256025 0.669204
0.793520 0.266043 0.673874
0.910101 0.274227 0.673876
0.973969 0.276464 0.664998
0.042505 0.459613 0.661933
0.136089 0.450714 0.662426
0.252011 0.441355 0.660705
0.377936 0.430815 0.661089
0.497088 0.405393 0.662487
0.643805 0.392256 0.663865
0.794576 0.402352 0.670026
0.913369 0.410624 0.672106
0.982012 0.412622 0.665085
0.034329 0.573638 0.661242
0.124618 0.567584 0.661257
0.243901 0.561936 0.660123
0.379969 0.557491 0.659109
0.517495 0.552765 0.657198
0.649237 0.534938 0.657993
0.800091 0.544813 0.667677
0.918253 0.551438 0.674121
0.989877 0.554701 0.675784
0.030278 0.680613 0.651554
0.117113 0.679873 0.653199
0.233480 0.678589 0.654609
0.365448 0.675660 0.652708
0.511752 0.675058 0.653267
0.657199 0.675366 0.654249
0.805541 0.684109 0.664397
0.922700 0.689959 0.672600
0.994220 0.694365 0.679543
0.043136 0.822166 0.683380
0.132583 0.819274 0.680533
0.250252 0.816126 0.675906
0.385462 0.815258 0.673996
0.530194 0.815454 0.671331
0.675681 0.815390 0.668160
0.807979 0.813928 0.664457
0.923004 0.816570 0.667244
0.994044 0.817933 0.670756
0.054515 0.932044 0.713240
0.146917 0.928898 0.708493
0.266940 0.924012 0.698787
0.401843 0.918862 0.689482
0.545220 0.922232 0.690609
0.689184 0.925851 0.688915
0.814198 0.925997 0.681797
0.920513 0.923354 0.676703
0.992391 0.926402 0.677967
0.061333 0.996890 0.743574
0.156398 0.995002 0.738091
0.279303 0.991778 0.726403
0.416304 0.987355 0.712400
0.558849 0.989576 0.713297
0.699253 0.991904 0.710931
0.812465 0.991344 0.694230
0.919794 0.990779 0.693373
0.988064 0.990277 0.687656
0.079096 0.157296 0.793399
0.117633 0.095222 0.800198
0.231088 0.090703 0.808448
0.363393 0.091452 0.807152
0.500851 0.083743 0.806648
0.646590 0.070045 0.809514
0.784056 0.058908 0.813103
0.905456 0.061392 0.826826
0.970344 0.067147 0.824445
0.075975 0.272555 0.796521
0.170670 0.247147 0.803578
0.240568 0.197044 0.806754
0.366998 0.196821 0.809878
0.506058 0.193255 0.811379
0.647926 0.173558 0.812107
0.784999 0.153160 0.815414
0.904983 0.156079 0.822624
0.970007 0.162066 0.817596
0.071524 0.392960 0.802547
0.171576 0.377617 0.808030
0.278209 0.349458 0.807240
0.369996 0.314348 0.811581
0.508030 0.303287 0.810786
0.653087 0.288111 0.811612
0.789598 0.271524 0.814314
0.910324 0.279548 0.818515
0.975130 0.283307 0.809392
0.066004 0.510132 0.804890
0.167924 0.499664 0.806811
0.283315 0.481599 0.802795
0.411619 0.470961 0.806075
0.520387 0.436147 0.806400
0.658454 0.421292 0.807295
0.794572 0.406888 0.808659
0.915266 0.416176 0.811962
0.983364 0.419230 0.804500
0.059526 0.621933 0.804175
0.158627 0.613126 0.804011
0.283737 0.605548 0.802384
0.418348 0.599029 0.802026
0.550661 0.586838 0.799701
0.668875 0.563094 0.801653
0.800785 0.548886 0.802256
0.920916 0.558231 0.808955
0.990900 0.563190 0.809884
0.054167 0.728780 0.801699
0.149016 0.722854 0.801574
0.272018 0.717785 0.800828
0.409613 0.710323 0.798769
0.554313 0.707514 0.798608
0.688585 0.704289 0.797848
0.805884 0.687142 0.798361
0.924194 0.695867 0.807876
0.994504 0.701002 0.814378
0.050612 0.821039 0.791668
0.141723 0.819705 0.793353
0.260362 0.818010 0.794504
0.395378 0.816226 0.795910
0.535259 0.812871 0.794104
0.679595 0.813058 0.796627
0.808680 0.812935 0.798293
0.924294 0.820415 0.808421
0.994258 0.825770 0.816911
0.060296 0.931194 0.820799
0.152635 0.928874 0.819758
0.271784 0.926568 0.818023
0.407257 0.925120 0.817064
0.548520 0.924529 0.815850
0.689824 0.924238 0.815142
0.818670 0.923902 0.813272
0.922112 0.922915 0.811205
0.990641 0.923494 0.812313
0.065969 0.996428 0.848970
0.160994 0.994655 0.846671
0.282522 0.992504 0.841456
0.419120 0.989945 0.834706
0.560056 0.989126 0.832384
0.700178 0.990523 0.833702
0.826576 0.991062 0.830575
0.923556 0.990598 0.824163
0.989185 0.990208 0.821785
0.096807 0.194387 0.912052
0.128345 0.118032 0.916369
0.241318 0.111237 0.923376
0.379077 0.111923 0.924691
0.516181 0.108894 0.923206
0.654692 0.096814 0.923955
0.787904 0.082092 0.926187
0.897443 0.070303 0.928717
0.969923 0.071485 0.935272
0.095533 0.315585 0.913604
0.194879 0.287604 0.917730
0.256441 0.225388 0.922114
0.385081 0.221074 0.925772
0.524222 0.225588 0.925542
0.659893 0.212512 0.926232
0.790205 0.188820 0.927098
0.899684 0.167305 0.929367
0.970447 0.166462 0.929669
0.094169 0.439674 0.917088
0.199290 0.420707 0.920095
0.309965 0.391293 0.923218
0.392068 0.346857 0.926748
0.528195 0.336240 0.925475
0.666987 0.322882 0.925259
0.798750 0.305924 0.925347
0.907015 0.286310 0.927273
0.976231 0.287679 0.922876
0.092121 0.558838 0.918152
0.200524 0.546603 0.920394
0.317233 0.523506 0.917546
0.444289 0.507568 0.918831
0.544075 0.469068 0.920807
0.676509 0.453628 0.920591
0.805938 0.437148 0.921010
0.914860 0.420914 0.922169
0.984631 0.424438 0.917676
0.087881 0.669245 0.917018
0.195020 0.659435 0.917388
0.321868 0.647585 0.915159
0.453576 0.636788 0.914416
0.585818 0.624252 0.914988
0.691731 0.592409 0.915210
0.814164 0.576392 0.916123
0.921188 0.562308 0.916779
0.991646 0.567128 0.916594
0.081632 0.770468 0.914976
0.184560 0.762635 0.914802
0.312822 0.756008 0.914164
0.451590 0.749589 0.913254
0.592065 0.744615 0.913458
0.717286 0.733805 0.911471
0.822022 0.713116 0.913295
0.924264 0.699549 0.914032
0.994672 0.705732 0.918409
0.074827 0.860991 0.913232
0.172923 0.855859 0.913379
0.297153 0.851518 0.913461
0.435897 0.845197 0.912847
0.578592 0.841016 0.913013
0.716375 0.839082 0.913281
0.833306 0.837187 0.913822
0.923980 0.822808 0.914482
0.994023 0.829366 0.921689
0.067898 0.930201 0.906230
0.161953 0.928815 0.908191
0.281870 0.927380 0.909740
0.418144 0.925984 0.912155
0.556516 0.923596 0.911913
0.694252 0.921932 0.912466
0.821890 0.922383 0.915221
0.922250 0.922303 0.916855
0.991862 0.927927 0.924536
0.071922 0.995847 0.929982
0.167269 0.994382 0.930176
0.288228 0.993032 0.930055
0.424576 0.991942 0.929942
0.565362 0.991422 0.929996
0.701727 0.990739 0.928735
0.827707 0.990680 0.929131
0.927571 0.990433 0.927683
0.989858 0.990095 0.926361
0.116560 0.233530 0.989037
0.139813 0.142404 0.990627
0.252828 0.133963 0.994365
0.392781 0.132659 0.995924
0.533607 0.132722 0.995566
0.667643 0.124639 0.995241
0.794313 0.109670 0.995862
0.899554 0.093875 0.996413
0.966379 0.081066 0.996381
0.117702 0.359276 0.989166
0.221296 0.329153 0.990598
0.272252 0.253977 0.993701
0.402499 0.246142 0.996210
0.544252 0.253197 0.995648
0.677588 0.249826 0.995309
0.799794 0.228786 0.995193
0.902680 0.202513 0.994990
0.969254 0.179467 0.994701
0.119439 0.485544 0.989326
0.229165 0.463747 0.990040
0.344689 0.434449 0.993377
0.415997 0.378178 0.994372
0.546788 0.366168 0.993784
0.684469 0.356972 0.992974
0.809332 0.341746 0.992254
0.911775 0.321002 0.991632
0.976912 0.297849 0.991060
0.120289 0.605436 0.988102
0.233396 0.590755 0.988816
0.354334 0.567234 0.988468
0.477913 0.543528 0.988039
0.566611 0.500252 0.989863
0.695989 0.487758 0.989055
0.819286 0.469362 0.988359
0.920467 0.451225 0.987648
0.985817 0.431473 0.986984
0.117853 0.714316 0.986070
0.231749 0.704245 0.986413
0.359023 0.688959 0.985051
0.487043 0.671836 0.983785
0.619647 0.661682 0.984966
0.715116 0.622185 0.985051
0.831446 0.605563 0.985107
0.927857 0.588813 0.984742
0.992374 0.572463 0.984294
0.111209 0.810682 0.984305
0.221387 0.802316 0.984303
0.352232 0.793484 0.983658
0.490089 0.785200 0.983062
0.625357 0.779245 0.983580
0.746427 0.765660 0.983081
0.839765 0.739539 0.983533
0.932471 0.724075 0.984227
0.994762 0.710051 0.984204
0.101425 0.892939 0.983466
0.206736 0.886787 0.983657
0.336342 0.881784 0.983998
0.476518 0.876816 0.984062
0.616242 0.871933 0.984364
0.747937 0.868097 0.984870
0.854755 0.860779 0.984601
0.934146 0.844569 0.985688
0.993763 0.832805 0.986190
0.090386 0.957481 0.983880
0.191148 0.953914 0.984468
0.316180 0.950803 0.985112
0.455636 0.947314 0.985765
0.596665 0.942836 0.985702
0.731985 0.940757 0.986563
0.850874 0.940233 0.987327
0.938764 0.939525 0.988088
0.991531 0.929662 0.988482
0.079675 0.995207 0.981659
0.176871 0.994128 0.983233
0.298603 0.993169 0.984612
0.435760 0.992188 0.986064
0.575894 0.991336 0.987135
0.708446 0.989971 0.986933
0.831777 0.989617 0.987938
0.930231 0.989960 0.989313
0.990000 0.990000 0.990000
