working/Infinite_Arch_Leica_Looks_v1.2/looks/invitation/look.CUBE
#Created by: Infinite Arch Leica Looks v1.0
#Unique Leica Look ID: 1001
#Based Filmstyle Mode: Monochrome
TITLE "IA Invitation"
LUT_3D_SIZE 9
DOMAIN_MIN 0.0 0.0 0.0
DOMAIN_MAX 1.0 1.0 1.0
0.050328 0.050328 0.050328
0.069053 0.069053 0.069053
0.089712 0.089712 0.089712
0.110701 0.110701 0.110701
0.131045 0.131045 0.131045
0.149899 0.149899 0.149899
0.169040 0.169040 0.169040
0.189353 0.189353 0.189353
0.210828 0.210828 0.210828
0.118052 0.118052 0.118052
0.137940 0.137940 0.137940
0.156584 0.156584 0.156584
0.176219 0.176219 0.176219
0.196827 0.196827 0.196827
0.218954 0.218954 0.218954
0.242635 0.242635 0.242635
0.268385 0.268385 0.268385
0.295634 0.295634 0.295634
0.183685 0.183685 0.183685
0.204704 0.204704 0.204704
0.227351 0.227351 0.227351
0.251540 0.251540 0.251540
0.277964 0.277964 0.277964
0.305667 0.305667 0.305667
0.333985 0.333985 0.333985
0.362554 0.362554 0.362554
0.391258 0.391258 0.391258
0.261217 0.261217 0.261217
0.288095 0.288095 0.288095
0.316003 0.316003 0.316003
0.344367 0.344367 0.344367
0.372978 0.372978 0.372978
0.401611 0.401611 0.401611
0.429952 0.429952 0.429952
0.457905 0.457905 0.457905
0.485065 0.485065 0.485065
0.354813 0.354813 0.354813
0.383502 0.383502 0.383502
0.412043 0.412043 0.412043
0.440240 0.440240 0.440240
0.467899 0.467899 0.467899
0.494754 0.494754 0.494754
0.520874 0.520874 0.520874
0.546440 0.546440 0.546440
0.571986 0.571986 0.571986
0.450396 0.450396 0.450396
0.477769 0.477769 0.477769
0.504372 0.504372 0.504372
0.530254 0.530254 0.530254
0.555839 0.555839 0.555839
0.581282 0.581282 0.581282
0.606666 0.606666 0.606666
0.631935 0.631935 0.631935
0.656883 0.656883 0.656883
0.539534 0.539534 0.539534
0.565135 0.565135 0.565135
0.590537 0.590537 0.590537
0.615914 0.615914 0.615914
0.641104 0.641104 0.641104
0.665947 0.665947 0.665947
0.690437 0.690437 0.690437
0.714350 0.714350 0.714350
0.737864 0.737864 0.737864
0.625063 0.625063 0.625063
0.650145 0.650145 0.650145
0.674917 0.674917 0.674917
0.699200 0.699200 0.699200
0.722960 0.722960 0.722960
0.746316 0.746316 0.746316
0.769094 0.769094 0.769094
0.791390 0.791390 0.791390
0.813287 0.813287 0.813287
0.707869 0.707869 0.707869
0.731482 0.731482 0.731482
0.754660 0.754660 0.754660
0.777251 0.777251 0.777251
0.799400 0.799400 0.799400
0.821145 0.821145 0.821145
0.842697 0.842697 0.842697
0.864147 0.864147 0.864147
0.885765 0.885765 0.885765
0.056407 0.056407 0.056407
0.076225 0.076225 0.076225
0.096910 0.096910 0.096910
0.117529 0.117529 0.117529
0.137454 0.137454 0.137454
0.156130 0.156130 0.156130
0.175735 0.175735 0.175735
0.196333 0.196333 0.196333
0.218406 0.218406 0.218406
0.125149 0.125149 0.125149
0.144446 0.144446 0.144446
0.163223 0.163223 0.163223
0.183175 0.183175 0.183175
0.204147 0.204147 0.204147
0.226762 0.226762 0.226762
0.250885 0.250885 0.250885
0.277320 0.277320 0.277320
0.304995 0.304995 0.304995
0.190759 0.190759 0.190759
0.212341 0.212341 0.212341
0.235512 0.235512 0.235512
0.260570 0.260570 0.260570
0.287414 0.287414 0.287414
0.315304 0.315304 0.315304
0.343661 0.343661 0.343661
0.372264 0.372264 0.372264
0.400904 0.400904 0.400904
0.270167 0.270167 0.270167
0.297505 0.297505 0.297505
0.325642 0.325642 0.325642
0.354115 0.354115 0.354115
0.382801 0.382801 0.382801
0.411347 0.411347 0.411347
0.439553 0.439553 0.439553
0.467232 0.467232 0.467232
0.494105 0.494105 0.494105
0.364476 0.364476 0.364476
0.393183 0.393183 0.393183
0.421642 0.421642 0.421642
0.449717 0.449717 0.449717
0.477110 0.477110 0.477110
0.503729 0.503729 0.503729
0.529628 0.529628 0.529628
0.555210 0.555210 0.555210
0.580658 0.580658 0.580658
0.459768 0.459768 0.459768
0.486875 0.486875 0.486875
0.513229 0.513229 0.513229
0.538913 0.538913 0.538913
0.564514 0.564514 0.564514
0.589917 0.589917 0.589917
0.615295 0.615295 0.615295
0.640493 0.640493 0.640493
0.665341 0.665341 0.665341
0.548195 0.548195 0.548195
0.573695 0.573695 0.573695
0.599115 0.599115 0.599115
0.624452 0.624452 0.624452
0.649541 0.649541 0.649541
0.674317 0.674317 0.674317
0.698615 0.698615 0.698615
0.722385 0.722385 0.722385
0.745752 0.745752 0.745752
0.633653 0.633653 0.633653
0.658577 0.658577 0.658577
0.683219 0.683219 0.683219
0.707284 0.707284 0.707284
0.730913 0.730913 0.730913
0.754102 0.754102 0.754102
0.776706 0.776706 0.776706
0.798864 0.798864 0.798864
0.820620 0.820620 0.820620
0.715958 0.715958 0.715958
0.739446 0.739446 0.739446
0.762395 0.762395 0.762395
0.784818 0.784818 0.784818
0.806827 0.806827 0.806827
0.828368 0.828368 0.828368
0.849870 0.849870 0.849870
0.871344 0.871344 0.871344
0.893128 0.893128 0.893128
0.062754 0.062754 0.062754
0.083255 0.083255 0.083255
0.104184 0.104184 0.104184
0.124649 0.124649 0.124649
0.143989 0.143989 0.143989
0.162743 0.162743 0.162743
0.182666 0.182666 0.182666
0.203588 0.203588 0.203588
0.226174 0.226174 0.226174
0.131879 0.131879 0.131879
0.150689 0.150689 0.150689
0.169891 0.169891 0.169891
0.190252 0.190252 0.190252
0.211795 0.211795 0.211795
0.234924 0.234924 0.234924
0.259923 0.259923 0.259923
0.286734 0.286734 0.286734
0.314604 0.314604 0.314604
0.197697 0.197697 0.197697
0.219923 0.219923 0.219923
0.243676 0.243676 0.243676
0.269523 0.269523 0.269523
0.296830 0.296830 0.296830
0.324951 0.324951 0.324951
0.353415 0.353415 0.353415
0.382099 0.382099 0.382099
0.410651 0.410651 0.410651
0.279138 0.279138 0.279138
0.306855 0.306855 0.306855
0.335201 0.335201 0.335201
0.363782 0.363782 0.363782
0.392488 0.392488 0.392488
0.420954 0.420954 0.420954
0.449038 0.449038 0.449038
0.476450 0.476450 0.476450
0.503086 0.503086 0.503086
0.374240 0.374240 0.374240
0.402860 0.402860 0.402860
0.431167 0.431167 0.431167
0.459096 0.459096 0.459096
0.486222 0.486222 0.486222
0.512596 0.512596 0.512596
0.538291 0.538291 0.538291
0.563893 0.563893 0.563893
0.589297 0.589297 0.589297
0.469079 0.469079 0.469079
0.495902 0.495902 0.495902
0.521996 0.521996 0.521996
0.547561 0.547561 0.547561
0.573069 0.573069 0.573069
0.598499 0.598499 0.598499
0.623841 0.623841 0.623841
0.648937 0.648937 0.648937
0.673717 0.673717 0.673717
0.556950 0.556950 0.556950
0.582386 0.582386 0.582386
0.607769 0.607769 0.607769
0.633033 0.633033 0.633033
0.657965 0.657965 0.657965
0.682620 0.682620 0.682620
0.706702 0.706702 0.706702
0.730343 0.730343 0.730343
0.753544 0.753544 0.753544
0.642185 0.642185 0.642185
0.667018 0.667018 0.667018
0.691485 0.691485 0.691485
0.715378 0.715378 0.715378
0.738875 0.738875 0.738875
0.761839 0.761839 0.761839
0.784273 0.784273 0.784273
0.806291 0.806291 0.806291
0.827852 0.827852 0.827852
0.723978 0.723978 0.723978
0.747313 0.747313 0.747313
0.770068 0.770068 0.770068
0.792345 0.792345 0.792345
0.814226 0.814226 0.814226
0.835793 0.835793 0.835793
0.857227 0.857227 0.857227
0.878706 0.878706 0.878706
0.900645 0.900645 0.900645
0.069433 0.069433 0.069433
0.090087 0.090087 0.090087
0.111073 0.111073 0.111073
0.131408 0.131408 0.131408
0.150242 0.150242 0.150242
0.169410 0.169410 0.169410
0.189744 0.189744 0.189744
0.211248 0.211248 0.211248
0.234336 0.234336 0.234336
0.138312 0.138312 0.138312
0.156941 0.156941 0.156941
0.176591 0.176591 0.176591
0.197206 0.197206 0.197206
0.219375 0.219375 0.219375
0.243087 0.243087 0.243087
0.268880 0.268880 0.268880
0.296154 0.296154 0.296154
0.324260 0.324260 0.324260
0.205131 0.205131 0.205131
0.227803 0.227803 0.227803
0.252044 0.252044 0.252044
0.278460 0.278460 0.278460
0.306183 0.306183 0.306183
0.334514 0.334514 0.334514
0.363088 0.363088 0.363088
0.391793 0.391793 0.391793
0.420265 0.420265 0.420265
0.288618 0.288618 0.288618
0.316540 0.316540 0.316540
0.344909 0.344909 0.344909
0.373528 0.373528 0.373528
0.402155 0.402155 0.402155
0.430478 0.430478 0.430478
0.458423 0.458423 0.458423
0.485568 0.485568 0.485568
0.511962 0.511962 0.511962
0.384041 0.384041 0.384041
0.412578 0.412578 0.412578
0.440769 0.440769 0.440769
0.468413 0.468413 0.468413
0.495253 0.495253 0.495253
0.521362 0.521362 0.521362
0.546928 0.546928 0.546928
0.572457 0.572457 0.572457
0.597882 0.597882 0.597882
0.478276 0.478276 0.478276
0.504867 0.504867 0.504867
0.530736 0.530736 0.530736
0.556322 0.556322 0.556322
0.581762 0.581762 0.581762
0.607146 0.607146 0.607146
0.632413 0.632413 0.632413
0.657354 0.657354 0.657354
0.682020 0.682020 0.682020
0.565611 0.565611 0.565611
0.591013 0.591013 0.591013
0.616389 0.616389 0.616389
0.641574 0.641574 0.641574
0.666413 0.666413 0.666413
0.690893 0.690893 0.690893
0.714797 0.714797 0.714797
0.738304 0.738304 0.738304
0.761283 0.761283 0.761283
0.650610 0.650610 0.650610
0.675378 0.675378 0.675378
0.699650 0.699650 0.699650
0.723403 0.723403 0.723403
0.746750 0.746750 0.746750
0.769518 0.769518 0.769518
0.791805 0.791805 0.791805
0.813695 0.813695 0.813695
0.835262 0.835262 0.835262
0.731920 0.731920 0.731920
0.755089 0.755089 0.755089
0.777671 0.777671 0.777671
0.799812 0.799812 0.799812
0.821548 0.821548 0.821548
0.843098 0.843098 0.843098
0.864549 0.864549 0.864549
0.886176 0.886176 0.886176
0.908628 0.908628 0.908628
0.076621 0.076621 0.076621
0.097323 0.097323 0.097323
0.117932 0.117932 0.117932
0.137828 0.137828 0.137828
0.156479 0.156479 0.156479
0.176107 0.176107 0.176107
0.196713 0.196713 0.196713
0.218827 0.218827 0.218827
0.242499 0.242499 0.242499
0.144796 0.144796 0.144796
0.163591 0.163591 0.163591
0.183567 0.183567 0.183567
0.204575 0.204575 0.204575
0.227215 0.227215 0.227215
0.251389 0.251389 0.251389
0.277815 0.277815 0.277815
0.305512 0.305512 0.305512
0.333827 0.333827 0.333827
0.212760 0.212760 0.212760
0.235964 0.235964 0.235964
0.261068 0.261068 0.261068
0.287938 0.287938 0.287938
0.315842 0.315842 0.315842
0.344204 0.344204 0.344204
0.372814 0.372814 0.372814
0.401448 0.401448 0.401448
0.429794 0.429794 0.429794
0.298025 0.298025 0.298025
0.326173 0.326173 0.326173
0.354652 0.354652 0.354652
0.383340 0.383340 0.383340
0.411882 0.411882 0.411882
0.440082 0.440082 0.440082
0.467745 0.467745 0.467745
0.494605 0.494605 0.494605
0.520728 0.520728 0.520728
0.393717 0.393717 0.393717
0.422171 0.422171 0.422171
0.450239 0.450239 0.450239
0.477617 0.477617 0.477617
0.504224 0.504224 0.504224
0.530110 0.530110 0.530110
0.555694 0.555694 0.555694
0.581138 0.581138 0.581138
0.606522 0.606522 0.606522
0.487377 0.487377 0.487377
0.513715 0.513715 0.513715
0.539390 0.539390 0.539390
0.564991 0.564991 0.564991
0.590394 0.590394 0.590394
0.615771 0.615771 0.615771
0.640963 0.640963 0.640963
0.665807 0.665807 0.665807
0.690300 0.690300 0.690300
0.574178 0.574178 0.574178
0.599589 0.599589 0.599589
0.624922 0.624922 0.624922
0.650006 0.650006 0.650006
0.674778 0.674778 0.674778
0.699065 0.699065 0.699065
0.722828 0.722828 0.722828
0.746186 0.746186 0.746186
0.768967 0.768967 0.768967
0.659046 0.659046 0.659046
0.683680 0.683680 0.683680
0.707734 0.707734 0.707734
0.731351 0.731351 0.731351
0.754531 0.754531 0.754531
0.777125 0.777125 0.777125
0.799276 0.799276 0.799276
0.821024 0.821024 0.821024
0.842576 0.842576 0.842576
0.739885 0.739885 0.739885
0.762822 0.762822 0.762822
0.785237 0.785237 0.785237
0.807238 0.807238 0.807238
0.828781 0.828781 0.828781
0.850263 0.850263 0.850263
0.871739 0.871739 0.871739
0.893533 0.893533 0.893533
0.916588 0.916588 0.916588
0.083638 0.083638 0.083638
0.104576 0.104576 0.104576
0.125034 0.125034 0.125034
0.144341 0.144341 0.144341
0.163112 0.163112 0.163112
0.183057 0.183057 0.183057
0.204018 0.204018 0.204018
0.226627 0.226627 0.226627
0.250734 0.250734 0.250734
0.151032 0.151032 0.151032
0.170261 0.170261 0.170261
0.190642 0.190642 0.190642
0.212215 0.212215 0.212215
0.235376 0.235376 0.235376
0.260421 0.260421 0.260421
0.287257 0.287257 0.287257
0.315143 0.315143 0.315143
0.343499 0.343499 0.343499
0.220346 0.220346 0.220346
0.244128 0.244128 0.244128
0.270018 0.270018 0.270018
0.297350 0.297350 0.297350
0.325482 0.325482 0.325482
0.353953 0.353953 0.353953
0.382639 0.382639 0.382639
0.411187 0.411187 0.411187
0.439394 0.439394 0.439394
0.307371 0.307371 0.307371
0.335729 0.335729 0.335729
0.364316 0.364316 0.364316
0.393023 0.393023 0.393023
0.421483 0.421483 0.421483
0.449561 0.449561 0.449561
0.476958 0.476958 0.476958
0.503581 0.503581 0.503581
0.529483 0.529483 0.529483
0.403403 0.403403 0.403403
0.431703 0.431703 0.431703
0.459613 0.459613 0.459613
0.486724 0.486724 0.486724
0.513083 0.513083 0.513083
0.538769 0.538769 0.538769
0.564371 0.564371 0.564371
0.589774 0.589774 0.589774
0.615152 0.615152 0.615152
0.496400 0.496400 0.496400
0.522483 0.522483 0.522483
0.548049 0.548049 0.548049
0.573550 0.573550 0.573550
0.598973 0.598973 0.598973
0.624311 0.624311 0.624311
0.649402 0.649402 0.649402
0.674178 0.674178 0.674178
0.698480 0.698480 0.698480
0.582865 0.582865 0.582865
0.608249 0.608249 0.608249
0.633510 0.633510 0.633510
0.658436 0.658436 0.658436
0.683081 0.683081 0.683081
0.707149 0.707149 0.707149
0.730781 0.730781 0.730781
0.753973 0.753973 0.753973
0.776580 0.776580 0.776580
0.667483 0.667483 0.667483
0.691939 0.691939 0.691939
0.715824 0.715824 0.715824
0.739315 0.739315 0.739315
0.762267 0.762267 0.762267
0.784692 0.784692 0.784692
0.806703 0.806703 0.806703
0.828249 0.828249 0.828249
0.849752 0.849752 0.849752
0.747746 0.747746 0.747746
0.770491 0.770491 0.770491
0.792760 0.792760 0.792760
0.814634 0.814634 0.814634
0.836201 0.836201 0.836201
0.857636 0.857636 0.857636
0.879123 0.879123 0.879123
0.901088 0.901088 0.901088
0.924925 0.924925 0.924925
0.090461 0.090461 0.090461
0.111443 0.111443 0.111443
0.131770 0.131770 0.131770
0.150586 0.150586 0.150586
0.169780 0.169780 0.169780
0.190135 0.190135 0.190135
0.211668 0.211668 0.211668
0.234788 0.234788 0.234788
0.259774 0.259774 0.259774
0.157310 0.157310 0.157310
0.176964 0.176964 0.176964
0.197584 0.197584 0.197584
0.219797 0.219797 0.219797
0.243540 0.243540 0.243540
0.269375 0.269375 0.269375
0.296674 0.296674 0.296674
0.324792 0.324792 0.324792
0.353254 0.353254 0.353254
0.228255 0.228255 0.228255
0.252546 0.252546 0.252546
0.278980 0.278980 0.278980
0.306700 0.306700 0.306700
0.335042 0.335042 0.335042
0.363622 0.363622 0.363622
0.392328 0.392328 0.392328
0.420795 0.420795 0.420795
0.448882 0.448882 0.448882
0.317077 0.317077 0.317077
0.345451 0.345451 0.345451
0.374076 0.374076 0.374076
0.402698 0.402698 0.402698
0.431006 0.431006 0.431006
0.458941 0.458941 0.458941
0.486071 0.486071 0.486071
0.512450 0.512450 0.512450
0.538148 0.538148 0.538148
0.413112 0.413112 0.413112
0.441296 0.441296 0.441296
0.468926 0.468926 0.468926
0.495752 0.495752 0.495752
0.521849 0.521849 0.521849
0.547415 0.547415 0.547415
0.572928 0.572928 0.572928
0.598356 0.598356 0.598356
0.623700 0.623700 0.623700
0.505360 0.505360 0.505360
0.531217 0.531217 0.531217
0.556805 0.556805 0.556805
0.582242 0.582242 0.582242
0.607626 0.607626 0.607626
0.632890 0.632890 0.632890
0.657824 0.657824 0.657824
0.682481 0.682481 0.682481
0.706569 0.706569 0.706569
0.591490 0.591490 0.591490
0.616865 0.616865 0.616865
0.642044 0.642044 0.642044
0.666879 0.666879 0.666879
0.691348 0.691348 0.691348
0.715244 0.715244 0.715244
0.738744 0.738744 0.738744
0.761711 0.761711 0.761711
0.784147 0.784147 0.784147
0.675838 0.675838 0.675838
0.700100 0.700100 0.700100
0.723846 0.723846 0.723846
0.747183 0.747183 0.747183
0.769941 0.769941 0.769941
0.792221 0.792221 0.792221
0.814104 0.814104 0.814104
0.835671 0.835671 0.835671
0.857105 0.857105 0.857105
0.755517 0.755517 0.755517
0.778090 0.778090 0.778090
0.800224 0.800224 0.800224
0.821951 0.821951 0.821951
0.843499 0.843499 0.843499
0.864951 0.864951 0.864951
0.886586 0.886586 0.886586
0.909069 0.909069 0.909069
0.935467 0.935467 0.935467
0.097735 0.097735 0.097735
0.118333 0.118333 0.118333
0.138200 0.138200 0.138200
0.156831 0.156831 0.156831
0.176480 0.176480 0.176480
0.197093 0.197093 0.197093
0.219249 0.219249 0.219249
0.242952 0.242952 0.242952
0.268731 0.268731 0.268731
0.163960 0.163960 0.163960
0.183959 0.183959 0.183959
0.205003 0.205003 0.205003
0.227667 0.227667 0.227667
0.251893 0.251893 0.251893
0.278311 0.278311 0.278311
0.306028 0.306028 0.306028
0.334355 0.334355 0.334355
0.362928 0.362928 0.362928
0.236416 0.236416 0.236416
0.261565 0.261565 0.261565
0.288461 0.288461 0.288461
0.316379 0.316379 0.316379
0.344747 0.344747 0.344747
0.373363 0.373363 0.373363
0.401992 0.401992 0.401992
0.430320 0.430320 0.430320
0.458268 0.458268 0.458268
0.326704 0.326704 0.326704
0.355189 0.355189 0.355189
0.383880 0.383880 0.383880
0.412417 0.412417 0.412417
0.440610 0.440610 0.440610
0.468259 0.468259 0.468259
0.495104 0.495104 0.495104
0.521216 0.521216 0.521216
0.546781 0.546781 0.546781
0.422700 0.422700 0.422700
0.450761 0.450761 0.450761
0.478124 0.478124 0.478124
0.504718 0.504718 0.504718
0.530592 0.530592 0.530592
0.556177 0.556177 0.556177
0.581618 0.581618 0.581618
0.607002 0.607002 0.607002
0.632270 0.632270 0.632270
0.514200 0.514200 0.514200
0.539868 0.539868 0.539868
0.565468 0.565468 0.565468
0.590870 0.590870 0.590870
0.616247 0.616247 0.616247
0.641433 0.641433 0.641433
0.666273 0.666273 0.666273
0.690756 0.690756 0.690756
0.714663 0.714663 0.714663
0.600063 0.600063 0.600063
0.625392 0.625392 0.625392
0.650471 0.650471 0.650471
0.675239 0.675239 0.675239
0.699515 0.699515 0.699515
0.723270 0.723270 0.723270
0.746620 0.746620 0.746620
0.769390 0.769390 0.769390
0.791680 0.791680 0.791680
0.684140 0.684140 0.684140
0.708184 0.708184 0.708184
0.731789 0.731789 0.731789
0.754960 0.754960 0.754960
0.777545 0.777545 0.777545
0.799689 0.799689 0.799689
0.821427 0.821427 0.821427
0.842977 0.842977 0.842977
0.864428 0.864428 0.864428
0.763249 0.763249 0.763249
0.785655 0.785655 0.785655
0.807649 0.807649 0.807649
0.829195 0.829195 0.829195
0.850655 0.850655 0.850655
0.872134 0.872134 0.872134
0.893938 0.893938 0.893938
0.917028 0.917028 0.917028
0.946243 0.946243 0.946243
0.104966 0.104966 0.104966
0.125418 0.125418 0.125418
0.144691 0.144691 0.144691
0.163481 0.163481 0.163481
0.183449 0.183449 0.183449
0.204447 0.204447 0.204447
0.227079 0.227079 0.227079
0.251238 0.251238 0.251238
0.277667 0.277667 0.277667
0.170632 0.170632 0.170632
0.191032 0.191032 0.191032
0.212634 0.212634 0.212634
0.235828 0.235828 0.235828
0.260919 0.260919 0.260919
0.287781 0.287781 0.287781
0.315680 0.315680 0.315680
0.344041 0.344041 0.344041
0.372649 0.372649 0.372649
0.244581 0.244581 0.244581
0.270513 0.270513 0.270513
0.297869 0.297869 0.297869
0.326014 0.326014 0.326014
0.354491 0.354491 0.354491
0.383179 0.383179 0.383179
0.411722 0.411722 0.411722
0.439923 0.439923 0.439923
0.467591 0.467591 0.467591
0.336257 0.336257 0.336257
0.364849 0.364849 0.364849
0.393557 0.393557 0.393557
0.422013 0.422013 0.422013
0.450083 0.450083 0.450083
0.477465 0.477465 0.477465
0.504076 0.504076 0.504076
0.529965 0.529965 0.529965
0.555549 0.555549 0.555549
0.432238 0.432238 0.432238
0.460130 0.460130 0.460130
0.487226 0.487226 0.487226
0.513569 0.513569 0.513569
0.539247 0.539247 0.539247
0.564848 0.564848 0.564848
0.590251 0.590251 0.590251
0.615628 0.615628 0.615628
0.640822 0.640822 0.640822
0.522969 0.522969 0.522969
0.548536 0.548536 0.548536
0.574033 0.574033 0.574033
0.599447 0.599447 0.599447
0.624781 0.624781 0.624781
0.649867 0.649867 0.649867
0.674640 0.674640 0.674640
0.698930 0.698930 0.698930
0.722695 0.722695 0.722695
0.608728 0.608728 0.608728
0.633986 0.633986 0.633986
0.658906 0.658906 0.658906
0.683542 0.683542 0.683542
0.707599 0.707599 0.707599
0.731220 0.731220 0.731220
0.754402 0.754402 0.754402
0.777000 0.777000 0.777000
0.799152 0.799152 0.799152
0.692394 0.692394 0.692394
0.716270 0.716270 0.716270
0.739753 0.739753 0.739753
0.762694 0.762694 0.762694
0.785111 0.785111 0.785111
0.807115 0.807115 0.807115
0.828656 0.828656 0.828656
0.850145 0.850145 0.850145
0.871621 0.871621 0.871621
0.770913 0.770913 0.770913
0.793175 0.793175 0.793175
0.815042 0.815042 0.815042
0.836609 0.836609 0.836609
0.858045 0.858045 0.858045
0.879540 0.879540 0.879540
0.901530 0.901530 0.901530
0.925503 0.925503 0.925503
0.957249 0.957249 0.957249
