working/Infinite_Arch_Leica_Looks_v1.2/looks/invitation/look.CUBE
#Created by: Infinite Arch Leica Looks v1.0
#Unique Leica Look ID: 1001
#Based Filmstyle Mode: Monochrome
TITLE "IA Invitation"
LUT_3D_SIZE 17
DOMAIN_MIN 0.0 0.0 0.0
DOMAIN_MAX 1.0 1.0 1.0
0.050328 0.050328 0.050328
0.059367 0.059367 0.059367
0.069053 0.069053 0.069053
0.079573 0.079573 0.079573
0.089712 0.089712 0.089712
0.100393 0.100393 0.100393
0.110701 0.110701 0.110701
0.120931 0.120931 0.120931
0.131045 0.131045 0.131045
0.140593 0.140593 0.140593
0.149899 0.149899 0.149899
0.159233 0.159233 0.159233
0.169040 0.169040 0.169040
0.178949 0.178949 0.178949
0.189353 0.189353 0.189353
0.199543 0.199543 0.199543
0.210828 0.210828 0.210828
0.083312 0.083312 0.083312
0.093406 0.093406 0.093406
0.104243 0.104243 0.104243
0.114244 0.114244 0.114244
0.124707 0.124707 0.124707
0.134500 0.134500 0.134500
0.144042 0.144042 0.144042
0.153226 0.153226 0.153226
0.162799 0.162799 0.162799
0.172624 0.172624 0.172624
0.182724 0.182724 0.182724
0.193119 0.193119 0.193119
0.203653 0.203653 0.203653
0.214890 0.214890 0.214890
0.226242 0.226242 0.226242
0.238259 0.238259 0.238259
0.250305 0.250305 0.250305
0.118052 0.118052 0.118052
0.128379 0.128379 0.128379
0.137940 0.137940 0.137940
0.147411 0.147411 0.147411
0.156584 0.156584 0.156584
0.166369 0.166369 0.166369
0.176219 0.176219 0.176219
0.186521 0.186521 0.186521
0.196827 0.196827 0.196827
0.207779 0.207779 0.207779
0.218954 0.218954 0.218954
0.230618 0.230618 0.230618
0.242635 0.242635 0.242635
0.255168 0.255168 0.255168
0.268385 0.268385 0.268385
0.281733 0.281733 0.281733
0.295634 0.295634 0.295634
0.150740 0.150740 0.150740
0.160136 0.160136 0.160136
0.169947 0.169947 0.169947
0.179901 0.179901 0.179901
0.190310 0.190310 0.190310
0.200523 0.200523 0.200523
0.211858 0.211858 0.211858
0.223048 0.223048 0.223048
0.234992 0.234992 0.234992
0.247015 0.247015 0.247015
0.259998 0.259998 0.259998
0.273173 0.273173 0.273173
0.286812 0.286812 0.286812
0.300658 0.300658 0.300658
0.314685 0.314685 0.314685
0.328865 0.328865 0.328865
0.343037 0.343037 0.343037
0.183685 0.183685 0.183685
0.194064 0.194064 0.194064
0.204704 0.204704 0.204704
0.215917 0.215917 0.215917
0.227351 0.227351 0.227351
0.239367 0.239367 0.239367
0.251540 0.251540 0.251540
0.264805 0.264805 0.264805
0.277964 0.277964 0.277964
0.291870 0.291870 0.291870
0.305667 0.305667 0.305667
0.319875 0.319875 0.319875
0.333985 0.333985 0.333985
0.348279 0.348279 0.348279
0.362554 0.362554 0.362554
0.376932 0.376932 0.376932
0.391258 0.391258 0.391258
0.219987 0.219987 0.219987
0.231726 0.231726 0.231726
0.243744 0.243744 0.243744
0.256394 0.256394 0.256394
0.269598 0.269598 0.269598
0.283021 0.283021 0.283021
0.296908 0.296908 0.296908
0.310782 0.310782 0.310782
0.325031 0.325031 0.325031
0.339105 0.339105 0.339105
0.353496 0.353496 0.353496
0.367712 0.367712 0.367712
0.382180 0.382180 0.382180
0.396426 0.396426 0.396426
0.410731 0.410731 0.410731
0.424853 0.424853 0.424853
0.438945 0.438945 0.438945
0.261217 0.261217 0.261217
0.274386 0.274386 0.274386
0.288095 0.288095 0.288095
0.301928 0.301928 0.301928
0.316003 0.316003 0.316003
0.330163 0.330163 0.330163
0.344367 0.344367 0.344367
0.358690 0.358690 0.358690
0.372978 0.372978 0.372978
0.387388 0.387388 0.387388
0.401611 0.401611 0.401611
0.415898 0.415898 0.415898
0.429952 0.429952 0.429952
0.444048 0.444048 0.444048
0.457905 0.457905 0.457905
0.471600 0.471600 0.471600
0.485065 0.485065 0.485065
0.306932 0.306932 0.306932
0.321183 0.321183 0.321183
0.335280 0.335280 0.335280
0.349602 0.349602 0.349602
0.363862 0.363862 0.363862
0.378265 0.378265 0.378265
0.392568 0.392568 0.392568
0.406849 0.406849 0.406849
0.421033 0.421033 0.421033
0.435108 0.435108 0.435108
0.449117 0.449117 0.449117
0.462913 0.462913 0.462913
0.476527 0.476527 0.476527
0.489921 0.489921 0.489921
0.503160 0.503160 0.503160
0.516173 0.516173 0.516173
0.529073 0.529073 0.529073
0.354813 0.354813 0.354813
0.369015 0.369015 0.369015
0.383502 0.383502 0.383502
0.397733 0.397733 0.397733
0.412043 0.412043 0.412043
0.426145 0.426145 0.426145
0.440240 0.440240 0.440240
0.454157 0.454157 0.454157
0.467899 0.467899 0.467899
0.481425 0.481425 0.481425
0.494754 0.494754 0.494754
0.507935 0.507935 0.507935
0.520874 0.520874 0.520874
0.533729 0.533729 0.533729
0.546440 0.546440 0.546440
0.559324 0.559324 0.559324
0.571986 0.571986 0.571986
0.402942 0.402942 0.402942
0.417201 0.417201 0.417201
0.431247 0.431247 0.431247
0.445334 0.445334 0.445334
0.459173 0.459173 0.459173
0.472850 0.472850 0.472850
0.486297 0.486297 0.486297
0.499575 0.499575 0.499575
0.512669 0.512669 0.512669
0.525579 0.525579 0.525579
0.538363 0.538363 0.538363
0.551150 0.551150 0.551150
0.563965 0.563965 0.563965
0.576628 0.576628 0.576628
0.589369 0.589369 0.589369
0.602018 0.602018 0.602018
0.614748 0.614748 0.614748
0.450396 0.450396 0.450396
0.464180 0.464180 0.464180
0.477769 0.477769 0.477769
0.491146 0.491146 0.491146
0.504372 0.504372 0.504372
0.517354 0.517354 0.517354
0.530254 0.530254 0.530254
0.542981 0.542981 0.542981
0.555839 0.555839 0.555839
0.568571 0.568571 0.568571
0.581282 0.581282 0.581282
0.593976 0.593976 0.593976
0.606666 0.606666 0.606666
0.619344 0.619344 0.619344
0.631935 0.631935 0.631935
0.644493 0.644493 0.644493
0.656883 0.656883 0.656883
0.495977 0.495977 0.495977
0.509138 0.509138 0.509138
0.522069 0.522069 0.522069
0.534904 0.534904 0.534904
0.547634 0.547634 0.547634
0.560502 0.560502 0.560502
0.573139 0.573139 0.573139
0.585918 0.585918 0.585918
0.598570 0.598570 0.598570
0.611300 0.611300 0.611300
0.623912 0.623912 0.623912
0.636538 0.636538 0.636538
0.649006 0.649006 0.649006
0.661427 0.661427 0.661427
0.673786 0.673786 0.673786
0.686013 0.686013 0.686013
0.698097 0.698097 0.698097
0.539534 0.539534 0.539534
0.552339 0.552339 0.552339
0.565135 0.565135 0.565135
0.577808 0.577808 0.577808
0.590537 0.590537 0.590537
0.603196 0.603196 0.603196
0.615914 0.615914 0.615914
0.628471 0.628471 0.628471
0.641104 0.641104 0.641104
0.653496 0.653496 0.653496
0.665947 0.665947 0.665947
0.678242 0.678242 0.678242
0.690437 0.690437 0.690437
0.702445 0.702445 0.702445
0.714350 0.714350 0.714350
0.726153 0.726153 0.726153
0.737864 0.737864 0.737864
0.582458 0.582458 0.582458
0.595141 0.595141 0.595141
0.607841 0.607841 0.607841
0.620503 0.620503 0.620503
0.633105 0.633105 0.633105
0.645638 0.645638 0.645638
0.658036 0.658036 0.658036
0.670444 0.670444 0.670444
0.682689 0.682689 0.682689
0.694832 0.694832 0.694832
0.706769 0.706769 0.706769
0.718666 0.718666 0.718666
0.730409 0.730409 0.730409
0.742106 0.742106 0.742106
0.753609 0.753609 0.753609
0.764986 0.764986 0.764986
0.776223 0.776223 0.776223
0.625063 0.625063 0.625063
0.637698 0.637698 0.637698
0.650145 0.650145 0.650145
0.662574 0.662574 0.662574
0.674917 0.674917 0.674917
0.687136 0.687136 0.687136
0.699200 0.699200 0.699200
0.711115 0.711115 0.711115
0.722960 0.722960 0.722960
0.734675 0.734675 0.734675
0.746316 0.746316 0.746316
0.757755 0.757755 0.757755
0.769094 0.769094 0.769094
0.780279 0.780279 0.780279
0.791390 0.791390 0.791390
0.802375 0.802375 0.802375
0.813287 0.813287 0.813287
0.667088 0.667088 0.667088
0.679366 0.679366 0.679366
0.691553 0.691553 0.691553
0.703542 0.703542 0.703542
0.715445 0.715445 0.715445
0.727233 0.727233 0.727233
0.738941 0.738941 0.738941
0.750500 0.750500 0.750500
0.761903 0.761903 0.761903
0.773182 0.773182 0.773182
0.784336 0.784336 0.784336
0.795403 0.795403 0.795403
0.806353 0.806353 0.806353
0.817229 0.817229 0.817229
0.827911 0.827911 0.827911
0.838793 0.838793 0.838793
0.849417 0.849417 0.849417
0.707869 0.707869 0.707869
0.719755 0.719755 0.719755
0.731482 0.731482 0.731482
0.743175 0.743175 0.743175
0.754660 0.754660 0.754660
0.766028 0.766028 0.766028
0.777251 0.777251 0.777251
0.788381 0.788381 0.788381
0.799400 0.799400 0.799400
0.810329 0.810329 0.810329
0.821145 0.821145 0.821145
0.831888 0.831888 0.831888
0.842697 0.842697 0.842697
0.853310 0.853310 0.853310
0.864147 0.864147 0.864147
0.874712 0.874712 0.874712
0.885765 0.885765 0.885765
0.053338 0.053338 0.053338
0.062574 0.062574 0.062574
0.072618 0.072618 0.072618
0.083063 0.083063 0.083063
0.093131 0.093131 0.093131
0.103988 0.103988 0.103988
0.114009 0.114009 0.114009
0.124456 0.124456 0.124456
0.134272 0.134272 0.134272
0.143813 0.143813 0.143813
0.153001 0.153001 0.153001
0.162559 0.162559 0.162559
0.172383 0.172383 0.172383
0.182470 0.182470 0.182470
0.192867 0.192867 0.192867
0.203373 0.203373 0.203373
0.214617 0.214617 0.214617
0.086749 0.086749 0.086749
0.097179 0.097179 0.097179
0.107734 0.107734 0.107734
0.117791 0.117791 0.117791
0.128136 0.128136 0.128136
0.137697 0.137697 0.137697
0.147186 0.147186 0.147186
0.156357 0.156357 0.156357
0.166129 0.166129 0.166129
0.175977 0.175977 0.175977
0.186266 0.186266 0.186266
0.196580 0.196580 0.196580
0.207503 0.207503 0.207503
0.218680 0.218680 0.218680
0.230324 0.230324 0.230324
0.242341 0.242341 0.242341
0.254842 0.254842 0.254842
0.121640 0.121640 0.121640
0.131698 0.131698 0.131698
0.141243 0.141243 0.141243
0.150517 0.150517 0.150517
0.159896 0.159896 0.159896
0.169706 0.169706 0.169706
0.179649 0.179649 0.179649
0.190057 0.190057 0.190057
0.200239 0.200239 0.200239
0.211584 0.211584 0.211584
0.222772 0.222772 0.222772
0.234698 0.234698 0.234698
0.246720 0.246720 0.246720
0.259674 0.259674 0.259674
0.272851 0.272851 0.272851
0.286472 0.286472 0.286472
0.300321 0.300321 0.300321
0.153847 0.153847 0.153847
0.163462 0.163462 0.163462
0.173292 0.173292 0.173292
0.183430 0.183430 0.183430
0.193814 0.193814 0.193814
0.204425 0.204425 0.204425
0.215645 0.215645 0.215645
0.227057 0.227057 0.227057
0.239073 0.239073 0.239073
0.251213 0.251213 0.251213
0.264482 0.264482 0.264482
0.277642 0.277642 0.277642
0.291531 0.291531 0.291531
0.305331 0.305331 0.305331
0.319527 0.319527 0.319527
0.333641 0.333641 0.333641
0.347928 0.347928 0.347928
0.187227 0.187227 0.187227
0.197509 0.197509 0.197509
0.208540 0.208540 0.208540
0.219712 0.219712 0.219712
0.231432 0.231432 0.231432
0.243449 0.243449 0.243449
0.256069 0.256069 0.256069
0.269276 0.269276 0.269276
0.282679 0.282679 0.282679
0.296570 0.296570 0.296570
0.310430 0.310430 0.310430
0.324685 0.324685 0.324685
0.338754 0.338754 0.338754
0.353146 0.353146 0.353146
0.367366 0.367366 0.367366
0.381829 0.381829 0.381829
0.396079 0.396079 0.396079
0.223816 0.223816 0.223816
0.235806 0.235806 0.235806
0.247830 0.247830 0.247830
0.260894 0.260894 0.260894
0.274064 0.274064 0.274064
0.287755 0.287755 0.287755
0.301591 0.301591 0.301591
0.315653 0.315653 0.315653
0.329819 0.329819 0.329819
0.344014 0.344014 0.344014
0.358341 0.358341 0.358341
0.372621 0.372621 0.372621
0.387039 0.387039 0.387039
0.401257 0.401257 0.401257
0.415552 0.415552 0.415552
0.429610 0.429610 0.429610
0.443706 0.443706 0.443706
0.265697 0.265697 0.265697
0.278874 0.278874 0.278874
0.292809 0.292809 0.292809
0.306597 0.306597 0.306597
0.320836 0.320836 0.320836
0.334936 0.334936 0.334936
0.349252 0.349252 0.349252
0.363515 0.363515 0.363515
0.377912 0.377912 0.377912
0.392221 0.392221 0.392221
0.406498 0.406498 0.406498
0.420689 0.420689 0.420689
0.434762 0.434762 0.434762
0.448777 0.448777 0.448777
0.462577 0.462577 0.462577
0.476197 0.476197 0.476197
0.489596 0.489596 0.489596
0.311757 0.311757 0.311757
0.325987 0.325987 0.325987
0.340086 0.340086 0.340086
0.354464 0.354464 0.354464
0.368669 0.368669 0.368669
0.383152 0.383152 0.383152
0.397386 0.397386 0.397386
0.411695 0.411695 0.411695
0.425803 0.425803 0.425803
0.439897 0.439897 0.439897
0.453819 0.453819 0.453819
0.467566 0.467566 0.467566
0.481096 0.481096 0.481096
0.494430 0.494430 0.494430
0.507615 0.507615 0.507615
0.520557 0.520557 0.520557
0.533417 0.533417 0.533417
0.359654 0.359654 0.359654
0.373966 0.373966 0.373966
0.388354 0.388354 0.388354
0.402589 0.402589 0.402589
0.416855 0.416855 0.416855
0.430899 0.430899 0.430899
0.444993 0.444993 0.444993
0.458837 0.458837 0.458837
0.472519 0.472519 0.472519
0.485971 0.485971 0.485971
0.499251 0.499251 0.499251
0.512352 0.512352 0.512352
0.525264 0.525264 0.525264
0.538052 0.538052 0.538052
0.550834 0.550834 0.550834
0.563654 0.563654 0.563654
0.576314 0.576314 0.576314
0.407818 0.407818 0.407818
0.421986 0.421986 0.421986
0.436066 0.436066 0.436066
0.450057 0.450057 0.450057
0.463844 0.463844 0.463844
0.477440 0.477440 0.477440
0.490821 0.490821 0.490821
0.504051 0.504051 0.504051
0.517041 0.517041 0.517041
0.529941 0.529941 0.529941
0.542671 0.542671 0.542671
0.555525 0.555525 0.555525
0.568263 0.568263 0.568263
0.580970 0.580970 0.580970
0.593667 0.593667 0.593667
0.606354 0.606354 0.606354
0.619036 0.619036 0.619036
0.455092 0.455092 0.455092
0.468823 0.468823 0.468823
0.482333 0.482333 0.482333
0.495652 0.495652 0.495652
0.508819 0.508819 0.508819
0.521752 0.521752 0.521752
0.534592 0.534592 0.534592
0.547318 0.547318 0.547318
0.560190 0.560190 0.560190
0.572834 0.572834 0.572834
0.585607 0.585607 0.585607
0.598262 0.598262 0.598262
0.610989 0.610989 0.610989
0.623606 0.623606 0.623606
0.636230 0.636230 0.636230
0.648704 0.648704 0.648704
0.661122 0.661122 0.661122
0.500469 0.500469 0.500469
0.513545 0.513545 0.513545
0.526451 0.526451 0.526451
0.539223 0.539223 0.539223
0.552024 0.552024 0.552024
0.564824 0.564824 0.564824
0.577495 0.577495 0.577495
0.590227 0.590227 0.590227
0.602883 0.602883 0.602883
0.615605 0.615605 0.615605
0.628158 0.628158 0.628158
0.640798 0.640798 0.640798
0.653195 0.653195 0.653195
0.665644 0.665644 0.665644
0.677943 0.677943 0.677943
0.690141 0.690141 0.690141
0.702154 0.702154 0.702154
0.543839 0.543839 0.543839
0.556709 0.556709 0.556709
0.569424 0.569424 0.569424
0.582146 0.582146 0.582146
0.594832 0.594832 0.594832
0.607530 0.607530 0.607530
0.620196 0.620196 0.620196
0.632795 0.632795 0.632795
0.645335 0.645335 0.645335
0.657730 0.657730 0.657730
0.670142 0.670142 0.670142
0.682389 0.682389 0.682389
0.694538 0.694538 0.694538
0.706479 0.706479 0.706479
0.718376 0.718376 0.718376
0.730124 0.730124 0.730124
0.741822 0.741822 0.741822
0.586778 0.586778 0.586778
0.599423 0.599423 0.599423
0.612160 0.612160 0.612160
0.624758 0.624758 0.624758
0.637390 0.637390 0.637390
0.649843 0.649843 0.649843
0.662270 0.662270 0.662270
0.674617 0.674617 0.674617
0.686838 0.686838 0.686838
0.698908 0.698908 0.698908
0.710823 0.710823 0.710823
0.722673 0.722673 0.722673
0.734387 0.734387 0.734387
0.746034 0.746034 0.746034
0.757476 0.757476 0.757476
0.768819 0.768819 0.768819
0.780007 0.780007 0.780007
0.629336 0.629336 0.629336
0.641950 0.641950 0.641950
0.654330 0.654330 0.654330
0.666785 0.666785 0.666785
0.679068 0.679068 0.679068
0.691257 0.691257 0.691257
0.703251 0.703251 0.703251
0.715154 0.715154 0.715154
0.726947 0.726947 0.726947
0.738656 0.738656 0.738656
0.750220 0.750220 0.750220
0.761625 0.761625 0.761625
0.772908 0.772908 0.772908
0.784064 0.784064 0.784064
0.795134 0.795134 0.795134
0.806085 0.806085 0.806085
0.816965 0.816965 0.816965
0.671278 0.671278 0.671278
0.683519 0.683519 0.683519
0.695647 0.695647 0.695647
0.707577 0.707577 0.707577
0.719466 0.719466 0.719466
0.731198 0.731198 0.731198
0.742891 0.742891 0.742891
0.754381 0.754381 0.754381
0.765752 0.765752 0.765752
0.776979 0.776979 0.776979
0.788110 0.788110 0.788110
0.799132 0.799132 0.799132
0.810063 0.810063 0.810063
0.820883 0.820883 0.820883
0.831620 0.831620 0.831620
0.842436 0.842436 0.842436
0.853042 0.853042 0.853042
0.711922 0.711922 0.711922
0.723757 0.723757 0.723757
0.735472 0.735472 0.735472
0.747097 0.747097 0.747097
0.758529 0.758529 0.758529
0.769856 0.769856 0.769856
0.781032 0.781032 0.781032
0.792137 0.792137 0.792137
0.803115 0.803115 0.803115
0.814022 0.814022 0.814022
0.824771 0.824771 0.824771
0.835589 0.835589 0.835589
0.846302 0.846302 0.846302
0.857023 0.857023 0.857023
0.867762 0.867762 0.867762
0.878497 0.878497 0.878497
0.889460 0.889460 0.889460
0.056407 0.056407 0.056407
0.065864 0.065864 0.065864
0.076225 0.076225 0.076225
0.086503 0.086503 0.086503
0.096910 0.096910 0.096910
0.107486 0.107486 0.107486
0.117529 0.117529 0.117529
0.127892 0.127892 0.127892
0.137454 0.137454 0.137454
0.146961 0.146961 0.146961
0.156130 0.156130 0.156130
0.165889 0.165889 0.165889
0.175735 0.175735 0.175735
0.186011 0.186011 0.186011
0.196333 0.196333 0.196333
0.207228 0.207228 0.207228
0.218406 0.218406 0.218406
0.090143 0.090143 0.090143
0.100857 0.100857 0.100857
0.111128 0.111128 0.111128
0.121385 0.121385 0.121385
0.131463 0.131463 0.131463
0.141008 0.141008 0.141008
0.150294 0.150294 0.150294
0.159657 0.159657 0.159657
0.169465 0.169465 0.169465
0.179396 0.179396 0.179396
0.189803 0.189803 0.189803
0.199970 0.199970 0.199970
0.211311 0.211311 0.211311
0.222495 0.222495 0.222495
0.234404 0.234404 0.234404
0.246426 0.246426 0.246426
0.259351 0.259351 0.259351
0.125149 0.125149 0.125149
0.134901 0.134901 0.134901
0.144446 0.144446 0.144446
0.153622 0.153622 0.153622
0.163223 0.163223 0.163223
0.173051 0.173051 0.173051
0.183175 0.183175 0.183175
0.193563 0.193563 0.193563
0.204147 0.204147 0.204147
0.215372 0.215372 0.215372
0.226762 0.226762 0.226762
0.238779 0.238779 0.238779
0.250885 0.250885 0.250885
0.264160 0.264160 0.264160
0.277320 0.277320 0.277320
0.291191 0.291191 0.291191
0.304995 0.304995 0.304995
0.156997 0.156997 0.156997
0.166794 0.166794 0.166794
0.176647 0.176647 0.176647
0.186972 0.186972 0.186972
0.197263 0.197263 0.197263
0.208266 0.208266 0.208266
0.219438 0.219438 0.219438
0.231138 0.231138 0.231138
0.243155 0.243155 0.243155
0.255744 0.255744 0.255744
0.268954 0.268954 0.268954
0.282338 0.282338 0.282338
0.296232 0.296232 0.296232
0.310077 0.310077 0.310077
0.324340 0.324340 0.324340
0.338410 0.338410 0.338410
0.352796 0.352796 0.352796
0.190759 0.190759 0.190759
0.201025 0.201025 0.201025
0.212341 0.212341 0.212341
0.223538 0.223538 0.223538
0.235512 0.235512 0.235512
0.247536 0.247536 0.247536
0.260570 0.260570 0.260570
0.273742 0.273742 0.273742
0.287414 0.287414 0.287414
0.301254 0.301254 0.301254
0.315304 0.315304 0.315304
0.329474 0.329474 0.329474
0.343661 0.343661 0.343661
0.357993 0.357993 0.357993
0.372264 0.372264 0.372264
0.386690 0.386690 0.386690
0.400904 0.400904 0.400904
0.227871 0.227871 0.227871
0.239887 0.239887 0.239887
0.252119 0.252119 0.252119
0.265375 0.265375 0.265375
0.278534 0.278534 0.278534
0.292470 0.292470 0.292470
0.306261 0.306261 0.306261
0.320489 0.320489 0.320489
0.334593 0.334593 0.334593
0.348900 0.348900 0.348900
0.363168 0.363168 0.363168
0.377558 0.377558 0.377558
0.391873 0.391873 0.391873
0.406148 0.406148 0.406148
0.420345 0.420345 0.420345
0.434415 0.434415 0.434415
0.448437 0.448437 0.448437
0.270167 0.270167 0.270167
0.283625 0.283625 0.283625
0.297505 0.297505 0.297505
0.311405 0.311405 0.311405
0.325642 0.325642 0.325642
0.339732 0.339732 0.339732
0.354115 0.354115 0.354115
0.368324 0.368324 0.368324
0.382801 0.382801 0.382801
0.397040 0.397040 0.397040
0.411347 0.411347 0.411347
0.425460 0.425460 0.425460
0.439553 0.439553 0.439553
0.453481 0.453481 0.453481
0.467232 0.467232 0.467232
0.480768 0.480768 0.480768
0.494105 0.494105 0.494105
0.316620 0.316620 0.316620
0.330772 0.330772 0.330772
0.344991 0.344991 0.344991
0.359306 0.359306 0.359306
0.373610 0.373610 0.373610
0.388005 0.388005 0.388005
0.402236 0.402236 0.402236
0.416510 0.416510 0.416510
0.430557 0.430557 0.430557
0.444652 0.444652 0.444652
0.458501 0.458501 0.458501
0.472187 0.472187 0.472187
0.485644 0.485644 0.485644
0.498928 0.498928 0.498928
0.512036 0.512036 0.512036
0.524949 0.524949 0.524949
0.537741 0.537741 0.537741
0.364476 0.364476 0.364476
0.378890 0.378890 0.378890
0.393183 0.393183 0.393183
0.407468 0.407468 0.407468
0.421642 0.421642 0.421642
0.435720 0.435720 0.435720
0.449717 0.449717 0.449717
0.463508 0.463508 0.463508
0.477110 0.477110 0.477110
0.490496 0.490496 0.490496
0.503729 0.503729 0.503729
0.516728 0.516728 0.516728
0.529628 0.529628 0.529628
0.542361 0.542361 0.542361
0.555210 0.555210 0.555210
0.567954 0.567954 0.567954
0.580658 0.580658 0.580658
0.412658 0.412658 0.412658
0.426752 0.426752 0.426752
0.440848 0.440848 0.440848
0.454754 0.454754 0.454754
0.468490 0.468490 0.468490
0.482005 0.482005 0.482005
0.495328 0.495328 0.495328
0.508500 0.508500 0.508500
0.521435 0.521435 0.521435
0.534281 0.534281 0.534281
0.547001 0.547001 0.547001
0.559877 0.559877 0.559877
0.572528 0.572528 0.572528
0.585296 0.585296 0.585296
0.597953 0.597953 0.597953
0.610678 0.610678 0.610678
0.623300 0.623300 0.623300
0.459768 0.459768 0.459768
0.473437 0.473437 0.473437
0.486875 0.486875 0.486875
0.500146 0.500146 0.500146
0.513229 0.513229 0.513229
0.526136 0.526136 0.526136
0.538913 0.538913 0.538913
0.551708 0.551708 0.551708
0.564514 0.564514 0.564514
0.577182 0.577182 0.577182
0.589917 0.589917 0.589917
0.602571 0.602571 0.602571
0.615295 0.615295 0.615295
0.627845 0.627845 0.627845
0.640493 0.640493 0.640493
0.652894 0.652894 0.652894
0.665341 0.665341 0.665341
0.504941 0.504941 0.504941
0.517907 0.517907 0.517907
0.530808 0.530808 0.530808
0.543529 0.543529 0.543529
0.556395 0.556395 0.556395
0.569116 0.569116 0.569116
0.581834 0.581834 0.581834
0.594523 0.594523 0.594523
0.607218 0.607218 0.607218
0.619888 0.619888 0.619888
0.632485 0.632485 0.632485
0.645031 0.645031 0.645031
0.657424 0.657424 0.657424
0.669841 0.669841 0.669841
0.682089 0.682089 0.682089
0.694243 0.694243 0.694243
0.706189 0.706189 0.706189
0.548195 0.548195 0.548195
0.561054 0.561054 0.561054
0.573695 0.573695 0.573695
0.586468 0.586468 0.586468
0.599115 0.599115 0.599115
0.611849 0.611849 0.611849
0.624452 0.624452 0.624452
0.637083 0.637083 0.637083
0.649541 0.649541 0.649541
0.661965 0.661965 0.661965
0.674317 0.674317 0.674317
0.686540 0.686540 0.686540
0.698615 0.698615 0.698615
0.710531 0.710531 0.710531
0.722385 0.722385 0.722385
0.734099 0.734099 0.734099
0.745752 0.745752 0.745752
0.591085 0.591085 0.591085
0.603749 0.603749 0.603749
0.616461 0.616461 0.616461
0.629024 0.629024 0.629024
0.641645 0.641645 0.641645
0.654029 0.654029 0.654029
0.666483 0.666483 0.666483
0.678770 0.678770 0.678770
0.690961 0.690961 0.690961
0.702960 0.702960 0.702960
0.714864 0.714864 0.714864
0.726660 0.726660 0.726660
0.738370 0.738370 0.738370
0.749939 0.749939 0.749939
0.761347 0.761347 0.761347
0.772634 0.772634 0.772634
0.783791 0.783791 0.783791
0.633653 0.633653 0.633653
0.646175 0.646175 0.646175
0.658577 0.658577 0.658577
0.670976 0.670976 0.670976
0.683219 0.683219 0.683219
0.695353 0.695353 0.695353
0.707284 0.707284 0.707284
0.719177 0.719177 0.719177
0.730913 0.730913 0.730913
0.742608 0.742608 0.742608
0.754102 0.754102 0.754102
0.765475 0.765475 0.765475
0.776706 0.776706 0.776706
0.787839 0.787839 0.787839
0.798864 0.798864 0.798864
0.809796 0.809796 0.809796
0.820620 0.820620 0.820620
0.675447 0.675447 0.675447
0.687663 0.687663 0.687663
0.699718 0.699718 0.699718
0.711630 0.711630 0.711630
0.723469 0.723469 0.723469
0.735184 0.735184 0.735184
0.746815 0.746815 0.746815
0.758250 0.758250 0.758250
0.769581 0.769581 0.769581
0.780760 0.780760 0.780760
0.791867 0.791867 0.791867
0.802848 0.802848 0.802848
0.813757 0.813757 0.813757
0.824511 0.824511 0.824511
0.835323 0.835323 0.835323
0.846043 0.846043 0.846043
0.856756 0.856756 0.856756
0.715958 0.715958 0.715958
0.727740 0.727740 0.727740
0.739446 0.739446 0.739446
0.750996 0.750996 0.750996
0.762395 0.762395 0.762395
0.773667 0.773667 0.773667
0.784818 0.784818 0.784818
0.795879 0.795879 0.795879
0.806827 0.806827 0.806827
0.817696 0.817696 0.817696
0.828368 0.828368 0.828368
0.839259 0.839259 0.839259
0.849870 0.849870 0.849870
0.860702 0.860702 0.860702
0.871344 0.871344 0.871344
0.882249 0.882249 0.882249
0.893128 0.893128 0.893128
0.059543 0.059543 0.059543
0.069243 0.069243 0.069243
0.079768 0.079768 0.079768
0.089900 0.089900 0.089900
0.100595 0.100595 0.100595
0.110887 0.110887 0.110887
0.121128 0.121128 0.121128
0.131227 0.131227 0.131227
0.140774 0.140774 0.140774
0.150071 0.150071 0.150071
0.159418 0.159418 0.159418
0.169225 0.169225 0.169225
0.179143 0.179143 0.179143
0.189549 0.189549 0.189549
