working/Infinite_Arch_Leica_Looks_v1.2/looks/invitation/look.CUBE
#Created by: Infinite Arch Leica Looks v1.0
#Unique Leica Look ID: 1001
#Based Filmstyle Mode: Monochrome
TITLE "IA Invitation"
LUT_3D_SIZE 5
DOMAIN_MIN 0.0 0.0 0.0
DOMAIN_MAX 1.0 1.0 1.0
0.050328 0.050328 0.050328
0.089712 0.089712 0.089712
0.131045 0.131045 0.131045
0.169040 0.169040 0.169040
0.210828 0.210828 0.210828
0.183685 0.183685 0.183685
0.227351 0.227351 0.227351
0.277964 0.277964 0.277964
0.333985 0.333985 0.333985
0.391258 0.391258 0.391258
0.354813 0.354813 0.354813
0.412043 0.412043 0.412043
0.467899 0.467899 0.467899
0.520874 0.520874 0.520874
0.571986 0.571986 0.571986
0.539534 0.539534 0.539534
0.590537 0.590537 0.590537
0.641104 0.641104 0.641104
0.690437 0.690437 0.690437
0.737864 0.737864 0.737864
0.707869 0.707869 0.707869
0.754660 0.754660 0.754660
0.799400 0.799400 0.799400
0.842697 0.842697 0.842697
0.885765 0.885765 0.885765
0.062754 0.062754 0.062754
0.104184 0.104184 0.104184
0.143989 0.143989 0.143989
0.182666 0.182666 0.182666
0.226174 0.226174 0.226174
0.197697 0.197697 0.197697
0.243676 0.243676 0.243676
0.296830 0.296830 0.296830
0.353415 0.353415 0.353415
0.410651 0.410651 0.410651
0.374240 0.374240 0.374240
0.431167 0.431167 0.431167
0.486222 0.486222 0.486222
0.538291 0.538291 0.538291
0.589297 0.589297 0.589297
0.556950 0.556950 0.556950
0.607769 0.607769 0.607769
0.657965 0.657965 0.657965
0.706702 0.706702 0.706702
0.753544 0.753544 0.753544
0.723978 0.723978 0.723978
0.770068 0.770068 0.770068
0.814226 0.814226 0.814226
0.857227 0.857227 0.857227
0.900645 0.900645 0.900645
0.076621 0.076621 0.076621
0.117932 0.117932 0.117932
0.156479 0.156479 0.156479
0.196713 0.196713 0.196713
0.242499 0.242499 0.242499
0.212760 0.212760 0.212760
0.261068 0.261068 0.261068
0.315842 0.315842 0.315842
0.372814 0.372814 0.372814
0.429794 0.429794 0.429794
0.393717 0.393717 0.393717
0.450239 0.450239 0.450239
0.504224 0.504224 0.504224
0.555694 0.555694 0.555694
0.606522 0.606522 0.606522
0.574178 0.574178 0.574178
0.624922 0.624922 0.624922
0.674778 0.674778 0.674778
0.722828 0.722828 0.722828
0.768967 0.768967 0.768967
0.739885 0.739885 0.739885
0.785237 0.785237 0.785237
0.828781 0.828781 0.828781
0.871739 0.871739 0.871739
0.916588 0.916588 0.916588
0.090461 0.090461 0.090461
0.131770 0.131770 0.131770
0.169780 0.169780 0.169780
0.211668 0.211668 0.211668
0.259774 0.259774 0.259774
0.228255 0.228255 0.228255
0.278980 0.278980 0.278980
0.335042 0.335042 0.335042
0.392328 0.392328 0.392328
0.448882 0.448882 0.448882
0.413112 0.413112 0.413112
0.468926 0.468926 0.468926
0.521849 0.521849 0.521849
0.572928 0.572928 0.572928
0.623700 0.623700 0.623700
0.591490 0.591490 0.591490
0.642044 0.642044 0.642044
0.691348 0.691348 0.691348
0.738744 0.738744 0.738744
0.784147 0.784147 0.784147
0.755517 0.755517 0.755517
0.800224 0.800224 0.800224
0.843499 0.843499 0.843499
0.886586 0.886586 0.886586
0.935467 0.935467 0.935467
0.104966 0.104966 0.104966
0.144691 0.144691 0.144691
0.183449 0.183449 0.183449
0.227079 0.227079 0.227079
0.277667 0.277667 0.277667
0.244581 0.244581 0.244581
0.297869 0.297869 0.297869
0.354491 0.354491 0.354491
0.411722 0.411722 0.411722
0.467591 0.467591 0.467591
0.432238 0.432238 0.432238
0.487226 0.487226 0.487226
0.539247 0.539247 0.539247
0.590251 0.590251 0.590251
0.640822 0.640822 0.640822
0.608728 0.608728 0.608728
0.658906 0.658906 0.658906
0.707599 0.707599 0.707599
0.754402 0.754402 0.754402
0.799152 0.799152 0.799152
0.770913 0.770913 0.770913
0.815042 0.815042 0.815042
0.858045 0.858045 0.858045
0.901530 0.901530 0.901530
0.957249 0.957249 0.957249
