source/experimental_legacy_banks/bank_a/looks/truth/look.CUBE
#Created by: Infinite Arch Leica Look Builder
#Unique Leica Look ID: 0
#Based Filmstyle Mode: Standard
TITLE "Truth"
LUT_3D_SIZE 17
DOMAIN_MIN 0.0 0.0 0.0
DOMAIN_MAX 1.0 1.0 1.0
0.019771 0.019771 0.019771
0.077532 0.020412 0.020412
0.135108 0.021052 0.021052
0.192485 0.021692 0.021692
0.249655 0.022332 0.022332
0.306611 0.022972 0.022972
0.363347 0.023612 0.023612
0.419859 0.024252 0.024252
0.476144 0.024892 0.024892
0.532198 0.025532 0.025532
0.588021 0.026172 0.026172
0.643610 0.026811 0.026811
0.698966 0.027451 0.027451
0.754088 0.028091 0.028091
0.808977 0.028731 0.028731
0.863634 0.029371 0.029371
0.918064 0.030011 0.030011
0.021925 0.079041 0.021925
0.079679 0.079679 0.022565
0.137247 0.080317 0.023205
0.194617 0.080955 0.023845
0.251779 0.081593 0.024485
0.308727 0.082231 0.025125
0.365455 0.082869 0.025765
0.421959 0.083507 0.026405
0.478235 0.084145 0.027044
0.534281 0.084783 0.027684
0.590095 0.085421 0.028324
0.645675 0.086058 0.028964
0.701022 0.086696 0.029604
0.756135 0.087334 0.030244
0.811016 0.087972 0.030883
0.865665 0.088610 0.031523
0.920086 0.089247 0.032163
0.024078 0.138115 0.024078
0.081825 0.138750 0.024718
0.139386 0.139386 0.025358
0.196749 0.140022 0.025998
0.253903 0.140658 0.026637
0.310843 0.141294 0.027277
0.367562 0.141930 0.027917
0.424058 0.142565 0.028557
0.480325 0.143201 0.029197
0.536362 0.143837 0.029837
0.592168 0.144472 0.030476
0.647740 0.145108 0.031116
0.703078 0.145744 0.031756
0.758182 0.146379 0.032396
0.813054 0.147015 0.033035
0.867695 0.147651 0.033675
0.922107 0.148286 0.034315
0.026231 0.196979 0.026231
0.083971 0.197613 0.026870
0.141525 0.198246 0.027510
0.198880 0.198880 0.028150
0.256027 0.199514 0.028790
0.312958 0.200147 0.029430
0.369669 0.200780 0.030070
0.426156 0.201414 0.030709
0.482415 0.202047 0.031349
0.538444 0.202681 0.031989
0.594241 0.203314 0.032629
0.649804 0.203947 0.033268
0.705133 0.204581 0.033908
0.760229 0.205214 0.034548
0.815092 0.205847 0.035187
0.869724 0.206481 0.035827
0.924128 0.207114 0.036466
0.028383 0.255625 0.028383
0.086117 0.256256 0.029023
0.143664 0.256887 0.029663
0.201011 0.257519 0.030303
0.258150 0.258150 0.030942
0.315073 0.258781 0.031582
0.371776 0.259412 0.032222
0.428255 0.260043 0.032861
0.484505 0.260674 0.033501
0.540525 0.261305 0.034141
0.596313 0.261936 0.034780
0.651868 0.262567 0.035420
0.707189 0.263198 0.036060
0.762276 0.263829 0.036699
0.817130 0.264459 0.037339
0.871753 0.265090 0.037978
0.926149 0.265721 0.038618
0.030535 0.314045 0.030535
0.088263 0.314673 0.031175
0.145802 0.315302 0.031815
0.203142 0.315931 0.032455
0.260273 0.316559 0.033094
0.317188 0.317188 0.033734
0.373883 0.317817 0.034374
0.430353 0.318445 0.035013
0.486595 0.319074 0.035653
0.542606 0.319702 0.036293
0.598385 0.320331 0.036932
0.653931 0.320959 0.037572
0.709243 0.321587 0.038211
0.764322 0.322216 0.038851
0.819168 0.322844 0.039490
0.873782 0.323473 0.040130
0.928170 0.324101 0.040769
0.032688 0.372232 0.032688
0.090408 0.372858 0.033327
0.147941 0.373485 0.033967
0.205272 0.374111 0.034607
0.262395 0.374737 0.035246
0.319302 0.375363 0.035886
0.375989 0.375989 0.036525
0.432450 0.376615 0.037165
0.488684 0.377241 0.037804
0.544687 0.377867 0.038444
0.600457 0.378493 0.039084
0.655995 0.379119 0.039723
0.711298 0.379745 0.040362
0.766368 0.380370 0.041002
0.821205 0.380996 0.041641
0.875811 0.381622 0.042281
0.930190 0.382248 0.042920
0.034839 0.430183 0.034839
0.092553 0.430807 0.035479
0.150078 0.431430 0.036119
0.207403 0.432054 0.036758
0.264518 0.432677 0.037398
0.321417 0.433301 0.038037
0.378095 0.433924 0.038677
0.434548 0.434548 0.039316
0.490773 0.435171 0.039956
0.546767 0.435795 0.040595
0.602529 0.436418 0.041235
0.658057 0.437041 0.041874
0.713352 0.437665 0.042513
0.768413 0.438288 0.043153
0.823242 0.438911 0.043792
0.877839 0.439534 0.044431
0.932210 0.440158 0.045071
0.036991 0.487894 0.036991
0.094698 0.488515 0.037631
0.152216 0.489136 0.038270
0.209533 0.489757 0.038910
0.266640 0.490378 0.039549
0.323530 0.490999 0.040189
0.380200 0.491620 0.040828
0.436645 0.492240 0.041467
0.492861 0.492861 0.042107
0.548847 0.493482 0.042746
0.604600 0.494103 0.043386
0.660120 0.494724 0.044025
0.715406 0.495344 0.044664
0.770458 0.495965 0.045304
0.825278 0.496586 0.045943
0.879867 0.497206 0.046582
0.934230 0.497827 0.047221
0.039142 0.545362 0.039142
0.096843 0.545981 0.039782
0.154353 0.546599 0.040421
0.211662 0.547217 0.041061
0.268761 0.547836 0.041700
0.325644 0.548454 0.042340
0.382306 0.549072 0.042979
0.438742 0.549690 0.043618
0.494950 0.550308 0.044258
0.550927 0.550927 0.044897
0.606671 0.551545 0.045536
0.662182 0.552163 0.046176
0.717460 0.552781 0.046815
0.772503 0.553399 0.047454
0.827314 0.554017 0.048093
0.881895 0.554635 0.048732
0.936249 0.555253 0.049372
0.041294 0.602586 0.041294
0.098987 0.603201 0.041933
0.156490 0.603817 0.042572
0.213792 0.604433 0.043212
0.270883 0.605049 0.043851
0.327757 0.605664 0.044490
0.384410 0.606280 0.045130
0.440838 0.606895 0.045769
0.497037 0.607511 0.046408
0.553006 0.608126 0.047047
0.608742 0.608742 0.047687
0.664244 0.609357 0.048326
0.719513 0.609973 0.048965
0.774548 0.610588 0.049604
0.829350 0.611203 0.050243
0.883923 0.611819 0.050882
0.938268 0.612434 0.051522
0.043445 0.659564 0.043445
0.101131 0.660177 0.044084
0.158627 0.660790 0.044723
0.215921 0.661403 0.045362
0.273004 0.662016 0.046002
0.329870 0.662629 0.046641
0.386515 0.663242 0.047280
0.442934 0.663854 0.047919
0.499125 0.664467 0.048559
0.555085 0.665080 0.049198
0.610812 0.665693 0.049837
0.666306 0.666306 0.050476
0.721566 0.666919 0.051115
0.776592 0.667531 0.051754
0.831386 0.668144 0.052393
0.885950 0.668757 0.053032
0.940287 0.669369 0.053671
0.045595 0.716295 0.045595
0.103275 0.716905 0.046234
0.160764 0.717516 0.046874
0.218049 0.718126 0.047513
0.275125 0.718737 0.048152
0.331983 0.719347 0.048791
0.388619 0.719957 0.049430
0.445030 0.720567 0.050070
0.501212 0.721178 0.050709
0.557164 0.721788 0.051348
0.612882 0.722398 0.051987
0.668367 0.723008 0.052626
0.723618 0.723618 0.053265
0.778636 0.724228 0.053904
0.833421 0.724838 0.054543
0.887976 0.725448 0.055182
0.942305 0.726058 0.055821
0.047746 0.772781 0.047746
0.105419 0.773388 0.048385
0.162900 0.773996 0.049024
0.220178 0.774604 0.049663
0.277245 0.775211 0.050302
0.334095 0.775819 0.050941
0.390723 0.776427 0.051580
0.447126 0.777034 0.052219
0.503299 0.777642 0.052859
0.559242 0.778249 0.053498
0.614952 0.778857 0.054137
0.670428 0.779464 0.054776
0.725670 0.780072 0.055414
0.780679 0.780679 0.056053
0.835456 0.781287 0.056692
0.890003 0.781894 0.057331
0.944324 0.782502 0.057970
0.049896 0.829021 0.049896
0.107562 0.829626 0.050535
0.165036 0.830232 0.051174
0.222306 0.830837 0.051813
0.279365 0.831442 0.052452
0.336207 0.832047 0.053091
0.392827 0.832652 0.053730
0.449221 0.833257 0.054369
0.505386 0.833862 0.055008
0.561320 0.834467 0.055647
0.617021 0.835071 0.056286
0.672489 0.835676 0.056925
0.727722 0.836281 0.057564
0.782723 0.836886 0.058203
0.837491 0.837491 0.058841
0.892029 0.838095 0.059480
0.946341 0.838700 0.060119
0.052046 0.885019 0.052046
0.109705 0.885622 0.052685
0.167171 0.886225 0.053324
0.224434 0.886827 0.053963
0.281485 0.887430 0.054602
0.338319 0.888032 0.055241
0.394930 0.888634 0.055880
0.451316 0.889237 0.056519
0.507472 0.889839 0.057157
0.563398 0.890441 0.057796
0.619090 0.891044 0.058435
0.674549 0.891646 0.059074
0.729774 0.892248 0.059713
0.784766 0.892850 0.060352
0.839525 0.893453 0.060990
0.894055 0.894055 0.061629
0.948359 0.894657 0.062268
0.054195 0.940779 0.054195
0.111848 0.941379 0.054834
0.169307 0.941979 0.055473
0.226562 0.942579 0.056112
0.283605 0.943179 0.056751
0.340430 0.943779 0.057390
0.397033 0.944379 0.058029
0.453410 0.944979 0.058668
0.509558 0.945579 0.059307
0.565475 0.946178 0.059945
0.621159 0.946778 0.060584
0.676609 0.947378 0.061223
0.731825 0.947978 0.061862
0.786808 0.948577 0.062500
0.841559 0.949177 0.063139
0.896080 0.949777 0.063778
0.950376 0.950376 0.064416
0.019989 0.019989 0.077111
0.077749 0.020629 0.077749
0.135324 0.021269 0.078387
0.192700 0.021909 0.079025
0.249870 0.022549 0.079663
0.306825 0.023189 0.080301
0.363560 0.023829 0.080939
0.420071 0.024469 0.081577
0.476355 0.025109 0.082215
0.532409 0.025749 0.082853
0.588230 0.026389 0.083491
0.643819 0.027029 0.084129
0.699174 0.027669 0.084767
0.754295 0.028308 0.085405
0.809183 0.028948 0.086043
0.863839 0.029588 0.086681
0.918268 0.030228 0.087318
0.022142 0.079257 0.079257
0.079895 0.079895 0.079895
0.137463 0.080533 0.080533
0.194832 0.081171 0.081171
0.251994 0.081809 0.081809
0.308941 0.082447 0.082447
0.365668 0.083085 0.083085
0.422170 0.083723 0.083723
0.478446 0.084361 0.084361
0.534491 0.084999 0.084999
0.590304 0.085637 0.085637
0.645884 0.086275 0.086275
0.701230 0.086913 0.086913
0.756342 0.087551 0.087551
0.811221 0.088188 0.088188
0.865870 0.088826 0.088826
0.920290 0.089464 0.089464
0.024295 0.138330 0.081404
0.082042 0.138966 0.082042
0.139602 0.139602 0.082680
0.196964 0.140238 0.083318
0.254117 0.140874 0.083956
0.311056 0.141510 0.084594
0.367775 0.142146 0.085231
0.424269 0.142781 0.085869
0.480536 0.143417 0.086507
0.536573 0.144053 0.087145
0.592377 0.144688 0.087783
0.647948 0.145324 0.088421
0.703286 0.145960 0.089058
0.758389 0.146595 0.089696
0.813260 0.147231 0.090334
0.867899 0.147866 0.090972
0.922311 0.148502 0.091609
0.026448 0.197194 0.083550
0.084188 0.197828 0.084188
0.141741 0.198462 0.084826
0.199095 0.199095 0.085464
0.256241 0.199729 0.086102
0.313172 0.200362 0.086739
0.369882 0.200996 0.087377
0.426368 0.201629 0.088015
0.482626 0.202262 0.088653
0.538654 0.202896 0.089291
0.594450 0.203529 0.089928
0.650012 0.204163 0.090566
0.705341 0.204796 0.091204
0.760436 0.205429 0.091841
0.815298 0.206062 0.092479
0.869929 0.206696 0.093117
0.924332 0.207329 0.093754
0.028600 0.255839 0.085696
0.086334 0.256471 0.086334
0.143880 0.257102 0.086972
0.201226 0.257733 0.087609
0.258364 0.258364 0.088247
0.315287 0.258995 0.088885
0.371989 0.259626 0.089523
0.428466 0.260257 0.090160
0.484716 0.260888 0.090798
0.540735 0.261519 0.091436
0.596522 0.262150 0.092074
0.652076 0.262781 0.092711
0.707396 0.263412 0.093349
0.762482 0.264043 0.093986
0.817336 0.264674 0.094624
0.871958 0.265304 0.095261
0.926353 0.265935 0.095899
0.030753 0.314258 0.087842
0.088479 0.314887 0.088479
0.146018 0.315516 0.089117
0.203357 0.316144 0.089755
0.260487 0.316773 0.090393
0.317401 0.317401 0.091030
0.374095 0.318030 0.091668
0.430564 0.318659 0.092306
0.486806 0.319287 0.092943
0.542816 0.319916 0.093581
0.598595 0.320544 0.094218
0.654140 0.321172 0.094856
0.709451 0.321801 0.095494
0.764528 0.322429 0.096131
0.819373 0.323058 0.096769
0.873987 0.323686 0.097406
0.928374 0.324314 0.098043
0.032905 0.372445 0.089987
0.090625 0.373071 0.090625
0.148156 0.373697 0.091263
0.205487 0.374323 0.091900
0.262610 0.374949 0.092538
0.319516 0.375575 0.093175
0.376201 0.376201 0.093813
0.432662 0.376827 0.094451
0.488895 0.377453 0.095088
0.544897 0.378079 0.095726
0.600667 0.378705 0.096363
0.656203 0.379331 0.097001
0.711505 0.379957 0.097638
0.766574 0.380583 0.098275
0.821410 0.381209 0.098913
0.876016 0.381835 0.099550
0.930394 0.382460 0.100188
0.035057 0.430395 0.092132
0.092770 0.431018 0.092770
0.150294 0.431642 0.093408
0.207618 0.432266 0.094045
0.264732 0.432889 0.094683
0.321630 0.433513 0.095320
0.378307 0.434136 0.095958
0.434760 0.434760 0.096595
0.490984 0.435383 0.097233
0.546977 0.436006 0.097870
0.602738 0.436630 0.098508
0.658266 0.437253 0.099145
0.713559 0.437876 0.099782
0.768620 0.438500 0.100420
0.823447 0.439123 0.101057
0.878044 0.439746 0.101694
0.932414 0.440369 0.102332
0.037208 0.488105 0.094277
0.094915 0.488726 0.094915
0.152432 0.489347 0.095552
0.209748 0.489968 0.096190
0.266854 0.490589 0.096827
0.323744 0.491210 0.097465
0.380413 0.491830 0.098102
0.436857 0.492451 0.098740
0.493072 0.493072 0.099377
0.549057 0.493693 0.100014
0.604809 0.494314 0.100652
0.660328 0.494934 0.101289
0.715613 0.495555 0.101926
0.770665 0.496176 0.102564
0.825484 0.496796 0.103201
0.880072 0.497417 0.103838
0.934434 0.498038 0.104475
0.039360 0.545572 0.096422
0.097059 0.546191 0.097059
0.154569 0.546809 0.097697
0.211877 0.547427 0.098334
0.268975 0.548046 0.098972
0.325857 0.548664 0.099609
0.382518 0.549282 0.100246
0.438953 0.549900 0.100884
0.495160 0.550518 0.101521
0.551137 0.551137 0.102158
0.606880 0.551755 0.102796
0.662390 0.552373 0.103433
0.717667 0.552991 0.104070
0.772710 0.553609 0.104707
0.827520 0.554227 0.105344
0.882100 0.554845 0.105981
0.936453 0.555463 0.106619
0.041511 0.602795 0.098566
0.099204 0.603411 0.099204
0.156706 0.604026 0.099841
0.214006 0.604642 0.100478
0.271097 0.605258 0.101116
0.327971 0.605873 0.101753
0.384623 0.606489 0.102390
0.441050 0.607104 0.103028
0.497248 0.607720 0.103665
0.553216 0.608335 0.104302
0.608951 0.608951 0.104939
0.664452 0.609566 0.105576
0.719720 0.610182 0.106213
0.774754 0.610797 0.106851
0.829556 0.611412 0.107488
0.884127 0.612028 0.108125
0.938472 0.612643 0.108762
0.043662 0.659772 0.100710
0.101348 0.660385 0.101348
0.158843 0.660998 0.101985
0.216136 0.661611 0.102622
0.273218 0.662224 0.103260
0.330084 0.662837 0.103897
0.386728 0.663450 0.104534
0.443146 0.664063 0.105171
0.499336 0.664675 0.105808
0.555295 0.665288 0.106445
0.611021 0.665901 0.107083
0.666514 0.666514 0.107720
0.721773 0.667127 0.108357
0.776798 0.667739 0.108994
0.831591 0.668352 0.109631
0.886154 0.668965 0.110268
0.940491 0.669577 0.110905
0.045812 0.716502 0.102854
0.103492 0.717113 0.103492
0.160979 0.717723 0.104129
0.218264 0.718333 0.104766
0.275339 0.718944 0.105403
0.332196 0.719554 0.106040
0.388832 0.720164 0.106677
0.445242 0.720775 0.107314
0.501423 0.721385 0.107952
0.557373 0.721995 0.108589
0.613091 0.722605 0.109226
0.668575 0.723215 0.109863
0.723825 0.723825 0.110500
0.778842 0.724435 0.111137
0.833627 0.725046 0.111773
0.888181 0.725656 0.112410
0.942509 0.726266 0.113047
0.047963 0.772987 0.104998
0.105635 0.773595 0.105635
0.163115 0.774202 0.106272
0.220393 0.774810 0.106909
0.277459 0.775418 0.107546
0.334308 0.776025 0.108183
0.390936 0.776633 0.108820
0.447337 0.777241 0.109457
0.503510 0.777848 0.110094
0.559452 0.778456 0.110731
0.615161 0.779063 0.111368
0.670636 0.779671 0.112005
0.725878 0.780278 0.112642
0.780886 0.780886 0.113279
0.835662 0.781493 0.113916
0.890207 0.782100 0.114553
0.944527 0.782708 0.115190
0.050113 0.829227 0.107141
0.107778 0.829832 0.107778
0.165251 0.830437 0.108415
0.222521 0.831042 0.109052
0.279579 0.831647 0.109689
0.336420 0.832252 0.110326
0.393039 0.832857 0.110963
0.449432 0.833462 0.111600
0.505597 0.834067 0.112237
0.561530 0.834672 0.112874
0.617230 0.835277 0.113511
0.672697 0.835882 0.114148
0.727929 0.836487 0.114785
0.782929 0.837091 0.115421
0.837696 0.837696 0.116058
0.892234 0.838301 0.116695
0.946545 0.838906 0.117332
0.052263 0.885224 0.109284
0.109921 0.885827 0.109921
0.167387 0.886429 0.110558
0.224649 0.887032 0.111195
0.281699 0.887634 0.111832
0.338532 0.888237 0.112469
0.395143 0.888839 0.113106
0.451527 0.889441 0.113743
0.507683 0.890044 0.114380
0.563607 0.890646 0.115016
0.619299 0.891248 0.115653
0.674757 0.891851 0.116290
0.729981 0.892453 0.116927
0.784972 0.893055 0.117563
0.839730 0.893657 0.118200
0.894259 0.894259 0.118837
0.948563 0.894861 0.119473
0.054412 0.940983 0.111427
0.112064 0.941583 0.112064
0.169522 0.942183 0.112701
0.226776 0.942783 0.113338
0.283819 0.943383 0.113975
0.340643 0.943983 0.114611
0.397246 0.944583 0.115248
0.453622 0.945182 0.115885
0.509769 0.945782 0.116522
0.565685 0.946382 0.117159
0.621368 0.946982 0.117795
0.676817 0.947582 0.118432
0.732032 0.948181 0.119069
0.787014 0.948781 0.119705
0.841764 0.949381 0.120342
0.896285 0.949980 0.120978
0.950580 0.950580 0.121615
0.020206 0.020206 0.134267
0.077965 0.020846 0.134904
0.135540 0.021486 0.135540
0.192915 0.022126 0.136176
0.250084 0.022766 0.136812
0.307038 0.023406 0.137447
0.363773 0.024046 0.138083
0.420283 0.024686 0.138719
0.476566 0.025326 0.139355
0.532619 0.025966 0.139991
0.588440 0.026606 0.140627
0.644027 0.027246 0.141263
0.699381 0.027886 0.141899
0.754501 0.028526 0.142534
0.809388 0.029166 0.143170
0.864044 0.029805 0.143806
0.918472 0.030445 0.144441
0.022359 0.079474 0.136407
0.080112 0.080112 0.137043
0.137679 0.080750 0.137679
0.195047 0.081388 0.138315
0.252208 0.082026 0.138951
0.309154 0.082664 0.139587
0.365880 0.083302 0.140223
0.422382 0.083940 0.140858
0.478657 0.084578 0.141494
0.534701 0.085216 0.142130
0.590513 0.085854 0.142766
0.646092 0.086492 0.143401
0.701437 0.087129 0.144037
0.756549 0.087767 0.144673
0.811427 0.088405 0.145308
0.866075 0.089043 0.145944
0.920494 0.089681 0.146580
0.024512 0.138546 0.138546
0.082258 0.139182 0.139182
0.139818 0.139818 0.139818
0.197179 0.140454 0.140454
0.254332 0.141090 0.141090
0.311270 0.141726 0.141726
0.367988 0.142361 0.142361
0.424481 0.142997 0.142997
0.480747 0.143633 0.143633
0.536783 0.144269 0.144269
0.592586 0.144904 0.144904
0.648157 0.145540 0.145540
0.703493 0.146176 0.146176
0.758596 0.146811 0.146811
0.813466 0.147447 0.147447
0.868104 0.148082 0.148082
0.922515 0.148718 0.148718
0.026665 0.197410 0.140686
0.084405 0.198043 0.141321
0.141957 0.198677 0.141957
0.199310 0.199310 0.142593
0.256455 0.199944 0.143229
0.313385 0.200577 0.143864
0.370095 0.201211 0.144500
0.426580 0.201844 0.145136
0.482837 0.202478 0.145771
0.538864 0.203111 0.146407
0.594659 0.203744 0.147043
0.650221 0.204378 0.147678
0.705548 0.205011 0.148314
0.760642 0.205644 0.148949
0.815504 0.206277 0.149585
0.870134 0.206911 0.150220
0.924537 0.207544 0.150856
0.028818 0.256054 0.142824
0.086550 0.256685 0.143460
0.144096 0.257316 0.144096
0.201441 0.257947 0.144731
0.258578 0.258578 0.145367
0.315500 0.259209 0.146003
0.372202 0.259840 0.146638
0.428678 0.260471 0.147274
0.484927 0.261102 0.147909
0.540945 0.261733 0.148545
0.596732 0.262364 0.149180
0.652285 0.262995 0.149816
0.707604 0.263626 0.150451
0.762689 0.264257 0.151087
0.817541 0.264888 0.151722
0.872163 0.265519 0.152358
0.926557 0.266149 0.152993
0.030970 0.314472 0.144963
0.088696 0.315100 0.145598
0.146234 0.315729 0.146234
0.203572 0.316358 0.146870
0.260701 0.316986 0.147505
0.317615 0.317615 0.148141
0.374308 0.318243 0.148776
0.430776 0.318872 0.149412
0.487016 0.319501 0.150047
0.543026 0.320129 0.150683
0.598804 0.320757 0.151318
0.654348 0.321386 0.151954
0.709658 0.322014 0.152589
0.764735 0.322643 0.153224
0.819579 0.323271 0.153860
0.874192 0.323899 0.154495
0.928578 0.324528 0.155130
0.033122 0.372657 0.147101
0.090841 0.373284 0.147737
0.148372 0.373910 0.148372
0.205703 0.374536 0.149008
0.262824 0.375162 0.149643
0.319729 0.375788 0.150279
0.376414 0.376414 0.150914
0.432874 0.377040 0.151550
0.489106 0.377666 0.152185
0.545107 0.378292 0.152820
0.600876 0.378918 0.153456
0.656411 0.379544 0.154091
0.711713 0.380170 0.154726
0.766781 0.380796 0.155361
0.821616 0.381421 0.155997
0.876221 0.382047 0.156632
0.930598 0.382673 0.157267
0.035274 0.430607 0.149239
0.092986 0.431230 0.149875
0.150510 0.431854 0.150510
0.207833 0.432477 0.151145
0.264946 0.433101 0.151781
0.321843 0.433724 0.152416
0.378520 0.434348 0.153052
0.434971 0.434971 0.153687
0.491194 0.435595 0.154322
0.547187 0.436218 0.154958
0.602947 0.436841 0.155593
0.658474 0.437465 0.156228
0.713767 0.438088 0.156863
0.768826 0.438711 0.157498
0.823653 0.439334 0.158134
0.878249 0.439958 0.158769
0.932618 0.440581 0.159404
0.037425 0.488316 0.151377
0.095131 0.488937 0.152012
0.152648 0.489558 0.152648
0.209963 0.490179 0.153283
0.267068 0.490800 0.153918
0.323957 0.491420 0.154554
0.380625 0.492041 0.155189
0.437068 0.492662 0.155824
0.493283 0.493283 0.156459
0.549267 0.493904 0.157094
0.605018 0.494524 0.157730
0.660536 0.495145 0.158365
0.715821 0.495766 0.159000
0.770871 0.496386 0.159635
0.825689 0.497007 0.160270
0.880277 0.497628 0.160905
0.934638 0.498248 0.161540
0.039577 0.545782 0.153514
0.097276 0.546401 0.154150
0.154785 0.547019 0.154785
0.212092 0.547637 0.155420
0.269190 0.548255 0.156055
0.326071 0.548874 0.156691
0.382731 0.549492 0.157326
0.439165 0.550110 0.157961
0.495371 0.550728 0.158596
0.551346 0.551346 0.159231
0.607089 0.551965 0.159866
0.662599 0.552583 0.160501
0.717874 0.553201 0.161136
0.772916 0.553819 0.161771
0.827725 0.554437 0.162406
0.882305 0.555055 0.163041
0.936657 0.555673 0.163676
0.041728 0.603004 0.155651
0.099420 0.603620 0.156287
0.156922 0.604235 0.156922
0.214221 0.604851 0.157557
0.271311 0.605467 0.158192
0.328184 0.606082 0.158827
0.384835 0.606698 0.159462
0.441261 0.607313 0.160097
0.497459 0.607929 0.160732
0.553426 0.608544 0.161368
0.609160 0.609160 0.162003
0.664660 0.609775 0.162637
0.719927 0.610391 0.163272
0.774960 0.611006 0.163907
0.829761 0.611621 0.164542
0.884332 0.612237 0.165177
0.938676 0.612852 0.165812
0.043879 0.659980 0.157788
0.101564 0.660593 0.158423
0.159058 0.661206 0.159058
0.216350 0.661819 0.159694
0.273432 0.662432 0.160329
0.330297 0.663045 0.160964
0.386940 0.663658 0.161599
0.443358 0.664271 0.162234
0.499547 0.664884 0.162869
0.555505 0.665496 0.163504
0.611230 0.666109 0.164139
0.666722 0.666722 0.164773
0.721980 0.667335 0.165408
0.777005 0.667947 0.166043
0.831797 0.668560 0.166678
0.886359 0.669173 0.167313
0.940695 0.669785 0.167948
0.046029 0.716710 0.159925
0.103708 0.717320 0.160560
0.161195 0.717930 0.161195
0.218479 0.718541 0.161830
0.275553 0.719151 0.162465
0.332409 0.719761 0.163100
0.389044 0.720372 0.163735
0.445453 0.720982 0.164370
0.501634 0.721592 0.165005
0.557583 0.722202 0.165639
0.613300 0.722812 0.166274
0.668783 0.723422 0.166909
0.724033 0.724033 0.167544
0.779048 0.724643 0.168179
0.833832 0.725253 0.168813
0.888386 0.725863 0.169448
0.942713 0.726473 0.170083
0.048180 0.773193 0.162061
0.105851 0.773801 0.162696
0.163331 0.774409 0.163331
0.220608 0.775017 0.163966
0.277673 0.775624 0.164601
0.334522 0.776232 0.165236
0.391148 0.776839 0.165871
0.447549 0.777447 0.166505
0.503721 0.778055 0.167140
0.559661 0.778662 0.167775
0.615370 0.779270 0.168410
0.670844 0.779877 0.169044
0.726085 0.780485 0.169679
0.781092 0.781092 0.170314
0.835867 0.781699 0.170949
0.890412 0.782307 0.171583
0.944731 0.782914 0.172218
0.050330 0.829432 0.164197
0.107995 0.830037 0.164832
0.165467 0.830642 0.165467
0.222736 0.831248 0.166102
0.279793 0.831853 0.166737
0.336634 0.832458 0.167371
0.393252 0.833063 0.168006
0.449644 0.833668 0.168641
0.505807 0.834273 0.169276
0.561739 0.834877 0.169910
0.617439 0.835482 0.170545
0.672905 0.836087 0.171180
0.728137 0.836692 0.171814
0.783135 0.837297 0.172449
0.837902 0.837902 0.173083
0.892438 0.838506 0.173718
0.946749 0.839111 0.174352
0.052480 0.885429 0.166333
0.110138 0.886031 0.166968
0.167602 0.886634 0.167602
0.224864 0.887236 0.168237
0.281913 0.887839 0.168872
0.338745 0.888441 0.169507
0.395355 0.889044 0.170141
0.451739 0.889646 0.170776
0.507893 0.890248 0.171411
0.563817 0.890851 0.172045
0.619508 0.891453 0.172680
0.674965 0.892055 0.173314
0.730188 0.892657 0.173949
0.785178 0.893260 0.174583
0.839936 0.893862 0.175218
0.894464 0.894464 0.175852
0.948766 0.895066 0.176487
0.054629 0.941187 0.168468
0.112280 0.941787 0.169103
0.169738 0.942387 0.169738
0.226991 0.942987 0.170372
0.284033 0.943587 0.171007
0.340857 0.944186 0.171642
0.397458 0.944786 0.172276
0.453833 0.945386 0.172911
0.509979 0.945986 0.173545
0.565894 0.946586 0.174180
0.621576 0.947185 0.174814
0.677025 0.947785 0.175449
0.732239 0.948385 0.176083
0.787221 0.948985 0.176718
0.841970 0.949584 0.177352
0.896489 0.950184 0.177987
0.950783 0.950783 0.178621
0.020424 0.020424 0.191229
0.078182 0.021064 0.191863
0.135756 0.021704 0.192497
0.193131 0.022344 0.193131
0.250298 0.022984 0.193764
0.307252 0.023624 0.194398
0.363985 0.024264 0.195032
0.420495 0.024904 0.195666
0.476777 0.025544 0.196299
0.532829 0.026184 0.196933
0.588649 0.026823 0.197566
0.644236 0.027463 0.198200
0.699589 0.028103 0.198834
0.754708 0.028743 0.199467
0.809594 0.029383 0.200101
