source/experimental_legacy_banks/bank_a/looks/truth/look.CUBE
#Created by: Infinite Arch Leica Look Builder
#Unique Leica Look ID: 0
#Based Filmstyle Mode: Standard
TITLE "Truth"
LUT_3D_SIZE 5
DOMAIN_MIN 0.0 0.0 0.0
DOMAIN_MAX 1.0 1.0 1.0
0.019771 0.019771 0.019771
0.249655 0.022332 0.022332
0.476144 0.024892 0.024892
0.698966 0.027451 0.027451
0.918064 0.030011 0.030011
0.028383 0.255625 0.028383
0.258150 0.258150 0.030942
0.484505 0.260674 0.033501
0.707189 0.263198 0.036060
0.926149 0.265721 0.038618
0.036991 0.487894 0.036991
0.266640 0.490378 0.039549
0.492861 0.492861 0.042107
0.715406 0.495344 0.044664
0.934230 0.497827 0.047221
0.045595 0.716295 0.045595
0.275125 0.718737 0.048152
0.501212 0.721178 0.050709
0.723618 0.723618 0.053265
0.942305 0.726058 0.055821
0.054195 0.940779 0.054195
0.283605 0.943179 0.056751
0.509558 0.945579 0.059307
0.731825 0.947978 0.061862
0.950376 0.950376 0.064416
0.020641 0.020641 0.247987
0.250513 0.023201 0.250513
0.476988 0.025761 0.253038
0.699796 0.028321 0.255563
0.918880 0.030880 0.258088
0.029252 0.256483 0.256483
0.259007 0.259007 0.259007
0.485349 0.261531 0.261531
0.708018 0.264055 0.264055
0.926965 0.266578 0.266578
0.037860 0.488738 0.264973
0.267496 0.491221 0.267496
0.493705 0.493705 0.270019
0.716235 0.496187 0.272541
0.935045 0.498670 0.275063
0.046464 0.717124 0.273459
0.275981 0.719566 0.275981
0.502055 0.722006 0.278502
0.724447 0.724447 0.281023
0.943120 0.726887 0.283543
0.055063 0.941594 0.281940
0.284461 0.943994 0.284461
0.510401 0.946393 0.286980
0.732653 0.948792 0.289500
0.951191 0.951191 0.292019
0.021510 0.021510 0.472860
0.251371 0.024071 0.475346
0.477832 0.026630 0.477832
0.700627 0.029190 0.480318
0.919697 0.031749 0.482803
0.030121 0.257340 0.481223
0.259864 0.259864 0.483708
0.486193 0.262388 0.486193
0.708848 0.264912 0.488677
0.927781 0.267435 0.491161
0.038729 0.489581 0.489581
0.268353 0.492065 0.492065
0.494548 0.494548 0.494548
0.717064 0.497030 0.497030
0.935861 0.499513 0.499513
0.047332 0.717953 0.497934
0.276837 0.720395 0.500416
0.502898 0.722835 0.502898
0.725276 0.725276 0.505379
0.943935 0.727715 0.507860
0.055931 0.942409 0.506282
0.285316 0.944809 0.508763
0.511243 0.947208 0.511243
0.733482 0.949607 0.513722
0.952005 0.952005 0.516202
0.022380 0.022380 0.694121
0.252228 0.024940 0.696567
0.478677 0.027499 0.699012
0.701457 0.030059 0.701457
0.920513 0.032618 0.703901
0.030990 0.258197 0.702347
0.260721 0.260721 0.704791
0.487036 0.263245 0.707235
0.709678 0.265768 0.709678
0.928597 0.268291 0.712121
0.039597 0.490425 0.710567
0.269210 0.492908 0.713010
0.495391 0.495391 0.715452
0.717894 0.497873 0.717894
0.936676 0.500356 0.720335
0.048200 0.718782 0.718782
0.277693 0.721224 0.721224
0.503740 0.723664 0.723664
0.726104 0.726104 0.726104
0.944750 0.728544 0.728544
0.056799 0.943224 0.726993
0.286172 0.945624 0.729432
0.512085 0.948023 0.731871
0.734310 0.950421 0.734310
0.952819 0.952819 0.736748
0.023249 0.023249 0.911711
0.253086 0.025809 0.914117
0.479521 0.028369 0.916521
0.702287 0.030928 0.918926
0.921329 0.033487 0.921329
0.031859 0.259055 0.919801
0.261579 0.261579 0.922204
0.487880 0.264102 0.924608
0.710507 0.266625 0.927011
0.929413 0.269148 0.929413
0.040466 0.491268 0.927885
0.270066 0.493751 0.930287
0.496234 0.496234 0.932689
0.718723 0.498716 0.935090
0.937491 0.501198 0.937491
0.049068 0.719612 0.935965
0.278549 0.722052 0.938365
0.504583 0.724493 0.940766
0.726933 0.726933 0.943166
0.945565 0.729372 0.945565
0.057667 0.944039 0.944039
0.287028 0.946438 0.946438
0.512927 0.948837 0.948837
0.735138 0.951236 0.951236
0.953634 0.953634 0.953634
