source/experimental_legacy_banks/bank_a/looks/truth/look.CUBE
#Created by: Infinite Arch Leica Look Builder
#Unique Leica Look ID: 0
#Based Filmstyle Mode: Standard
TITLE "Truth"
LUT_3D_SIZE 9
DOMAIN_MIN 0.0 0.0 0.0
DOMAIN_MAX 1.0 1.0 1.0
0.019771 0.019771 0.019771
0.135108 0.021052 0.021052
0.249655 0.022332 0.022332
0.363347 0.023612 0.023612
0.476144 0.024892 0.024892
0.588021 0.026172 0.026172
0.698966 0.027451 0.027451
0.808977 0.028731 0.028731
0.918064 0.030011 0.030011
0.024078 0.138115 0.024078
0.139386 0.139386 0.025358
0.253903 0.140658 0.026637
0.367562 0.141930 0.027917
0.480325 0.143201 0.029197
0.592168 0.144472 0.030476
0.703078 0.145744 0.031756
0.813054 0.147015 0.033035
0.922107 0.148286 0.034315
0.028383 0.255625 0.028383
0.143664 0.256887 0.029663
0.258150 0.258150 0.030942
0.371776 0.259412 0.032222
0.484505 0.260674 0.033501
0.596313 0.261936 0.034780
0.707189 0.263198 0.036060
0.817130 0.264459 0.037339
0.926149 0.265721 0.038618
0.032688 0.372232 0.032688
0.147941 0.373485 0.033967
0.262395 0.374737 0.035246
0.375989 0.375989 0.036525
0.488684 0.377241 0.037804
0.600457 0.378493 0.039084
0.711298 0.379745 0.040362
0.821205 0.380996 0.041641
0.930190 0.382248 0.042920
0.036991 0.487894 0.036991
0.152216 0.489136 0.038270
0.266640 0.490378 0.039549
0.380200 0.491620 0.040828
0.492861 0.492861 0.042107
0.604600 0.494103 0.043386
0.715406 0.495344 0.044664
0.825278 0.496586 0.045943
0.934230 0.497827 0.047221
0.041294 0.602586 0.041294
0.156490 0.603817 0.042572
0.270883 0.605049 0.043851
0.384410 0.606280 0.045130
0.497037 0.607511 0.046408
0.608742 0.608742 0.047687
0.719513 0.609973 0.048965
0.829350 0.611203 0.050243
0.938268 0.612434 0.051522
0.045595 0.716295 0.045595
0.160764 0.717516 0.046874
0.275125 0.718737 0.048152
0.388619 0.719957 0.049430
0.501212 0.721178 0.050709
0.612882 0.722398 0.051987
0.723618 0.723618 0.053265
0.833421 0.724838 0.054543
0.942305 0.726058 0.055821
0.049896 0.829021 0.049896
0.165036 0.830232 0.051174
0.279365 0.831442 0.052452
0.392827 0.832652 0.053730
0.505386 0.833862 0.055008
0.617021 0.835071 0.056286
0.727722 0.836281 0.057564
0.837491 0.837491 0.058841
0.946341 0.838700 0.060119
0.054195 0.940779 0.054195
0.169307 0.941979 0.055473
0.283605 0.943179 0.056751
0.397033 0.944379 0.058029
0.509558 0.945579 0.059307
0.621159 0.946778 0.060584
0.731825 0.947978 0.061862
0.841559 0.949177 0.063139
0.950376 0.950376 0.064416
0.020206 0.020206 0.134267
0.135540 0.021486 0.135540
0.250084 0.022766 0.136812
0.363773 0.024046 0.138083
0.476566 0.025326 0.139355
0.588440 0.026606 0.140627
0.699381 0.027886 0.141899
0.809388 0.029166 0.143170
0.918472 0.030445 0.144441
0.024512 0.138546 0.138546
0.139818 0.139818 0.139818
0.254332 0.141090 0.141090
0.367988 0.142361 0.142361
0.480747 0.143633 0.143633
0.592586 0.144904 0.144904
0.703493 0.146176 0.146176
0.813466 0.147447 0.147447
0.922515 0.148718 0.148718
0.028818 0.256054 0.142824
0.144096 0.257316 0.144096
0.258578 0.258578 0.145367
0.372202 0.259840 0.146638
0.484927 0.261102 0.147909
0.596732 0.262364 0.149180
0.707604 0.263626 0.150451
0.817541 0.264888 0.151722
0.926557 0.266149 0.152993
0.033122 0.372657 0.147101
0.148372 0.373910 0.148372
0.262824 0.375162 0.149643
0.376414 0.376414 0.150914
0.489106 0.377666 0.152185
0.600876 0.378918 0.153456
0.711713 0.380170 0.154726
0.821616 0.381421 0.155997
0.930598 0.382673 0.157267
0.037425 0.488316 0.151377
0.152648 0.489558 0.152648
0.267068 0.490800 0.153918
0.380625 0.492041 0.155189
0.493283 0.493283 0.156459
0.605018 0.494524 0.157730
0.715821 0.495766 0.159000
0.825689 0.497007 0.160270
0.934638 0.498248 0.161540
0.041728 0.603004 0.155651
0.156922 0.604235 0.156922
0.271311 0.605467 0.158192
0.384835 0.606698 0.159462
0.497459 0.607929 0.160732
0.609160 0.609160 0.162003
0.719927 0.610391 0.163272
0.829761 0.611621 0.164542
0.938676 0.612852 0.165812
0.046029 0.716710 0.159925
0.161195 0.717930 0.161195
0.275553 0.719151 0.162465
0.389044 0.720372 0.163735
0.501634 0.721592 0.165005
0.613300 0.722812 0.166274
0.724033 0.724033 0.167544
0.833832 0.725253 0.168813
0.942713 0.726473 0.170083
0.050330 0.829432 0.164197
0.165467 0.830642 0.165467
0.279793 0.831853 0.166737
0.393252 0.833063 0.168006
0.505807 0.834273 0.169276
0.617439 0.835482 0.170545
0.728137 0.836692 0.171814
0.837902 0.837902 0.173083
0.946749 0.839111 0.174352
0.054629 0.941187 0.168468
0.169738 0.942387 0.169738
0.284033 0.943587 0.171007
0.397458 0.944786 0.172276
0.509979 0.945986 0.173545
0.621576 0.947185 0.174814
0.732239 0.948385 0.176083
0.841970 0.949584 0.177352
0.950783 0.950783 0.178621
0.020641 0.020641 0.247987
0.135972 0.021921 0.249250
0.250513 0.023201 0.250513
0.364198 0.024481 0.251776
0.476988 0.025761 0.253038
0.588858 0.027041 0.254301
0.699796 0.028321 0.255563
0.809800 0.029600 0.256826
0.918880 0.030880 0.258088
0.024947 0.138978 0.252235
0.140250 0.140250 0.253498
0.254761 0.141522 0.254761
0.368413 0.142793 0.256023
0.481169 0.144065 0.257285
0.593005 0.145336 0.258548
0.703908 0.146607 0.259810
0.813877 0.147878 0.261072
0.922923 0.149149 0.262334
0.029252 0.256483 0.256483
0.144528 0.257745 0.257745
0.259007 0.259007 0.259007
0.372627 0.260269 0.260269
0.485349 0.261531 0.261531
0.597150 0.262793 0.262793
0.708018 0.264055 0.264055
0.817953 0.265316 0.265316
0.926965 0.266578 0.266578
0.033557 0.373083 0.260729
0.148804 0.374335 0.261990
0.263252 0.375587 0.263252
0.376839 0.376839 0.264514
0.489527 0.378091 0.265776
0.601294 0.379343 0.267037
0.712127 0.380595 0.268298
0.822027 0.381846 0.269560
0.931006 0.383098 0.270821
0.037860 0.488738 0.264973
0.153079 0.489980 0.266235
0.267496 0.491221 0.267496
0.381050 0.492463 0.268758
0.493705 0.493705 0.270019
0.605437 0.494946 0.271280
0.716235 0.496187 0.272541
0.826100 0.497429 0.273802
0.935045 0.498670 0.275063
0.042162 0.603422 0.269217
0.157353 0.604654 0.270478
0.271739 0.605885 0.271739
0.385260 0.607116 0.273000
0.497880 0.608347 0.274261
0.609578 0.609578 0.275522
0.720342 0.610809 0.276783
0.830172 0.612039 0.278043
0.939083 0.613270 0.279304
0.046464 0.717124 0.273459
0.161626 0.718345 0.274720
0.275981 0.719566 0.275981
0.389469 0.720786 0.277242
0.502055 0.722006 0.278502
0.613718 0.723227 0.279762
0.724447 0.724447 0.281023
0.834243 0.725667 0.282283
0.943120 0.726887 0.283543
0.050764 0.829843 0.277700
0.165898 0.831053 0.278961
0.280221 0.832264 0.280221
0.393676 0.833474 0.281482
0.506228 0.834683 0.282742
0.617857 0.835893 0.284002
0.728551 0.837103 0.285262
0.838312 0.838312 0.286522
0.947156 0.839522 0.287781
0.055063 0.941594 0.281940
0.170169 0.942794 0.283201
0.284461 0.943994 0.284461
0.397883 0.945194 0.285721
0.510401 0.946393 0.286980
0.621994 0.947593 0.288240
0.732653 0.948792 0.289500
0.842380 0.949991 0.290759
0.951191 0.951191 0.292019
0.021076 0.021076 0.360864
0.136403 0.022356 0.362117
0.250942 0.023636 0.363371
0.364624 0.024916 0.364624
0.477410 0.026196 0.365877
0.589277 0.027475 0.367130
0.700211 0.028755 0.368383
0.810212 0.030035 0.369635
0.919289 0.031314 0.370888
0.025382 0.139410 0.365080
0.140682 0.140682 0.366333
0.255189 0.141954 0.367586
0.368839 0.143225 0.368839
0.481591 0.144496 0.370091
0.593423 0.145768 0.371344
0.704323 0.147039 0.372596
0.814289 0.148310 0.373849
0.923332 0.149581 0.375101
0.029687 0.256911 0.369295
0.144959 0.258173 0.370547
0.259436 0.259436 0.371800
0.373052 0.260698 0.373052
0.485771 0.261960 0.374304
0.597568 0.263221 0.375557
0.708433 0.264483 0.376809
0.818364 0.265745 0.378061
0.927373 0.267006 0.379312
0.033991 0.373508 0.373508
0.149235 0.374760 0.374760
0.263681 0.376012 0.376012
0.377264 0.377264 0.377264
0.489949 0.378516 0.378516
0.601712 0.379768 0.379768
0.712542 0.381020 0.381020
0.822438 0.382271 0.382271
0.931414 0.383523 0.383523
0.038294 0.489159 0.377720
0.153511 0.490401 0.378972
0.267925 0.491643 0.380224
0.381475 0.492885 0.381475
0.494126 0.494126 0.382727
0.605855 0.495368 0.383978
0.716650 0.496609 0.385230
0.826512 0.497850 0.386481
0.935453 0.499091 0.387732
0.042596 0.603840 0.381931
0.157785 0.605072 0.383183
0.272167 0.606303 0.384434
0.385685 0.607534 0.385685
0.498302 0.608765 0.386936
0.609996 0.609996 0.388187
0.720756 0.611227 0.389438
0.830583 0.612457 0.390689
0.939491 0.613688 0.391940
0.046898 0.717539 0.386141
0.162057 0.718759 0.387392
0.276409 0.719980 0.388643
0.389894 0.721201 0.389894
0.502476 0.722421 0.391145
0.614136 0.723641 0.392395
0.724861 0.724861 0.393646
0.834654 0.726081 0.394896
0.943528 0.727301 0.396147
0.051198 0.830254 0.390349
0.166329 0.831464 0.391600
0.280649 0.832674 0.392851
0.394101 0.833884 0.394101
0.506650 0.835094 0.395352
0.618274 0.836304 0.396602
0.728965 0.837514 0.397852
0.838723 0.838723 0.399102
0.947563 0.839932 0.400352
0.055497 0.942002 0.394556
0.170600 0.943202 0.395807
0.284888 0.944401 0.397057
0.398307 0.945601 0.398307
0.510822 0.946801 0.399557
0.622412 0.948000 0.400807
0.733068 0.949199 0.402057
0.842791 0.950399 0.403307
0.951598 0.951598 0.404556
0.021510 0.021510 0.472860
0.136835 0.022791 0.474103
0.251371 0.024071 0.475346
0.365049 0.025350 0.476589
0.477832 0.026630 0.477832
0.589696 0.027910 0.479075
0.700627 0.029190 0.480318
0.810623 0.030469 0.481561
0.919697 0.031749 0.482803
0.025816 0.139842 0.477042
0.141114 0.141114 0.478285
0.255618 0.142385 0.479528
0.369264 0.143657 0.480771
0.482013 0.144928 0.482013
0.593842 0.146199 0.483256
0.704738 0.147471 0.484498
0.814700 0.148742 0.485740
0.923740 0.150013 0.486983
0.030121 0.257340 0.481223
0.145391 0.258602 0.482466
0.259864 0.259864 0.483708
0.373477 0.261126 0.484950
0.486193 0.262388 0.486193
0.597987 0.263650 0.487435
0.708848 0.264912 0.488677
0.818776 0.266173 0.489919
0.927781 0.267435 0.491161
0.034425 0.373933 0.485403
0.149667 0.375186 0.486645
0.264109 0.376438 0.487887
0.377690 0.377690 0.489129
0.490371 0.378941 0.490371
0.602130 0.380193 0.491613
0.712957 0.381445 0.492854
0.822850 0.382696 0.494096
0.931822 0.383948 0.495337
0.038729 0.489581 0.489581
0.153942 0.490823 0.490823
0.268353 0.492065 0.492065
0.381901 0.493306 0.493306
0.494548 0.494548 0.494548
0.606273 0.495789 0.495789
0.717064 0.497030 0.497030
0.826923 0.498272 0.498272
0.935861 0.499513 0.499513
0.043031 0.604259 0.493758
0.158216 0.605490 0.495000
0.272596 0.606721 0.496241
0.386110 0.607952 0.497482
0.498723 0.609183 0.498723
0.610414 0.610414 0.499964
0.721171 0.611645 0.501205
0.830994 0.612875 0.502446
0.939899 0.614106 0.503687
0.047332 0.717953 0.497934
0.162489 0.719174 0.499175
0.276837 0.720395 0.500416
0.390319 0.721615 0.501657
0.502898 0.722835 0.502898
0.614554 0.724056 0.504138
0.725276 0.725276 0.505379
0.835065 0.726496 0.506619
0.943935 0.727715 0.507860
0.051632 0.830665 0.502109
0.166760 0.831875 0.503350
0.281077 0.833085 0.504590
0.394526 0.834295 0.505831
0.507071 0.835505 0.507071
0.618692 0.836715 0.508311
0.729379 0.837924 0.509551
0.839134 0.839134 0.510791
0.947971 0.840343 0.512031
0.055931 0.942409 0.506282
0.171031 0.943609 0.507522
0.285316 0.944809 0.508763
0.398732 0.946009 0.510003
0.511243 0.947208 0.511243
0.622829 0.948407 0.512483
0.733482 0.949607 0.513722
0.843201 0.950806 0.514962
0.952005 0.952005 0.516202
0.021945 0.021945 0.583950
0.137267 0.023225 0.585183
0.251799 0.024505 0.586416
0.365475 0.025785 0.587649
0.478255 0.027065 0.588882
0.590114 0.028345 0.590114
0.701042 0.029624 0.591347
0.811035 0.030904 0.592579
0.920105 0.032183 0.593812
0.026251 0.140274 0.588098
0.141546 0.141546 0.589330
0.256047 0.142817 0.590563
0.369689 0.144089 0.591796
0.482435 0.145360 0.593028
0.594260 0.146631 0.594260
0.705153 0.147902 0.595493
0.815112 0.149173 0.596725
0.924148 0.150444 0.597957
0.030556 0.257769 0.592244
0.145823 0.259031 0.593477
0.260293 0.260293 0.594709
0.373903 0.261555 0.595941
0.486615 0.262817 0.597173
0.598405 0.264078 0.598405
0.709263 0.265340 0.599637
0.819187 0.266602 0.600869
0.928189 0.267863 0.602100
0.034860 0.374359 0.596390
0.150099 0.375611 0.597622
0.264538 0.376863 0.598854
0.378115 0.378115 0.600085
0.490793 0.379367 0.601317
0.602549 0.380618 0.602549
0.713372 0.381870 0.603780
0.823261 0.383121 0.605011
0.932229 0.384373 0.606243
0.039163 0.490003 0.600534
0.154374 0.491245 0.601765
0.268781 0.492486 0.602997
0.382326 0.493728 0.604228
0.494969 0.494969 0.605460
0.606691 0.496211 0.606691
0.717479 0.497452 0.607922
0.827334 0.498693 0.609153
0.936268 0.499934 0.610384
0.043465 0.604677 0.604677
0.158647 0.605908 0.605908
0.273024 0.607139 0.607139
0.386535 0.608370 0.608370
0.499145 0.609601 0.609601
0.610832 0.610832 0.610832
0.721585 0.612062 0.612062
0.831405 0.613293 0.613293
0.940306 0.614523 0.614523
0.047766 0.718368 0.608818
0.162920 0.719589 0.610049
0.277265 0.720809 0.611280
0.390743 0.722029 0.612510
0.503319 0.723250 0.613741
0.614971 0.724470 0.614971
0.725690 0.725690 0.616202
0.835475 0.726910 0.617432
0.944343 0.728130 0.618662
0.052066 0.831076 0.612958
0.167192 0.832286 0.614189
0.281505 0.833496 0.615419
0.394950 0.834706 0.616650
0.507492 0.835916 0.617880
0.619110 0.837125 0.619110
0.729793 0.838335 0.620340
0.839544 0.839544 0.621569
0.948378 0.840754 0.622799
0.056365 0.942817 0.617097
0.171462 0.944017 0.618328
0.285744 0.945216 0.619558
0.399156 0.946416 0.620787
0.511664 0.947615 0.622017
0.623247 0.948815 0.623247
0.733896 0.950014 0.624476
0.843612 0.951213 0.625706
0.952412 0.952412 0.626935
0.022380 0.022380 0.694121
0.137699 0.023660 0.695344
0.252228 0.024940 0.696567
0.365900 0.026220 0.697789
0.478677 0.027499 0.699012
0.590533 0.028779 0.700234
0.701457 0.030059 0.701457
0.811447 0.031338 0.702679
0.920513 0.032618 0.703901
0.026686 0.140706 0.698235
0.141977 0.141977 0.699457
0.256475 0.143249 0.700680
0.370115 0.144520 0.701902
0.482857 0.145792 0.703124
0.594679 0.147063 0.704346
0.705568 0.148334 0.705568
0.815523 0.149605 0.706790
0.924556 0.150876 0.708012
0.030990 0.258197 0.702347
0.146254 0.259459 0.703569
0.260721 0.260721 0.704791
0.374328 0.261983 0.706013
0.487036 0.263245 0.707235
0.598824 0.264507 0.708456
0.709678 0.265768 0.709678
0.819598 0.267030 0.710899
0.928597 0.268291 0.712121
0.035294 0.374784 0.706458
0.150530 0.376036 0.707679
0.264966 0.377288 0.708901
0.378540 0.378540 0.710123
0.491214 0.379792 0.711344
0.602967 0.381043 0.712565
0.713786 0.382295 0.713786
0.823672 0.383546 0.715007
0.932637 0.384798 0.716228
0.039597 0.490425 0.710567
0.154805 0.491666 0.711789
0.269210 0.492908 0.713010
0.382751 0.494150 0.714231
0.495391 0.495391 0.715452
0.607109 0.496632 0.716673
0.717894 0.497873 0.717894
0.827745 0.499115 0.719114
0.936676 0.500356 0.720335
0.043899 0.605095 0.714675
0.159079 0.606326 0.715896
0.273452 0.607557 0.717117
0.386960 0.608788 0.718338
0.499566 0.610019 0.719559
0.611250 0.611250 0.720779
0.722000 0.612480 0.722000
0.831816 0.613711 0.723220
0.940714 0.614941 0.724440
0.048200 0.718782 0.718782
0.163351 0.720003 0.720003
0.277693 0.721224 0.721224
0.391168 0.722444 0.722444
0.503740 0.723664 0.723664
0.615389 0.724884 0.724884
0.726104 0.726104 0.726104
0.835886 0.727324 0.727324
0.944750 0.728544 0.728544
0.052500 0.831487 0.722888
0.167623 0.832697 0.724108
0.281933 0.833907 0.725328
0.395375 0.835117 0.726548
0.507913 0.836327 0.727768
0.619527 0.837536 0.728988
0.730208 0.838746 0.730208
0.839955 0.839955 0.731427
0.948785 0.841164 0.732647
0.056799 0.943224 0.726993
0.171893 0.944424 0.728212
0.286172 0.945624 0.729432
0.399581 0.946823 0.730652
0.512085 0.948023 0.731871
0.623664 0.949222 0.733090
0.734310 0.950421 0.734310
0.844023 0.951620 0.735529
0.952819 0.952819 0.736748
0.022815 0.022815 0.803372
0.138131 0.024095 0.804585
0.252657 0.025375 0.805797
0.366326 0.026654 0.807010
0.479099 0.027934 0.808222
0.590951 0.029214 0.809434
0.701872 0.030493 0.810646
0.811858 0.031773 0.811858
0.920921 0.033052 0.813070
0.027120 0.141138 0.807451
0.142409 0.142409 0.808663
0.256904 0.143681 0.809875
0.370540 0.144952 0.811087
0.483279 0.146223 0.812299
0.595097 0.147495 0.813511
0.705983 0.148766 0.814723
0.815934 0.150037 0.815934
0.924964 0.151307 0.817146
0.031425 0.258626 0.811529
0.146686 0.259888 0.812741
0.261150 0.261150 0.813952
0.374753 0.262412 0.815164
0.487458 0.263674 0.816376
0.599242 0.264935 0.817587
0.710093 0.266197 0.818798
0.820010 0.267458 0.820010
0.929005 0.268720 0.821221
0.035729 0.375209 0.815605
0.150962 0.376461 0.816817
0.265395 0.377713 0.818028
0.378965 0.378965 0.819239
0.491636 0.380217 0.820450
0.603385 0.381468 0.821662
0.714201 0.382720 0.822873
0.824083 0.383971 0.824083
0.933045 0.385223 0.825294
0.040032 0.490846 0.819680
0.155237 0.492088 0.820891
0.269638 0.493330 0.822102
0.383176 0.494571 0.823313
0.495813 0.495813 0.824524
0.607527 0.497054 0.825735
0.718308 0.498295 0.826945
0.828156 0.499536 0.828156
0.937084 0.500777 0.829366
0.044333 0.605513 0.823754
0.159510 0.606744 0.824965
0.273880 0.607975 0.826176
0.387385 0.609206 0.827386
0.499988 0.610437 0.828597
0.611668 0.611668 0.829807
0.722414 0.612898 0.831017
0.832227 0.614129 0.832227
0.941121 0.615359 0.833437
0.048634 0.719197 0.827827
0.163783 0.720418 0.829037
0.278121 0.721638 0.830247
0.391593 0.722858 0.831458
0.504162 0.724078 0.832668
0.615807 0.725299 0.833878
0.726519 0.726519 0.835087
0.836297 0.727738 0.836297
0.945158 0.728958 0.837507
0.052934 0.831898 0.831898
0.168054 0.833108 0.833108
0.282361 0.834318 0.834318
0.395800 0.835528 0.835528
0.508334 0.836737 0.836737
0.619945 0.837947 0.837947
0.730622 0.839156 0.839156
0.840366 0.840366 0.840366
0.949193 0.841575 0.841575
0.057233 0.943632 0.835968
0.172324 0.944831 0.837178
0.286600 0.946031 0.838387
0.400005 0.947231 0.839597
0.512506 0.948430 0.840806
0.624082 0.949629 0.842015
0.734724 0.950829 0.843224
0.844433 0.952028 0.844433
0.953227 0.953227 0.845642
0.023249 0.023249 0.911711
0.138563 0.024529 0.912914
0.253086 0.025809 0.914117
0.366751 0.027089 0.915319
0.479521 0.028369 0.916521
0.591370 0.029648 0.917724
0.702287 0.030928 0.918926
0.812270 0.032207 0.920128
0.921329 0.033487 0.921329
0.027555 0.141570 0.915757
0.142841 0.142841 0.916959
0.257333 0.144112 0.918161
0.370966 0.145384 0.919363
0.483701 0.146655 0.920565
0.595516 0.147926 0.921767
0.706398 0.149197 0.922969
0.816346 0.150468 0.924170
0.925372 0.151739 0.925372
0.031859 0.259055 0.919801
0.147118 0.260317 0.921003
0.261579 0.261579 0.922204
0.375178 0.262840 0.923406
0.487880 0.264102 0.924608
0.599660 0.265364 0.925809
0.710507 0.266625 0.927011
0.820421 0.267887 0.928212
0.929413 0.269148 0.929413
0.036163 0.375634 0.923844
0.151394 0.376886 0.925045
0.265823 0.378138 0.926247
0.379390 0.379390 0.927448
0.492058 0.380642 0.928649
0.603803 0.381893 0.929850
0.714616 0.383145 0.931051
0.824495 0.384396 0.932252
0.933453 0.385648 0.933453
0.040466 0.491268 0.927885
0.155668 0.492510 0.929086
0.270066 0.493751 0.930287
0.383601 0.494993 0.931488
0.496234 0.496234 0.932689
0.607945 0.497475 0.933890
0.718723 0.498716 0.935090
0.828567 0.499957 0.936291
0.937491 0.501198 0.937491
0.044768 0.605931 0.931926
0.159941 0.607162 0.933126
0.274309 0.608393 0.934327
0.387810 0.609624 0.935528
0.500409 0.610855 0.936728
0.612086 0.612086 0.937928
0.722828 0.613316 0.939129
0.832638 0.614547 0.940329
0.941529 0.615777 0.941529
0.049068 0.719612 0.935965
0.164214 0.720832 0.937165
0.278549 0.722052 0.938365
0.392018 0.723273 0.939566
0.504583 0.724493 0.940766
0.616225 0.725713 0.941966
0.726933 0.726933 0.943166
0.836708 0.728153 0.944365
0.945565 0.729372 0.945565
0.053368 0.832309 0.940003
0.168485 0.833519 0.941203
0.282789 0.834729 0.942403
0.396224 0.835939 0.943602
0.508756 0.837148 0.944802
0.620363 0.838358 0.946002
0.731036 0.839567 0.947201
0.840776 0.840776 0.948401
0.949600 0.841986 0.949600
0.057667 0.944039 0.944039
0.172755 0.945239 0.945239
0.287028 0.946438 0.946438
0.400430 0.947638 0.947638
0.512927 0.948837 0.948837
0.624499 0.950037 0.950037
0.735138 0.951236 0.951236
0.844844 0.952435 0.952435
0.953634 0.953634 0.953634
