working/Infinite_Arch_Leica_Looks_v1.2/looks/zone/look.CUBE
#Created by: Infinite Arch Leica Looks v1.0
#Unique Leica Look ID: 1003
#Based Filmstyle Mode: Monochrome
TITLE "IA Zone"
LUT_3D_SIZE 17
DOMAIN_MIN 0.0 0.0 0.0
DOMAIN_MAX 1.0 1.0 1.0
0.006000 0.006000 0.006000
0.006000 0.006000 0.006000
0.006000 0.006000 0.006000
0.006000 0.006000 0.006000
0.011212 0.011212 0.011212
0.025022 0.025022 0.025022
0.039107 0.039107 0.039107
0.053385 0.053385 0.053385
0.067789 0.067789 0.067789
0.081851 0.081851 0.081851
0.095340 0.095340 0.095340
0.108843 0.108843 0.108843
0.123178 0.123178 0.123178
0.137303 0.137303 0.137303
0.151631 0.151631 0.151631
0.165705 0.165705 0.165705
0.180006 0.180006 0.180006
0.006000 0.006000 0.006000
0.016064 0.016064 0.016064
0.030150 0.030150 0.030150
0.044233 0.044233 0.044233
0.058636 0.058636 0.058636
0.073011 0.073011 0.073011
0.086795 0.086795 0.086795
0.100167 0.100167 0.100167
0.114091 0.114091 0.114091
0.128333 0.128333 0.128333
0.142543 0.142543 0.142543
0.156789 0.156789 0.156789
0.170899 0.170899 0.170899
0.185226 0.185226 0.185226
0.199794 0.199794 0.199794
0.215064 0.215064 0.215064
0.230383 0.230383 0.230383
0.049460 0.049460 0.049460
0.063880 0.063880 0.063880
0.078141 0.078141 0.078141
0.091703 0.091703 0.091703
0.104936 0.104936 0.104936
0.119306 0.119306 0.119306
0.133455 0.133455 0.133455
0.147757 0.147757 0.147757
0.161909 0.161909 0.161909
0.176112 0.176112 0.176112
0.190460 0.190460 0.190460
0.205370 0.205370 0.205370
0.220615 0.220615 0.220615
0.236422 0.236422 0.236422
0.253029 0.253029 0.253029
0.269742 0.269742 0.269742
0.286643 0.286643 0.286643
0.096568 0.096568 0.096568
0.110175 0.110175 0.110175
0.124486 0.124486 0.124486
0.138633 0.138633 0.138633
0.152940 0.152940 0.152940
0.167004 0.167004 0.167004
0.181327 0.181327 0.181327
0.195712 0.195712 0.195712
0.210923 0.210923 0.210923
0.226187 0.226187 0.226187
0.242464 0.242464 0.242464
0.259088 0.259088 0.259088
0.275898 0.275898 0.275898
0.292777 0.292777 0.292777
0.309625 0.309625 0.309625
0.326450 0.326450 0.326450
0.343223 0.343223 0.343223
0.143866 0.143866 0.143866
0.158089 0.158089 0.158089
0.172219 0.172219 0.172219
0.186550 0.186550 0.186550
0.201209 0.201209 0.201209
0.216469 0.216469 0.216469
0.231912 0.231912 0.231912
0.248510 0.248510 0.248510
0.265157 0.265157 0.265157
0.282053 0.282053 0.282053
0.298890 0.298890 0.298890
0.315769 0.315769 0.315769
0.332537 0.332537 0.332537
0.349386 0.349386 0.349386
0.366153 0.366153 0.366153
0.383092 0.383092 0.383092
0.400237 0.400237 0.400237
0.191788 0.191788 0.191788
0.206778 0.206778 0.206778
0.222024 0.222024 0.222024
0.237952 0.237952 0.237952
0.254563 0.254563 0.254563
0.271301 0.271301 0.271301
0.288198 0.288198 0.288198
0.305021 0.305021 0.305021
0.321892 0.321892 0.321892
0.338611 0.338611 0.338611
0.355524 0.355524 0.355524
0.372168 0.372168 0.372168
0.389367 0.389367 0.389367
0.406417 0.406417 0.406417
0.423997 0.423997 0.423997
0.441675 0.441675 0.441675
0.459858 0.459858 0.459858
0.243994 0.243994 0.243994
0.260624 0.260624 0.260624
0.277457 0.277457 0.277457
0.294327 0.294327 0.294327
0.311183 0.311183 0.311183
0.327993 0.327993 0.327993
0.344785 0.344785 0.344785
0.361626 0.361626 0.361626
0.378378 0.378378 0.378378
0.395603 0.395603 0.395603
0.412657 0.412657 0.412657
0.430452 0.430452 0.430452
0.448079 0.448079 0.448079
0.466604 0.466604 0.466604
0.484931 0.484931 0.484931
0.503855 0.503855 0.503855
0.522632 0.522632 0.522632
0.300433 0.300433 0.300433
0.317321 0.317321 0.317321
0.334076 0.334076 0.334076
0.350943 0.350943 0.350943
0.367682 0.367682 0.367682
0.384685 0.384685 0.384685
0.401804 0.401804 0.401804
0.419160 0.419160 0.419160
0.436884 0.436884 0.436884
0.454799 0.454799 0.454799
0.473313 0.473313 0.473313
0.491698 0.491698 0.491698
0.510736 0.510736 0.510736
0.529379 0.529379 0.529379
0.547979 0.547979 0.547979
0.566059 0.566059 0.566059
0.583524 0.583524 0.583524
0.357073 0.357073 0.357073
0.373681 0.373681 0.373681
0.390950 0.390950 0.390950
0.407978 0.407978 0.407978
0.425634 0.425634 0.425634
0.443298 0.443298 0.443298
0.461570 0.461570 0.461570
0.479981 0.479981 0.479981
0.498680 0.498680 0.498680
0.517564 0.517564 0.517564
0.536202 0.536202 0.536202
0.554628 0.554628 0.554628
0.572478 0.572478 0.572478
0.589754 0.589754 0.589754
0.606453 0.606453 0.606453
0.622537 0.622537 0.622537
0.638082 0.638082 0.638082
0.414307 0.414307 0.414307
0.432083 0.432083 0.432083
0.449724 0.449724 0.449724
0.468306 0.468306 0.468306
0.486604 0.486604 0.486604
0.505603 0.505603 0.505603
0.524344 0.524344 0.524344
0.542968 0.542968 0.542968
0.561202 0.561202 0.561202
0.578825 0.578825 0.578825
0.595908 0.595908 0.595908
0.612373 0.612373 0.612373
0.628257 0.628257 0.628257
0.643627 0.643627 0.643627
0.658476 0.658476 0.658476
0.672820 0.672820 0.672820
0.686876 0.686876 0.686876
0.475005 0.475005 0.475005
0.493472 0.493472 0.493472
0.512470 0.512470 0.512470
0.531111 0.531111 0.531111
0.549670 0.549670 0.549670
0.567696 0.567696 0.567696
0.585108 0.585108 0.585108
0.601978 0.601978 0.601978
0.618219 0.618219 0.618219
0.633907 0.633907 0.633907
0.649099 0.649099 0.649099
0.663748 0.663748 0.663748
0.677980 0.677980 0.677980
0.691899 0.691899 0.691899
0.705441 0.705441 0.705441
0.718706 0.718706 0.718706
0.731632 0.731632 0.731632
0.537922 0.537922 0.537922
0.556300 0.556300 0.556300
0.574091 0.574091 0.574091
0.591320 0.591320 0.591320
0.607959 0.607959 0.607959
0.623992 0.623992 0.623992
0.639489 0.639489 0.639489
0.654494 0.654494 0.654494
0.668954 0.668954 0.668954
0.683092 0.683092 0.683092
0.696868 0.696868 0.696868
0.710307 0.710307 0.710307
0.723444 0.723444 0.723444
0.736312 0.736312 0.736312
0.748886 0.748886 0.748886
0.761242 0.761242 0.761242
0.773405 0.773405 0.773405
0.597453 0.597453 0.597453
0.613860 0.613860 0.613860
0.629695 0.629695 0.629695
0.645020 0.645020 0.645020
0.659817 0.659817 0.659817
0.674131 0.674131 0.674131
0.688153 0.688153 0.688153
0.701785 0.701785 0.701785
0.715133 0.715133 0.715133
0.728121 0.728121 0.728121
0.740932 0.740932 0.740932
0.753394 0.753394 0.753394
0.765699 0.765699 0.765699
0.777777 0.777777 0.777777
0.789755 0.789755 0.789755
0.801589 0.801589 0.801589
0.813323 0.813323 0.813323
0.650472 0.650472 0.650472
0.665072 0.665072 0.665072
0.679279 0.679279 0.679279
0.693162 0.693162 0.693162
0.706677 0.706677 0.706677
0.719911 0.719911 0.719911
0.732824 0.732824 0.732824
0.745501 0.745501 0.745501
0.757890 0.757890 0.757890
0.770122 0.770122 0.770122
0.782122 0.782122 0.782122
0.794087 0.794087 0.794087
0.805850 0.805850 0.805850
0.817590 0.817590 0.817590
0.829169 0.829169 0.829169
0.840713 0.840713 0.840713
0.852123 0.852123 0.852123
0.698117 0.698117 0.698117
0.711533 0.711533 0.711533
0.724634 0.724634 0.724634
0.737487 0.737487 0.737487
0.750030 0.750030 0.750030
0.762374 0.762374 0.762374
0.774515 0.774515 0.774515
0.786501 0.786501 0.786501
0.798392 0.798392 0.798392
0.810122 0.810122 0.810122
0.821832 0.821832 0.821832
0.833335 0.833335 0.833335
0.844892 0.844892 0.844892
0.856230 0.856230 0.856230
0.867557 0.867557 0.867557
0.878663 0.878663 0.878663
0.889810 0.889810 0.889810
0.742093 0.742093 0.742093
0.754531 0.754531 0.754531
0.766822 0.766822 0.766822
0.778879 0.778879 0.778879
0.790855 0.790855 0.790855
0.802671 0.802671 0.802671
0.814405 0.814405 0.814405
0.826045 0.826045 0.826045
0.837572 0.837572 0.837572
0.849042 0.849042 0.849042
0.860367 0.860367 0.860367
0.871629 0.871629 0.871629
0.882691 0.882691 0.882691
0.893824 0.893824 0.893824
0.904682 0.904682 0.904682
0.915608 0.915608 0.915608
0.926292 0.926292 0.926292
0.783230 0.783230 0.783230
0.795180 0.795180 0.795180
0.806925 0.806925 0.806925
0.818667 0.818667 0.818667
0.830224 0.830224 0.830224
0.841774 0.841774 0.841774
0.853165 0.853165 0.853165
0.864495 0.864495 0.864495
0.875668 0.875668 0.875668
0.886785 0.886785 0.886785
0.897802 0.897802 0.897802
0.908679 0.908679 0.908679
0.919528 0.919528 0.919528
0.930204 0.930204 0.930204
0.940921 0.940921 0.940921
0.951243 0.951243 0.951243
0.961904 0.961904 0.961904
0.006000 0.006000 0.006000
0.006000 0.006000 0.006000
0.006000 0.006000 0.006000
0.006000 0.006000 0.006000
0.015719 0.015719 0.015719
0.029806 0.029806 0.029806
0.043889 0.043889 0.043889
0.058284 0.058284 0.058284
0.072661 0.072661 0.072661
0.086463 0.086463 0.086463
0.099845 0.099845 0.099845
0.113740 0.113740 0.113740
0.127988 0.127988 0.127988
0.142192 0.142192 0.142192
0.156443 0.156443 0.156443
0.170549 0.170549 0.170549
0.184875 0.184875 0.184875
0.007352 0.007352 0.007352
0.020847 0.020847 0.020847
0.034934 0.034934 0.034934
0.049107 0.049107 0.049107
0.063528 0.063528 0.063528
0.077807 0.077807 0.077807
0.091374 0.091374 0.091374
0.104617 0.104617 0.104617
0.118957 0.118957 0.118957
0.133112 0.133112 0.133112
0.147408 0.147408 0.147408
0.161566 0.161566 0.161566
0.175761 0.175761 0.175761
0.190108 0.190108 0.190108
0.204996 0.204996 0.204996
0.220242 0.220242 0.220242
0.236016 0.236016 0.236016
0.054363 0.054363 0.054363
0.068761 0.068761 0.068761
0.082773 0.082773 0.082773
0.096242 0.096242 0.096242
0.109822 0.109822 0.109822
0.124139 0.124139 0.124139
0.138280 0.138280 0.138280
0.152593 0.152593 0.152593
0.166654 0.166654 0.166654
0.180976 0.180976 0.180976
0.195359 0.195359 0.195359
0.210550 0.210550 0.210550
0.225811 0.225811 0.225811
0.242058 0.242058 0.242058
0.258681 0.258681 0.258681
0.275485 0.275485 0.275485
0.292366 0.292366 0.292366
0.101059 0.101059 0.101059
0.115064 0.115064 0.115064
0.129288 0.129288 0.129288
0.143516 0.143516 0.143516
0.157744 0.157744 0.157744
0.171869 0.171869 0.171869
0.186199 0.186199 0.186199
0.200834 0.200834 0.200834
0.216096 0.216096 0.216096
0.231507 0.231507 0.231507
0.248104 0.248104 0.248104
0.264749 0.264749 0.264749
0.281639 0.281639 0.281639
0.298480 0.298480 0.298480
0.315357 0.315357 0.315357
0.332129 0.332129 0.332129
0.348972 0.348972 0.348972
0.148724 0.148724 0.148724
0.162857 0.162857 0.162857
0.177082 0.177082 0.177082
0.191435 0.191435 0.191435
0.206404 0.206404 0.206404
0.221650 0.221650 0.221650
0.237546 0.237546 0.237546
0.254156 0.254156 0.254156
0.270887 0.270887 0.270887
0.287786 0.287786 0.287786
0.304607 0.304607 0.304607
0.321481 0.321481 0.321481
0.338198 0.338198 0.338198
0.355112 0.355112 0.355112
0.371766 0.371766 0.371766
0.388947 0.388947 0.388947
0.406003 0.406003 0.406003
0.196692 0.196692 0.196692
0.211955 0.211955 0.211955
0.227227 0.227227 0.227227
0.243588 0.243588 0.243588
0.260217 0.260217 0.260217
0.277044 0.277044 0.277044
0.293916 0.293916 0.293916
0.310769 0.310769 0.310769
0.327584 0.327584 0.327584
0.344371 0.344371 0.344371
0.361217 0.361217 0.361217
0.377952 0.377952 0.377952
0.395185 0.395185 0.395185
0.412219 0.412219 0.412219
0.430019 0.430019 0.430019
0.447649 0.447649 0.447649
0.466152 0.466152 0.466152
0.249636 0.249636 0.249636
0.266292 0.266292 0.266292
0.283197 0.283197 0.283197
0.300024 0.300024 0.300024
0.316910 0.316910 0.316910
0.333668 0.333668 0.333668
0.350530 0.350530 0.350530
0.367276 0.367276 0.367276
0.384263 0.384263 0.384263
0.401389 0.401389 0.401389
0.418724 0.418724 0.418724
0.436453 0.436453 0.436453
0.454344 0.454344 0.454344
0.472863 0.472863 0.472863
0.491227 0.491227 0.491227
0.510275 0.510275 0.510275
0.528927 0.528927 0.528927
0.306169 0.306169 0.306169
0.323028 0.323028 0.323028
0.339760 0.339760 0.339760
0.356662 0.356662 0.356662
0.373280 0.373280 0.373280
0.390530 0.390530 0.390530
0.407564 0.407564 0.407564
0.425200 0.425200 0.425200
0.442868 0.442868 0.442868
0.461116 0.461116 0.461116
0.479534 0.479534 0.479534
0.498213 0.498213 0.498213
0.517107 0.517107 0.517107
0.535746 0.535746 0.535746
0.554183 0.554183 0.554183
0.572050 0.572050 0.572050
0.589338 0.589338 0.589338
0.362756 0.362756 0.362756
0.379555 0.379555 0.379555
0.396759 0.396759 0.396759
0.413869 0.413869 0.413869
0.431650 0.431650 0.431650
0.449269 0.449269 0.449269
0.467855 0.467855 0.467855
0.486160 0.486160 0.486160
0.505139 0.505139 0.505139
0.523890 0.523890 0.523890
0.542516 0.542516 0.542516
0.560763 0.560763 0.560763
0.578401 0.578401 0.578401
0.595497 0.595497 0.595497
0.611977 0.611977 0.611977
0.627875 0.627875 0.627875
0.643257 0.643257 0.643257
0.420367 0.420367 0.420367
0.438079 0.438079 0.438079
0.456061 0.456061 0.456061
0.474557 0.474557 0.474557
0.493002 0.493002 0.493002
0.512010 0.512010 0.512010
0.530651 0.530651 0.530651
0.549221 0.549221 0.549221
0.567262 0.567262 0.567262
0.584688 0.584688 0.584688
0.601573 0.601573 0.601573
0.617828 0.617828 0.617828
0.633530 0.633530 0.633530
0.648734 0.648734 0.648734
0.663396 0.663396 0.663396
0.677635 0.677635 0.677635
0.691563 0.691563 0.691563
0.481217 0.481217 0.481217
0.499972 0.499972 0.499972
0.518829 0.518829 0.518829
0.537466 0.537466 0.537466
0.555857 0.555857 0.555857
0.573664 0.573664 0.573664
0.590905 0.590905 0.590905
0.607560 0.607560 0.607560
0.623607 0.623607 0.623607
0.639116 0.639116 0.639116
0.654134 0.654134 0.654134
0.668607 0.668607 0.668607
0.682750 0.682750 0.682750
0.696536 0.696536 0.696536
0.709981 0.709981 0.709981
0.723128 0.723128 0.723128
0.736000 0.736000 0.736000
0.544220 0.544220 0.544220
0.562416 0.562416 0.562416
0.579999 0.579999 0.579999
0.597044 0.597044 0.597044
0.613466 0.613466 0.613466
0.629314 0.629314 0.629314
0.644651 0.644651 0.644651
0.659462 0.659462 0.659462
0.673783 0.673783 0.673783
0.687815 0.687815 0.687815
0.701455 0.701455 0.701455
0.714810 0.714810 0.714810
0.727809 0.727809 0.727809
0.740623 0.740623 0.740623
0.753092 0.753092 0.753092
0.765400 0.765400 0.765400
0.777484 0.777484 0.777484
0.603098 0.603098 0.603098
0.619298 0.619298 0.619298
0.634951 0.634951 0.634951
0.650109 0.650109 0.650109
0.664721 0.664721 0.664721
0.678935 0.678935 0.678935
0.692827 0.692827 0.692827
0.706349 0.706349 0.706349
0.719592 0.719592 0.719592
0.732508 0.732508 0.732508
0.745195 0.745195 0.745195
0.757587 0.757587 0.757587
0.769826 0.769826 0.769826
0.781831 0.781831 0.781831
0.793797 0.793797 0.793797
0.805564 0.805564 0.805564
0.817304 0.817304 0.817304
0.655490 0.655490 0.655490
0.669916 0.669916 0.669916
0.684037 0.684037 0.684037
0.697786 0.697786 0.697786
0.711208 0.711208 0.711208
0.724319 0.724319 0.724319
0.737176 0.737176 0.737176
0.749727 0.749727 0.749727
0.762073 0.762073 0.762073
0.774221 0.774221 0.774221
0.786208 0.786208 0.786208
0.798103 0.798103 0.798103
0.809833 0.809833 0.809833
0.821548 0.821548 0.821548
0.833049 0.833049 0.833049
0.844612 0.844612 0.844612
0.855954 0.855954 0.855954
0.702697 0.702697 0.702697
0.716026 0.716026 0.716026
0.728984 0.728984 0.728984
0.741785 0.741785 0.741785
0.754230 0.754230 0.754230
0.766524 0.766524 0.766524
0.778587 0.778587 0.778587
0.790563 0.790563 0.790563
0.802384 0.802384 0.802384
0.814118 0.814118 0.814118
0.825763 0.825763 0.825763
0.837288 0.837288 0.837288
0.848764 0.848764 0.848764
0.860088 0.860088 0.860088
0.871356 0.871356 0.871356
0.882414 0.882414 0.882414
0.893556 0.893556 0.893556
0.746346 0.746346 0.746346
0.758727 0.758727 0.758727
0.770942 0.770942 0.770942
0.782935 0.782935 0.782935
0.794890 0.794890 0.794890
0.806640 0.806640 0.806640
0.818381 0.818381 0.818381
0.829945 0.829945 0.829945
0.841493 0.841493 0.841493
0.852889 0.852889 0.852889
0.864219 0.864219 0.864219
0.875397 0.875397 0.875397
0.886511 0.886511 0.886511
0.897536 0.897536 0.897536
0.908411 0.908411 0.908411
0.919265 0.919265 0.919265
0.929936 0.929936 0.929936
0.787313 0.787313 0.787313
0.799190 0.799190 0.799190
0.810920 0.810920 0.810920
0.822618 0.822618 0.822618
0.834126 0.834126 0.834126
0.845666 0.845666 0.845666
0.856991 0.856991 0.856991
0.868317 0.868317 0.868317
0.879406 0.879406 0.879406
0.890560 0.890560 0.890560
0.901485 0.901485 0.901485
0.912392 0.912392 0.912392
0.923153 0.923153 0.923153
0.933898 0.933898 0.933898
0.944461 0.944461 0.944461
0.954919 0.954919 0.954919
0.965423 0.965423 0.965423
0.006000 0.006000 0.006000
0.006000 0.006000 0.006000
0.006000 0.006000 0.006000
0.007036 0.007036 0.007036
0.020503 0.020503 0.020503
0.034589 0.034589 0.034589
0.048754 0.048754 0.048754
0.063176 0.063176 0.063176
0.077472 0.077472 0.077472
0.091046 0.091046 0.091046
0.104299 0.104299 0.104299
0.118607 0.118607 0.118607
0.132768 0.132768 0.132768
0.147058 0.147058 0.147058
0.161223 0.161223 0.161223
0.175411 0.175411 0.175411
0.189756 0.189756 0.189756
0.011779 0.011779 0.011779
0.025631 0.025631 0.025631
0.039716 0.039716 0.039716
0.054010 0.054010 0.054010
0.068410 0.068410 0.068410
0.082440 0.082440 0.082440
0.095917 0.095917 0.095917
0.109468 0.109468 0.109468
0.123792 0.123792 0.123792
0.137927 0.137927 0.137927
0.152246 0.152246 0.152246
0.166307 0.166307 0.166307
0.180626 0.180626 0.180626
0.195005 0.195005 0.195005
0.210177 0.210177 0.210177
0.225436 0.225436 0.225436
0.241652 0.241652 0.241652
0.059260 0.059260 0.059260
0.073631 0.073631 0.073631
0.087380 0.087380 0.087380
0.100737 0.100737 0.100737
0.114713 0.114713 0.114713
0.128944 0.128944 0.128944
0.143165 0.143165 0.143165
0.157399 0.157399 0.157399
0.171519 0.171519 0.171519
0.185848 0.185848 0.185848
0.200459 0.200459 0.200459
0.215724 0.215724 0.215724
0.231101 0.231101 0.231101
0.247697 0.247697 0.247697
0.264341 0.264341 0.264341
0.281226 0.281226 0.281226
0.298070 0.298070 0.298070
0.105529 0.105529 0.105529
0.119923 0.119923 0.119923
0.134061 0.134061 0.134061
0.148375 0.148375 0.148375
0.162515 0.162515 0.162515
0.176731 0.176731 0.176731
0.191083 0.191083 0.191083
0.206031 0.206031 0.206031
0.221276 0.221276 0.221276
0.237140 0.237140 0.237140
0.253749 0.253749 0.253749
0.270474 0.270474 0.270474
0.287373 0.287373 0.287373
0.304192 0.304192 0.304192
0.321070 0.321070 0.321070
0.337791 0.337791 0.337791
0.354701 0.354701 0.354701
0.153554 0.153554 0.153554
0.167625 0.167625 0.167625
0.181947 0.181947 0.181947
0.196338 0.196338 0.196338
0.211582 0.211582 0.211582
0.226851 0.226851 0.226851
0.243182 0.243182 0.243182
0.259809 0.259809 0.259809
0.276630 0.276630 0.276630
0.293505 0.293505 0.293505
0.310356 0.310356 0.310356
0.327175 0.327175 0.327175
0.343957 0.343957 0.343957
0.360808 0.360808 0.360808
0.377527 0.377527 0.377527
0.394767 0.394767 0.394767
0.411780 0.411780 0.411780
0.201873 0.201873 0.201873
0.217128 0.217128 0.217128
0.232630 0.232630 0.232630
0.249229 0.249229 0.249229
0.265880 0.265880 0.265880
0.282784 0.282784 0.282784
0.299615 0.299615 0.299615
0.316498 0.316498 0.316498
0.333259 0.333259 0.333259
0.350117 0.350117 0.350117
0.366871 0.366871 0.366871
0.383840 0.383840 0.383840
0.400973 0.400973 0.400973
0.418288 0.418288 0.418288
0.436021 0.436021 0.436021
0.453887 0.453887 0.453887
0.472414 0.472414 0.472414
0.255283 0.255283 0.255283
0.272033 0.272033 0.272033
0.288928 0.288928 0.288928
0.305755 0.305755 0.305755
0.322618 0.322618 0.322618
0.339345 0.339345 0.339345
0.356251 0.356251 0.356251
0.372879 0.372879 0.372879
0.390110 0.390110 0.390110
0.407150 0.407150 0.407150
0.424766 0.424766 0.424766
0.442437 0.442437 0.442437
0.460662 0.460662 0.460662
0.479087 0.479087 0.479087
0.497746 0.497746 0.497746
0.516650 0.516650 0.516650
0.535289 0.535289 0.535289
0.311913 0.311913 0.311913
0.328717 0.328717 0.328717
0.345518 0.345518 0.345518
0.362348 0.362348 0.362348
0.379130 0.379130 0.379130
0.396341 0.396341 0.396341
0.413431 0.413431 0.413431
0.431217 0.431217 0.431217
0.448839 0.448839 0.448839
0.467403 0.467403 0.467403
0.485717 0.485717 0.485717
0.504676 0.504676 0.504676
0.523436 0.523436 0.523436
0.542063 0.542063 0.542063
0.560323 0.560323 0.560323
0.577976 0.577976 0.577976
0.595086 0.595086 0.595086
0.368398 0.368398 0.368398
0.385432 0.385432 0.385432
0.402540 0.402540 0.402540
0.419931 0.419931 0.419931
0.437647 0.437647 0.437647
0.455606 0.455606 0.455606
0.474108 0.474108 0.474108
0.492531 0.492531 0.492531
0.511550 0.511550 0.511550
0.530191 0.530191 0.530191
0.548773 0.548773 0.548773
0.566828 0.566828 0.566828
0.584268 0.584268 0.584268
0.601168 0.601168 0.601168
0.617438 0.617438 0.617438
0.633152 0.633152 0.633152
0.648368 0.648368 0.648368
0.426402 0.426402 0.426402
0.444060 0.444060 0.444060
0.462372 0.462372 0.462372
0.480771 0.480771 0.480771
0.499506 0.499506 0.499506
0.518373 0.518373 0.518373
0.537010 0.537010 0.537010
0.555413 0.555413 0.555413
0.573236 0.573236 0.573236
0.590490 0.590490 0.590490
0.607160 0.607160 0.607160
0.623221 0.623221 0.623221
0.638743 0.638743 0.638743
0.653774 0.653774 0.653774
0.668258 0.668258 0.668258
0.682408 0.682408 0.682408
0.696203 0.696203 0.696203
0.487388 0.487388 0.487388
0.506422 0.506422 0.506422
0.525147 0.525147 0.525147
0.543768 0.543768 0.543768
0.561978 0.561978 0.561978
0.579576 0.579576 0.579576
0.596634 0.596634 0.596634
0.613072 0.613072 0.613072
0.628932 0.628932 0.628932
0.644282 0.644282 0.644282
0.659106 0.659106 0.659106
0.673436 0.673436 0.673436
0.687476 0.687476 0.687476
0.701125 0.701125 0.701125
0.714487 0.714487 0.714487
0.727496 0.727496 0.727496
0.740314 0.740314 0.740314
0.550461 0.550461 0.550461
0.568462 0.568462 0.568462
0.585851 0.585851 0.585851
0.602694 0.602694 0.602694
0.618909 0.618909 0.618909
0.634574 0.634574 0.634574
0.649744 0.649744 0.649744
0.664370 0.664370 0.664370
0.678590 0.678590 0.678590
0.692492 0.692492 0.692492
0.706021 0.706021 0.706021
0.719272 0.719272 0.719272
0.732192 0.732192 0.732192
0.744889 0.744889 0.744889
0.757285 0.757285 0.757285
0.769530 0.769530 0.769530
0.781539 0.781539 0.781539
0.608664 0.608664 0.608664
0.624674 0.624674 0.624674
0.640150 0.640150 0.640150
0.655131 0.655131 0.655131
0.669569 0.669569 0.669569
0.683696 0.683696 0.683696
0.697455 0.697455 0.697455
0.710883 0.710883 0.710883
0.724003 0.724003 0.724003
0.736864 0.736864 0.736864
0.749424 0.749424 0.749424
0.761773 0.761773 0.761773
0.773926 0.773926 0.773926
0.785914 0.785914 0.785914
0.797815 0.797815 0.797815
0.809545 0.809545 0.809545
0.821263 0.821263 0.821263
0.660445 0.660445 0.660445
0.674745 0.674745 0.674745
0.688751 0.688751 0.688751
0.702368 0.702368 0.702368
0.715704 0.715704 0.715704
0.728672 0.728672 0.728672
0.741477 0.741477 0.741477
0.753928 0.753928 0.753928
0.766226 0.766226 0.766226
0.778294 0.778294 0.778294
0.790271 0.790271 0.790271
0.802097 0.802097 0.802097
0.813831 0.813831 0.813831
0.825480 0.825480 0.825480
0.837005 0.837005 0.837005
0.848486 0.848486 0.848486
0.859809 0.859809 0.859809
0.707256 0.707256 0.707256
0.720476 0.720476 0.720476
0.733381 0.733381 0.733381
0.746041 0.746041 0.746041
0.758425 0.758425 0.758425
0.770646 0.770646 0.770646
0.782640 0.782640 0.782640
0.794600 0.794600 0.794600
0.806355 0.806355 0.806355
0.818095 0.818095 0.818095
0.829665 0.829665 0.829665
0.841211 0.841211 0.841211
0.852613 0.852613 0.852613
0.863942 0.863942 0.863942
0.875127 0.875127 0.875127
0.886238 0.886238 0.886238
0.897269 0.897269 0.897269
0.750567 0.750567 0.750567
0.762904 0.762904 0.762904
0.775035 0.775035 0.775035
0.787020 0.787020 0.787020
0.798902 0.798902 0.798902
0.810632 0.810632 0.810632
0.822334 0.822334 0.822334
0.833841 0.833841 0.833841
0.845387 0.845387 0.845387
0.856716 0.856716 0.856716
0.868043 0.868043 0.868043
0.879138 0.879138 0.879138
0.890290 0.890290 0.890290
0.901220 0.901220 0.901220
0.912126 0.912126 0.912126
0.922893 0.922893 0.922893
0.933634 0.933634 0.933634
0.791370 0.791370 0.791370
0.803177 0.803177 0.803177
0.814913 0.814913 0.814913
0.826543 0.826543 0.826543
0.838073 0.838073 0.838073
0.849533 0.849533 0.849533
0.860859 0.860859 0.860859
0.872110 0.872110 0.872110
0.883180 0.883180 0.883180
0.894299 0.894299 0.894299
0.905147 0.905147 0.905147
0.916076 0.916076 0.916076
0.926748 0.926748 0.926748
0.937534 0.937534 0.937534
0.947960 0.947960 0.947960
0.958536 0.958536 0.958536
0.968901 0.968901 0.968901
0.006000 0.006000 0.006000
0.006000 0.006000 0.006000
0.006000 0.006000 0.006000
0.011458 0.011458 0.011458
0.025287 0.025287 0.025287
0.039372 0.039372 0.039372
0.053657 0.053657 0.053657
0.068059 0.068059 0.068059
0.082107 0.082107 0.082107
0.095591 0.095591 0.095591
0.109115 0.109115 0.109115
0.123445 0.123445 0.123445
0.137575 0.137575 0.137575
0.151898 0.151898 0.151898
0.165967 0.165967 0.165967
