working/Infinite_Arch_Leica_Looks_v1.2/looks/zone/look.CUBE
#Created by: Infinite Arch Leica Looks v1.0
#Unique Leica Look ID: 1003
#Based Filmstyle Mode: Monochrome
TITLE "IA Zone"
LUT_3D_SIZE 9
DOMAIN_MIN 0.0 0.0 0.0
DOMAIN_MAX 1.0 1.0 1.0
0.006000 0.006000 0.006000
0.006000 0.006000 0.006000
0.011212 0.011212 0.011212
0.039107 0.039107 0.039107
0.067789 0.067789 0.067789
0.095340 0.095340 0.095340
0.123178 0.123178 0.123178
0.151631 0.151631 0.151631
0.180006 0.180006 0.180006
0.049460 0.049460 0.049460
0.078141 0.078141 0.078141
0.104936 0.104936 0.104936
0.133455 0.133455 0.133455
0.161909 0.161909 0.161909
0.190460 0.190460 0.190460
0.220615 0.220615 0.220615
0.253029 0.253029 0.253029
0.286643 0.286643 0.286643
0.143866 0.143866 0.143866
0.172219 0.172219 0.172219
0.201209 0.201209 0.201209
0.231912 0.231912 0.231912
0.265157 0.265157 0.265157
0.298890 0.298890 0.298890
0.332537 0.332537 0.332537
0.366153 0.366153 0.366153
0.400237 0.400237 0.400237
0.243994 0.243994 0.243994
0.277457 0.277457 0.277457
0.311183 0.311183 0.311183
0.344785 0.344785 0.344785
0.378378 0.378378 0.378378
0.412657 0.412657 0.412657
0.448079 0.448079 0.448079
0.484931 0.484931 0.484931
0.522632 0.522632 0.522632
0.357073 0.357073 0.357073
0.390950 0.390950 0.390950
0.425634 0.425634 0.425634
0.461570 0.461570 0.461570
0.498680 0.498680 0.498680
0.536202 0.536202 0.536202
0.572478 0.572478 0.572478
0.606453 0.606453 0.606453
0.638082 0.638082 0.638082
0.475005 0.475005 0.475005
0.512470 0.512470 0.512470
0.549670 0.549670 0.549670
0.585108 0.585108 0.585108
0.618219 0.618219 0.618219
0.649099 0.649099 0.649099
0.677980 0.677980 0.677980
0.705441 0.705441 0.705441
0.731632 0.731632 0.731632
0.597453 0.597453 0.597453
0.629695 0.629695 0.629695
0.659817 0.659817 0.659817
0.688153 0.688153 0.688153
0.715133 0.715133 0.715133
0.740932 0.740932 0.740932
0.765699 0.765699 0.765699
0.789755 0.789755 0.789755
0.813323 0.813323 0.813323
0.698117 0.698117 0.698117
0.724634 0.724634 0.724634
0.750030 0.750030 0.750030
0.774515 0.774515 0.774515
0.798392 0.798392 0.798392
0.821832 0.821832 0.821832
0.844892 0.844892 0.844892
0.867557 0.867557 0.867557
0.889810 0.889810 0.889810
0.783230 0.783230 0.783230
0.806925 0.806925 0.806925
0.830224 0.830224 0.830224
0.853165 0.853165 0.853165
0.875668 0.875668 0.875668
0.897802 0.897802 0.897802
0.919528 0.919528 0.919528
0.940921 0.940921 0.940921
0.961904 0.961904 0.961904
0.006000 0.006000 0.006000
0.006000 0.006000 0.006000
0.020503 0.020503 0.020503
0.048754 0.048754 0.048754
0.077472 0.077472 0.077472
0.104299 0.104299 0.104299
0.132768 0.132768 0.132768
0.161223 0.161223 0.161223
0.189756 0.189756 0.189756
0.059260 0.059260 0.059260
0.087380 0.087380 0.087380
0.114713 0.114713 0.114713
0.143165 0.143165 0.143165
0.171519 0.171519 0.171519
0.200459 0.200459 0.200459
0.231101 0.231101 0.231101
0.264341 0.264341 0.264341
0.298070 0.298070 0.298070
0.153554 0.153554 0.153554
0.181947 0.181947 0.181947
0.211582 0.211582 0.211582
0.243182 0.243182 0.243182
0.276630 0.276630 0.276630
0.310356 0.310356 0.310356
0.343957 0.343957 0.343957
0.377527 0.377527 0.377527
0.411780 0.411780 0.411780
0.255283 0.255283 0.255283
0.288928 0.288928 0.288928
0.322618 0.322618 0.322618
0.356251 0.356251 0.356251
0.390110 0.390110 0.390110
0.424766 0.424766 0.424766
0.460662 0.460662 0.460662
0.497746 0.497746 0.497746
0.535289 0.535289 0.535289
0.368398 0.368398 0.368398
0.402540 0.402540 0.402540
0.437647 0.437647 0.437647
0.474108 0.474108 0.474108
0.511550 0.511550 0.511550
0.548773 0.548773 0.548773
0.584268 0.584268 0.584268
0.617438 0.617438 0.617438
0.648368 0.648368 0.648368
0.487388 0.487388 0.487388
0.525147 0.525147 0.525147
0.561978 0.561978 0.561978
0.596634 0.596634 0.596634
0.628932 0.628932 0.628932
0.659106 0.659106 0.659106
0.687476 0.687476 0.687476
0.714487 0.714487 0.714487
0.740314 0.740314 0.740314
0.608664 0.608664 0.608664
0.640150 0.640150 0.640150
0.669569 0.669569 0.669569
0.697455 0.697455 0.697455
0.724003 0.724003 0.724003
0.749424 0.749424 0.749424
0.773926 0.773926 0.773926
0.797815 0.797815 0.797815
0.821263 0.821263 0.821263
0.707256 0.707256 0.707256
0.733381 0.733381 0.733381
0.758425 0.758425 0.758425
0.782640 0.782640 0.782640
0.806355 0.806355 0.806355
0.829665 0.829665 0.829665
0.852613 0.852613 0.852613
0.875127 0.875127 0.875127
0.897269 0.897269 0.897269
0.791370 0.791370 0.791370
0.814913 0.814913 0.814913
0.838073 0.838073 0.838073
0.860859 0.860859 0.860859
0.883180 0.883180 0.883180
0.905147 0.905147 0.905147
0.926748 0.926748 0.926748
0.947960 0.947960 0.947960
0.968901 0.968901 0.968901
0.006000 0.006000 0.006000
0.006000 0.006000 0.006000
0.030071 0.030071 0.030071
0.058555 0.058555 0.058555
0.086718 0.086718 0.086718
0.114010 0.114010 0.114010
0.142462 0.142462 0.142462
0.170818 0.170818 0.170818
0.199708 0.199708 0.199708
0.069032 0.069032 0.069032
0.096493 0.096493 0.096493
0.124406 0.124406 0.124406
0.152860 0.152860 0.152860
0.181246 0.181246 0.181246
0.210837 0.210837 0.210837
0.242370 0.242370 0.242370
0.275803 0.275803 0.275803
0.309529 0.309529 0.309529
0.163120 0.163120 0.163120
0.191706 0.191706 0.191706
0.221937 0.221937 0.221937
0.254469 0.254469 0.254469
0.288103 0.288103 0.288103
0.321797 0.321797 0.321797
0.355429 0.355429 0.355429
0.389270 0.389270 0.389270
0.423897 0.423897 0.423897
0.266610 0.266610 0.266610
0.300339 0.300339 0.300339
0.333981 0.333981 0.333981
0.367588 0.367588 0.367588
0.401709 0.401709 0.401709
0.436784 0.436784 0.436784
0.473209 0.473209 0.473209
0.510629 0.510629 0.510629
0.547875 0.547875 0.547875
0.379882 0.379882 0.379882
0.414206 0.414206 0.414206
0.449619 0.449619 0.449619
0.486502 0.486502 0.486502
0.524240 0.524240 0.524240
0.561101 0.561101 0.561101
0.595813 0.595813 0.595813
0.628169 0.628169 0.628169
0.658394 0.658394 0.658394
0.500331 0.500331 0.500331
0.537816 0.537816 0.537816
0.573993 0.573993 0.573993
0.607867 0.607867 0.607867
0.639403 0.639403 0.639403
0.668874 0.668874 0.668874
0.696791 0.696791 0.696791
0.723371 0.723371 0.723371
0.748816 0.748816 0.748816
0.619598 0.619598 0.619598
0.650388 0.650388 0.650388
0.679200 0.679200 0.679200
0.706601 0.706601 0.706601
0.732751 0.732751 0.732751
0.757820 0.757820 0.757820
0.782055 0.782055 0.782055
0.805784 0.805784 0.805784
0.829105 0.829105 0.829105
0.716274 0.716274 0.716274
0.742022 0.742022 0.742022
0.766753 0.766753 0.766753
0.790787 0.790787 0.790787
0.814339 0.814339 0.814339
0.837506 0.837506 0.837506
0.860302 0.860302 0.860302
0.882627 0.882627 0.882627
0.904621 0.904621 0.904621
0.799411 0.799411 0.799411
0.822836 0.822836 0.822836
0.845881 0.845881 0.845881
0.868528 0.868528 0.868528
0.890768 0.890768 0.890768
0.912597 0.912597 0.912597
0.934100 0.934100 0.934100
0.955121 0.955121 0.955121
0.975931 0.975931 0.975931
0.006000 0.006000 0.006000
0.011705 0.011705 0.011705
0.039637 0.039637 0.039637
0.068329 0.068329 0.068329
0.095842 0.095842 0.095842
0.123712 0.123712 0.123712
0.152166 0.152166 0.152166
0.180545 0.180545 0.180545
0.210091 0.210091 0.210091
0.078655 0.078655 0.078655
0.105447 0.105447 0.105447
0.133982 0.133982 0.133982
0.162436 0.162436 0.162436
0.191002 0.191002 0.191002
0.221190 0.221190 0.221190
0.253655 0.253655 0.253655
0.287278 0.287278 0.287278
0.320975 0.320975 0.320975
0.172758 0.172758 0.172758
0.201786 0.201786 0.201786
0.232536 0.232536 0.232536
0.265785 0.265785 0.265785
0.299520 0.299520 0.299520
0.333165 0.333165 0.333165
0.366777 0.366777 0.366777
0.400877 0.400877 0.400877
0.435921 0.435921 0.435921
0.278093 0.278093 0.278093
0.311818 0.311818 0.311818
0.345423 0.345423 0.345423
0.379032 0.379032 0.379032
0.413330 0.413330 0.413330
0.448740 0.448740 0.448740
0.485614 0.485614 0.485614
0.523331 0.523331 0.523331
0.560222 0.560222 0.560222
0.391595 0.391595 0.391595
0.426302 0.426302 0.426302
0.462268 0.462268 0.462268
0.499398 0.499398 0.499398
0.536905 0.536905 0.536905
0.573137 0.573137 0.573137
0.607068 0.607068 0.607068
0.638656 0.638656 0.638656
0.668178 0.668178 0.668178
0.513176 0.513176 0.513176
0.550358 0.550358 0.550358
0.585754 0.585754 0.585754
0.618819 0.618819 0.618819
0.649660 0.649660 0.649660
0.678511 0.678511 0.678511
0.705945 0.705945 0.705945
0.732119 0.732119 0.732119
0.757215 0.757215 0.757215
0.630280 0.630280 0.630280
0.660363 0.660363 0.660363
0.688673 0.688673 0.688673
0.715629 0.715629 0.715629
0.741406 0.741406 0.741406
0.766157 0.766157 0.766157
0.790204 0.790204 0.790204
0.813765 0.813765 0.813765
0.836939 0.836939 0.836939
0.725119 0.725119 0.725119
0.750497 0.750497 0.750497
0.774967 0.774967 0.774967
0.798835 0.798835 0.798835
0.822269 0.822269 0.822269
0.845322 0.845322 0.845322
0.867979 0.867979 0.867979
0.890227 0.890227 0.890227
0.912064 0.912064 0.912064
0.807363 0.807363 0.807363
0.830654 0.830654 0.830654
0.853590 0.853590 0.853590
0.876083 0.876083 0.876083
0.898211 0.898211 0.898211
0.919931 0.919931 0.919931
0.941316 0.941316 0.941316
0.962296 0.962296 0.962296
0.983185 0.983185 0.983185
0.006000 0.006000 0.006000
0.021033 0.021033 0.021033
0.049297 0.049297 0.049297
0.077987 0.077987 0.077987
0.104789 0.104789 0.104789
0.133296 0.133296 0.133296
0.161751 0.161751 0.161751
0.190297 0.190297 0.190297
0.220443 0.220443 0.220443
0.087889 0.087889 0.087889
0.115253 0.115253 0.115253
0.143704 0.143704 0.143704
0.172058 0.172058 0.172058
0.201036 0.201036 0.201036
0.231725 0.231725 0.231725
0.264969 0.264969 0.264969
0.298701 0.298701 0.298701
0.332349 0.332349 0.332349
0.182487 0.182487 0.182487
0.212155 0.212155 0.212155
0.243807 0.243807 0.243807
0.277266 0.277266 0.277266
0.310992 0.310992 0.310992
0.344594 0.344594 0.344594
0.378182 0.378182 0.378182
0.412455 0.412455 0.412455
0.447880 0.447880 0.447880
0.289562 0.289562 0.289562
0.323249 0.323249 0.323249
0.356883 0.356883 0.356883
0.390756 0.390756 0.390756
0.425434 0.425434 0.425434
0.461360 0.461360 0.461360
0.498465 0.498465 0.498465
0.535992 0.535992 0.535992
0.572281 0.572281 0.572281
0.403179 0.403179 0.403179
0.438311 0.438311 0.438311
0.474798 0.474798 0.474798
0.512258 0.512258 0.512258
0.549463 0.549463 0.549463
0.584915 0.584915 0.584915
0.618039 0.618039 0.618039
0.648931 0.648931 0.648931
0.677821 0.677821 0.677821
0.525845 0.525845 0.525845
0.562652 0.562652 0.562652
0.597265 0.597265 0.597265
0.629519 0.629519 0.629519
0.659653 0.659653 0.659653
0.687997 0.687997 0.687997
0.714984 0.714984 0.714984
0.740789 0.740789 0.740789
0.765561 0.765561 0.765561
0.640725 0.640725 0.640725
0.670103 0.670103 0.670103
0.697965 0.697965 0.697965
0.724489 0.724489 0.724489
0.749890 0.749890 0.749890
0.774379 0.774379 0.774379
0.798259 0.798259 0.798259
0.821701 0.821701 0.821701
0.844763 0.844763 0.844763
0.733866 0.733866 0.733866
0.758890 0.758890 0.758890
0.783094 0.783094 0.783094
0.806793 0.806793 0.806793
0.830095 0.830095 0.830095
0.853038 0.853038 0.853038
0.875543 0.875543 0.875543
0.897679 0.897679 0.897679
0.919407 0.919407 0.919407
0.815354 0.815354 0.815354
0.838509 0.838509 0.838509
0.861287 0.861287 0.861287
0.883605 0.883605 0.883605
0.905562 0.905562 0.905562
0.927144 0.927144 0.927144
0.948345 0.948345 0.948345
0.969284 0.969284 0.969284
0.990296 0.990296 0.990296
0.006000 0.006000 0.006000
0.030601 0.030601 0.030601
0.059098 0.059098 0.059098
0.087227 0.087227 0.087227
0.114551 0.114551 0.114551
0.143003 0.143003 0.143003
0.171357 0.171357 0.171357
0.200285 0.200285 0.200285
0.230914 0.230914 0.230914
0.096993 0.096993 0.096993
0.124940 0.124940 0.124940
0.153394 0.153394 0.153394
0.181785 0.181785 0.181785
0.211410 0.211410 0.211410
0.242995 0.242995 0.242995
0.276439 0.276439 0.276439
0.310165 0.310165 0.310165
0.343765 0.343765 0.343765
0.192249 0.192249 0.192249
0.222512 0.222512 0.222512
0.255095 0.255095 0.255095
0.288737 0.288737 0.288737
0.322429 0.322429 0.322429
0.356061 0.356061 0.356061
0.389916 0.389916 0.389916
0.424565 0.424565 0.424565
0.460452 0.460452 0.460452
0.300969 0.300969 0.300969
0.334609 0.334609 0.334609
0.368211 0.368211 0.368211
0.402348 0.402348 0.402348
0.437448 0.437448 0.437448
0.473900 0.473900 0.473900
0.511338 0.511338 0.511338
0.548566 0.548566 0.548566
0.584074 0.584074 0.584074
0.414879 0.414879 0.414879
0.450322 0.450322 0.450322
0.487184 0.487184 0.487184
0.524938 0.524938 0.524938
0.561776 0.561776 0.561776
0.596445 0.596445 0.596445
0.628756 0.628756 0.628756
0.658942 0.658942 0.658942
0.687319 0.687319 0.687319
0.538517 0.538517 0.538517
0.574650 0.574650 0.574650
0.608480 0.608480 0.608480
0.639978 0.639978 0.639978
0.669409 0.669409 0.669409
0.697302 0.697302 0.697302
0.723857 0.723857 0.723857
0.749283 0.749283 0.749283
0.773790 0.773790 0.773790
0.650948 0.650948 0.650948
0.679729 0.679729 0.679729
0.707105 0.707105 0.707105
0.733236 0.733236 0.733236
0.758285 0.758285 0.758285
0.782504 0.782504 0.782504
0.806223 0.806223 0.806223
0.829536 0.829536 0.829536
0.852485 0.852485 0.852485
0.742495 0.742495 0.742495
0.767211 0.767211 0.767211
0.791236 0.791236 0.791236
0.814781 0.814781 0.814781
0.837942 0.837942 0.837942
0.860731 0.860731 0.860731
0.883052 0.883052 0.883052
0.905026 0.905026 0.905026
0.926629 0.926629 0.926629
0.823272 0.823272 0.823272
0.846310 0.846310 0.846310
0.868949 0.868949 0.868949
0.891184 0.891184 0.891184
0.913006 0.913006 0.913006
0.934506 0.934506 0.934506
0.955524 0.955524 0.955524
0.976337 0.976337 0.976337
0.997524 0.997524 0.997524
0.012199 0.012199 0.012199
0.040167 0.040167 0.040167
0.068869 0.068869 0.068869
0.096342 0.096342 0.096342
0.124246 0.124246 0.124246
0.152700 0.152700 0.152700
0.181084 0.181084 0.181084
0.210665 0.210665 0.210665
0.242183 0.242183 0.242183
0.105994 0.105994 0.105994
0.134509 0.134509 0.134509
0.162962 0.162962 0.162962
0.191544 0.191544 0.191544
0.221765 0.221765 0.221765
0.254281 0.254281 0.254281
0.287913 0.287913 0.287913
0.321607 0.321607 0.321607
0.355239 0.355239 0.355239
0.202363 0.202363 0.202363
0.233161 0.233161 0.233161
0.266419 0.266419 0.266419
0.300150 0.300150 0.300150
0.333793 0.333793 0.333793
0.367401 0.367401 0.367401
0.401517 0.401517 0.401517
0.436585 0.436585 0.436585
0.473002 0.473002 0.473002
0.312453 0.312453 0.312453
0.346060 0.346060 0.346060
0.379686 0.379686 0.379686
0.414004 0.414004 0.414004
0.449408 0.449408 0.449408
0.486297 0.486297 0.486297
0.524030 0.524030 0.524030
0.560898 0.560898 0.560898
0.595624 0.595624 0.595624
0.426969 0.426969 0.426969
0.462965 0.462965 0.462965
0.500116 0.500116 0.500116
0.537606 0.537606 0.537606
0.573795 0.573795 0.573795
0.607683 0.607683 0.607683
0.639230 0.639230 0.639230
0.668714 0.668714 0.668714
0.696638 0.696638 0.696638
0.551046 0.551046 0.551046
0.586398 0.586398 0.586398
0.619418 0.619418 0.619418
0.650221 0.650221 0.650221
0.679041 0.679041 0.679041
0.706450 0.706450 0.706450
0.732605 0.732605 0.732605
0.757681 0.757681 0.757681
0.781920 0.781920 0.781920
0.660909 0.660909 0.660909
0.689193 0.689193 0.689193
0.716125 0.716125 0.716125
0.741880 0.741880 0.741880
0.766616 0.766616 0.766616
0.790653 0.790653 0.790653
0.814207 0.814207 0.814207
0.837376 0.837376 0.837376
0.860174 0.860174 0.860174
0.750963 0.750963 0.750963
0.775419 0.775419 0.775419
0.799278 0.799278 0.799278
0.822705 0.822705 0.822705
0.845752 0.845752 0.845752
0.868401 0.868401 0.868401
0.890643 0.890643 0.890643
0.912474 0.912474 0.912474
0.933979 0.933979 0.933979
0.831084 0.831084 0.831084
0.854015 0.854015 0.854015
0.876499 0.876499 0.876499
0.898620 0.898620 0.898620
0.920334 0.920334 0.920334
0.941710 0.941710 0.941710
0.962688 0.962688 0.962688
0.983582 0.983582 0.983582
1.000000 1.000000 1.000000
0.021563 0.021563 0.021563
0.049840 0.049840 0.049840
0.078501 0.078501 0.078501
0.105283 0.105283 0.105283
0.133824 0.133824 0.133824
0.162278 0.162278 0.162278
0.190839 0.190839 0.190839
0.221017 0.221017 0.221017
0.253467 0.253467 0.253467
0.115793 0.115793 0.115793
0.144244 0.144244 0.144244
0.172596 0.172596 0.172596
0.201613 0.201613 0.201613
0.232349 0.232349 0.232349
0.265597 0.265597 0.265597
0.299331 0.299331 0.299331
0.332977 0.332977 0.332977
0.366590 0.366590 0.366590
0.212729 0.212729 0.212729
0.244432 0.244432 0.244432
0.277903 0.277903 0.277903
0.311628 0.311628 0.311628
0.345232 0.345232 0.345232
0.378836 0.378836 0.378836
0.413128 0.413128 0.413128
0.448542 0.448542 0.448542
0.485409 0.485409 0.485409
0.323880 0.323880 0.323880
0.357515 0.357515 0.357515
0.391401 0.391401 0.391401
0.426102 0.426102 0.426102
0.462058 0.462058 0.462058
0.499183 0.499183 0.499183
0.536694 0.536694 0.536694
0.572940 0.572940 0.572940
0.606884 0.606884 0.606884
0.438974 0.438974 0.438974
0.475488 0.475488 0.475488
0.512964 0.512964 0.512964
0.550152 0.550152 0.550152
0.585560 0.585560 0.585560
0.618639 0.618639 0.618639
0.649492 0.649492 0.649492
0.678352 0.678352 0.678352
0.705794 0.705794 0.705794
0.563325 0.563325 0.563325
0.597894 0.597894 0.597894
0.630104 0.630104 0.630104
0.660200 0.660200 0.660200
0.688517 0.688517 0.688517
0.715481 0.715481 0.715481
0.741264 0.741264 0.741264
0.766020 0.766020 0.766020
0.790069 0.790069 0.790069
0.670636 0.670636 0.670636
0.698474 0.698474 0.698474
0.724974 0.724974 0.724974
0.750357 0.750357 0.750357
0.774832 0.774832 0.774832
0.798702 0.798702 0.798702
0.822138 0.822138 0.822138
0.845193 0.845193 0.845193
0.867853 0.867853 0.867853
0.759354 0.759354 0.759354
0.783548 0.783548 0.783548
0.807232 0.807232 0.807232
0.830525 0.830525 0.830525
0.853463 0.853463 0.853463
0.875959 0.875959 0.875959
0.898088 0.898088 0.898088
0.919810 0.919810 0.919810
0.941197 0.941197 0.941197
0.838944 0.838944 0.838944
0.861714 0.861714 0.861714
0.884029 0.884029 0.884029
0.905978 0.905978 0.905978
0.927540 0.927540 0.927540
0.948730 0.948730 0.948730
0.969666 0.969666 0.969666
0.990686 0.990686 0.990686
1.000000 1.000000 1.000000
0.031131 0.031131 0.031131
0.059640 0.059640 0.059640
0.087736 0.087736 0.087736
0.115091 0.115091 0.115091
0.143543 0.143543 0.143543
0.171896 0.171896 0.171896
0.200863 0.200863 0.200863
0.231538 0.231538 0.231538
0.264781 0.264781 0.264781
0.125473 0.125473 0.125473
0.153928 0.153928 0.153928
0.182325 0.182325 0.182325
0.211983 0.211983 0.211983
0.243620 0.243620 0.243620
0.277075 0.277075 0.277075
0.310801 0.310801 0.310801
0.344403 0.344403 0.344403
0.377985 0.377985 0.377985
0.223088 0.223088 0.223088
0.255721 0.255721 0.255721
0.289372 0.289372 0.289372
0.323060 0.323060 0.323060
0.356693 0.356693 0.356693
0.390562 0.390562 0.390562
0.425233 0.425233 0.425233
0.461151 0.461151 0.461151
0.498249 0.498249 0.498249
0.335236 0.335236 0.335236
0.368834 0.368834 0.368834
0.402987 0.402987 0.402987
0.438112 0.438112 0.438112
0.474591 0.474591 0.474591
0.512045 0.512045 0.512045
0.549256 0.549256 0.549256
0.584721 0.584721 0.584721
0.617858 0.617858 0.617858
0.451025 0.451025 0.451025
0.487865 0.487865 0.487865
0.525636 0.525636 0.525636
0.562450 0.562450 0.562450
0.597076 0.597076 0.597076
0.629343 0.629343 0.629343
0.659489 0.659489 0.659489
0.687841 0.687841 0.687841
0.714835 0.714835 0.714835
0.575307 0.575307 0.575307
0.609093 0.609093 0.609093
0.640553 0.640553 0.640553
0.669943 0.669943 0.669943
0.697812 0.697812 0.697812
0.724343 0.724343 0.724343
0.749750 0.749750 0.749750
0.774243 0.774243 0.774243
0.798125 0.798125 0.798125
0.680258 0.680258 0.680258
0.707608 0.707608 0.707608
0.733720 0.733720 0.733720
0.758750 0.758750 0.758750
0.782958 0.782958 0.782958
0.806662 0.806662 0.806662
0.829966 0.829966 0.829966
0.852910 0.852910 0.852910
0.875418 0.875418 0.875418
0.767669 0.767669 0.767669
0.791684 0.791684 0.791684
0.815222 0.815222 0.815222
0.838378 0.838378 0.838378
0.861159 0.861159 0.861159
0.883478 0.883478 0.883478
0.905437 0.905437 0.905437
0.927025 0.927025 0.927025
0.948229 0.948229 0.948229
0.846740 0.846740 0.846740
0.869371 0.869371 0.869371
0.891599 0.891599 0.891599
0.913415 0.913415 0.913415
0.934910 0.934910 0.934910
0.955926 0.955926 0.955926
0.976742 0.976742 0.976742
0.997991 0.997991 0.997991
1.000000 1.000000 1.000000
