working/Infinite_Arch_Leica_Looks_v1.2/looks/zone/look.CUBE
#Created by: Infinite Arch Leica Looks v1.0
#Unique Leica Look ID: 1003
#Based Filmstyle Mode: Monochrome
TITLE "IA Zone"
LUT_3D_SIZE 5
DOMAIN_MIN 0.0 0.0 0.0
DOMAIN_MAX 1.0 1.0 1.0
0.006000 0.006000 0.006000
0.011212 0.011212 0.011212
0.067789 0.067789 0.067789
0.123178 0.123178 0.123178
0.180006 0.180006 0.180006
0.143866 0.143866 0.143866
0.201209 0.201209 0.201209
0.265157 0.265157 0.265157
0.332537 0.332537 0.332537
0.400237 0.400237 0.400237
0.357073 0.357073 0.357073
0.425634 0.425634 0.425634
0.498680 0.498680 0.498680
0.572478 0.572478 0.572478
0.638082 0.638082 0.638082
0.597453 0.597453 0.597453
0.659817 0.659817 0.659817
0.715133 0.715133 0.715133
0.765699 0.765699 0.765699
0.813323 0.813323 0.813323
0.783230 0.783230 0.783230
0.830224 0.830224 0.830224
0.875668 0.875668 0.875668
0.919528 0.919528 0.919528
0.961904 0.961904 0.961904
0.006000 0.006000 0.006000
0.030071 0.030071 0.030071
0.086718 0.086718 0.086718
0.142462 0.142462 0.142462
0.199708 0.199708 0.199708
0.163120 0.163120 0.163120
0.221937 0.221937 0.221937
0.288103 0.288103 0.288103
0.355429 0.355429 0.355429
0.423897 0.423897 0.423897
0.379882 0.379882 0.379882
0.449619 0.449619 0.449619
0.524240 0.524240 0.524240
0.595813 0.595813 0.595813
0.658394 0.658394 0.658394
0.619598 0.619598 0.619598
0.679200 0.679200 0.679200
0.732751 0.732751 0.732751
0.782055 0.782055 0.782055
0.829105 0.829105 0.829105
0.799411 0.799411 0.799411
0.845881 0.845881 0.845881
0.890768 0.890768 0.890768
0.934100 0.934100 0.934100
0.975931 0.975931 0.975931
0.006000 0.006000 0.006000
0.049297 0.049297 0.049297
0.104789 0.104789 0.104789
0.161751 0.161751 0.161751
0.220443 0.220443 0.220443
0.182487 0.182487 0.182487
0.243807 0.243807 0.243807
0.310992 0.310992 0.310992
0.378182 0.378182 0.378182
0.447880 0.447880 0.447880
0.403179 0.403179 0.403179
0.474798 0.474798 0.474798
0.549463 0.549463 0.549463
0.618039 0.618039 0.618039
0.677821 0.677821 0.677821
0.640725 0.640725 0.640725
0.697965 0.697965 0.697965
0.749890 0.749890 0.749890
0.798259 0.798259 0.798259
0.844763 0.844763 0.844763
0.815354 0.815354 0.815354
0.861287 0.861287 0.861287
0.905562 0.905562 0.905562
0.948345 0.948345 0.948345
0.990296 0.990296 0.990296
0.012199 0.012199 0.012199
0.068869 0.068869 0.068869
0.124246 0.124246 0.124246
0.181084 0.181084 0.181084
0.242183 0.242183 0.242183
0.202363 0.202363 0.202363
0.266419 0.266419 0.266419
0.333793 0.333793 0.333793
0.401517 0.401517 0.401517
0.473002 0.473002 0.473002
0.426969 0.426969 0.426969
0.500116 0.500116 0.500116
0.573795 0.573795 0.573795
0.639230 0.639230 0.639230
0.696638 0.696638 0.696638
0.660909 0.660909 0.660909
0.716125 0.716125 0.716125
0.766616 0.766616 0.766616
0.814207 0.814207 0.814207
0.860174 0.860174 0.860174
0.831084 0.831084 0.831084
0.876499 0.876499 0.876499
0.920334 0.920334 0.920334
0.962688 0.962688 0.962688
1.000000 1.000000 1.000000
0.031131 0.031131 0.031131
0.087736 0.087736 0.087736
0.143543 0.143543 0.143543
0.200863 0.200863 0.200863
0.264781 0.264781 0.264781
0.223088 0.223088 0.223088
0.289372 0.289372 0.289372
0.356693 0.356693 0.356693
0.425233 0.425233 0.425233
0.498249 0.498249 0.498249
0.451025 0.451025 0.451025
0.525636 0.525636 0.525636
0.597076 0.597076 0.597076
0.659489 0.659489 0.659489
0.714835 0.714835 0.714835
0.680258 0.680258 0.680258
0.733720 0.733720 0.733720
0.782958 0.782958 0.782958
0.829966 0.829966 0.829966
0.875418 0.875418 0.875418
0.846740 0.846740 0.846740
0.891599 0.891599 0.891599
0.934910 0.934910 0.934910
0.976742 0.976742 0.976742
1.000000 1.000000 1.000000
