source/confirmed_python/official_bleach/Bleach.CUBE
#Created by: Leica Camera AG | Wetzlar | Germany
#Unique Leica Look ID: 22
#Based Filmstyle Mode: Standard
TITLE "Bleach"
# 75% of orignal smoothed version
#LUT size
LUT_3D_SIZE 9
#data domain
DOMAIN_MIN 0.0 0.0 0.0
DOMAIN_MAX 1.0 1.0 1.0
#LUT data points
0.078217 0.097321 0.108337
0.138550 0.105072 0.112976
0.203064 0.113708 0.118347
0.271057 0.122833 0.124481
0.341949 0.132080 0.131287
0.413300 0.140198 0.138763
0.485077 0.148285 0.146973
0.557709 0.156799 0.156067
0.631531 0.166229 0.166107
0.093292 0.179840 0.124268
0.192474 0.198425 0.133972
0.261902 0.208191 0.141235
0.335388 0.218872 0.149689
0.412262 0.230103 0.159271
0.491516 0.242065 0.170929
0.567780 0.253174 0.181854
0.643921 0.264160 0.193176
0.720367 0.275574 0.204956
0.107727 0.268188 0.142120
0.208649 0.290070 0.151794
0.314270 0.307434 0.163940
0.392395 0.319641 0.174530
0.474426 0.332825 0.186676
0.559052 0.348389 0.201965
0.642975 0.365570 0.218018
0.723663 0.380493 0.232330
0.803711 0.395264 0.246643
0.120972 0.361572 0.161835
0.222534 0.386353 0.171356
0.331726 0.406769 0.183838
0.441711 0.423065 0.198853
0.528076 0.438171 0.213409
0.616638 0.456635 0.231995
0.704590 0.477692 0.252106
0.791992 0.500366 0.272308
0.876648 0.519958 0.289948
0.132355 0.459137 0.183563
0.233521 0.486481 0.192688
0.345184 0.509552 0.205322
0.460541 0.528656 0.221008
0.572845 0.544067 0.239227
0.663940 0.564789 0.260834
0.754486 0.589050 0.284698
0.844543 0.615845 0.309418
0.934204 0.644226 0.333588
0.148102 0.558014 0.206024
0.234406 0.581696 0.214783
0.351227 0.607239 0.228516
0.473694 0.628601 0.245514
0.594940 0.646179 0.265259
0.696930 0.661865 0.288757
0.786774 0.686981 0.316193
0.876068 0.715546 0.345245
0.964905 0.746643 0.374481
0.183746 0.656952 0.227417
0.240723 0.671356 0.236755
0.347595 0.694031 0.252136
0.477783 0.717834 0.271118
0.608704 0.737671 0.293060
0.719879 0.754913 0.318268
0.808899 0.770660 0.347137
0.896271 0.799255 0.380035
0.983093 0.831329 0.413910
0.243378 0.755890 0.247620
0.268158 0.760590 0.257507
0.346649 0.774414 0.274200
0.471283 0.796173 0.296783
0.612549 0.818390 0.321655
0.734161 0.837555 0.349518
0.831726 0.854675 0.379944
0.908691 0.870117 0.414062
0.992340 0.901367 0.452087
0.330933 0.854889 0.266541
0.320709 0.849396 0.276978
0.367981 0.853943 0.294952
0.465210 0.867249 0.319550
0.604828 0.888184 0.349976
0.738037 0.909607 0.381439
0.845367 0.928467 0.414337
0.930237 0.945129 0.449890
0.996124 0.959839 0.489319
0.080841 0.099915 0.154205
0.147797 0.105316 0.171021
0.213409 0.113525 0.177460
0.284027 0.122589 0.185486
0.359039 0.132019 0.195007
0.443054 0.142090 0.209839
0.526672 0.152161 0.224976
0.609650 0.162476 0.240112
0.692413 0.173553 0.255310
0.089294 0.180969 0.207825
0.183228 0.201416 0.216217
0.254883 0.209778 0.221313
0.331085 0.219299 0.227539
0.411255 0.229614 0.234802
0.497681 0.245209 0.247345
0.580902 0.263306 0.263214
0.663788 0.281311 0.279846
0.746674 0.299744 0.297394
0.103882 0.270966 0.227814
0.200378 0.295258 0.238068
0.307892 0.311707 0.246918
0.388367 0.322418 0.254791
0.473297 0.334320 0.264160
0.563293 0.351898 0.278259
0.651459 0.373962 0.296722
0.737732 0.395264 0.315552
0.823120 0.416443 0.334808
0.116638 0.366302 0.249329
0.215820 0.393951 0.260925
0.326843 0.413574 0.270416
0.438293 0.428558 0.281647
0.527191 0.442047 0.292908
0.619476 0.460938 0.308289
0.710236 0.485260 0.329010
0.800537 0.511963 0.351135
0.889404 0.537354 0.372864
0.127045 0.466125 0.272369
0.228912 0.496613 0.284790
0.342438 0.519073 0.294708
0.459229 0.536987 0.306915
0.572540 0.550690 0.320953
0.665924 0.570221 0.337250
0.757874 0.596130 0.359924
0.849396 0.625397 0.384766
0.940643 0.657043 0.410339
0.131409 0.565186 0.293243
0.235168 0.594147 0.303040
0.353210 0.619171 0.314911
0.476501 0.639648 0.329346
0.598267 0.655884 0.345825
0.698761 0.668701 0.363770
0.788696 0.693390 0.387512
0.878021 0.722137 0.414032
0.966797 0.754028 0.441956
0.143036 0.659424 0.311340
0.246979 0.684021 0.317963
0.353516 0.705963 0.332092
0.483765 0.728912 0.349030
0.614380 0.747467 0.368256
0.723419 0.762207 0.388885
0.810455 0.776611 0.414948
0.897552 0.804749 0.444519
0.984009 0.836945 0.476227
0.175751 0.752899 0.328247
0.279388 0.773071 0.332123
0.356995 0.786072 0.347626
0.480133 0.806763 0.368744
0.620300 0.827789 0.391357
0.738892 0.844727 0.415466
0.834381 0.860626 0.443451
0.909729 0.875092 0.475525
0.992706 0.905853 0.510620
0.233673 0.845642 0.343750
0.336426 0.861328 0.345398
0.382263 0.864960 0.362305
0.477417 0.877136 0.385498
0.614380 0.896667 0.414124
0.743591 0.916077 0.442535
0.848694 0.933838 0.473328
0.931824 0.949677 0.507172
0.996399 0.963837 0.545319
0.084167 0.103394 0.202393
0.149292 0.108521 0.219727
0.223907 0.113800 0.239288
0.295868 0.122345 0.248718
0.373718 0.131561 0.260498
0.462860 0.141144 0.279663
0.561249 0.151764 0.304993
0.657104 0.163452 0.328278
0.751282 0.175720 0.350769
0.092682 0.182251 0.257172
0.183807 0.203735 0.269653
0.264557 0.208557 0.288361
0.342102 0.217499 0.295807
0.425079 0.227448 0.305145
0.515808 0.242493 0.320709
0.611328 0.261841 0.344299
0.705841 0.281616 0.368134
0.798950 0.301605 0.391998
0.100159 0.272827 0.314911
0.191925 0.297668 0.326416
0.300201 0.316589 0.332733
0.382660 0.325745 0.338470
0.470093 0.336395 0.345642
0.562561 0.352966 0.357849
0.656952 0.379486 0.377930
0.749817 0.408295 0.402069
0.841492 0.437042 0.426971
0.113068 0.369598 0.338440
0.207703 0.397766 0.351379
0.320129 0.420288 0.359650
0.433075 0.434235 0.367798
0.524078 0.446106 0.376373
0.618561 0.463684 0.389343
0.713867 0.490723 0.409546
0.808044 0.522644 0.434326
0.902130 0.554932 0.460938
0.123016 0.471161 0.363098
0.220612 0.502136 0.376953
0.337250 0.527740 0.386658
0.455505 0.544861 0.396057
0.569855 0.557159 0.406525
0.665100 0.575012 0.419891
0.760071 0.601868 0.439941
0.854126 0.634766 0.465637
0.947937 0.670807 0.493347
0.126190 0.572021 0.385651
0.226959 0.601746 0.397125
0.350586 0.629700 0.408142
0.475220 0.649414 0.419891
0.597870 0.664337 0.433014
0.698181 0.675262 0.446869
0.789978 0.699066 0.465698
0.880524 0.729706 0.491180
0.970642 0.764221 0.519379
0.125916 0.666107 0.403229
0.229340 0.692566 0.411652
0.358154 0.718719 0.420563
0.488647 0.740967 0.435608
0.619171 0.758423 0.452240
0.726807 0.771454 0.469330
0.811584 0.782959 0.489227
0.898712 0.810822 0.515167
0.985107 0.843353 0.544495
0.134369 0.754822 0.417267
0.238495 0.777496 0.422943
0.368195 0.799133 0.428802
0.489716 0.818848 0.448517
0.628998 0.838837 0.469086
0.744965 0.854004 0.490021
0.837250 0.867401 0.512665
0.910553 0.880615 0.541779
0.993225 0.911041 0.573608
0.165161 0.841980 0.429932
0.269440 0.860779 0.433289
0.399506 0.877930 0.436584
0.492523 0.889069 0.458466
0.626648 0.907288 0.485413
0.752014 0.924896 0.511078
0.852936 0.940399 0.537323
0.933868 0.955109 0.568481
0.996735 0.968445 0.604340
0.088043 0.107758 0.252533
0.150940 0.112518 0.270355
0.223969 0.117432 0.290375
0.307983 0.122131 0.314056
0.387360 0.130768 0.327606
0.480011 0.139465 0.350281
0.584015 0.148712 0.380859
0.696655 0.159332 0.416962
0.804749 0.172333 0.448822
0.096252 0.182495 0.306427
0.183258 0.204559 0.323547
0.261871 0.208862 0.342773
0.351990 0.212830 0.365295
0.436523 0.222076 0.376251
0.530334 0.236084 0.394257
0.630829 0.254211 0.422089
0.739655 0.273682 0.456329
0.845459 0.294800 0.488586
0.103790 0.270355 0.365387
0.191345 0.296143 0.381622
0.297028 0.315979 0.391907
0.392181 0.320282 0.413116
0.481171 0.330048 0.421722
0.576569 0.345703 0.436127
0.674927 0.371399 0.458923
0.779449 0.400940 0.490814
0.882629 0.431213 0.523193
0.109406 0.371521 0.427368
0.199127 0.400757 0.441437
0.307343 0.423950 0.450836
0.427155 0.440796 0.455109
0.519928 0.450928 0.461639
0.616119 0.467255 0.472809
0.713440 0.493805 0.491455
0.813080 0.531342 0.518524
0.913330 0.571625 0.550751
0.119446 0.474274 0.453949
0.212402 0.506317 0.469025
0.325012 0.532562 0.479889
0.450562 0.552765 0.486237
0.565979 0.564026 0.493805
0.662659 0.580292 0.504913
0.759369 0.606354 0.522827
0.857269 0.642914 0.548615
0.954620 0.684509 0.579254
0.122009 0.576752 0.478241
0.219330 0.607513 0.491272
0.339264 0.635986 0.503448
0.472107 0.658539 0.511475
0.595673 0.672485 0.521881
0.695862 0.681885 0.532379
0.789185 0.704468 0.548553
0.882324 0.736694 0.571808
0.974762 0.775055 0.601013
0.120270 0.672974 0.497894
0.221680 0.700470 0.508118
0.348511 0.727417 0.518402
0.488708 0.751678 0.527832
0.620026 0.768250 0.541901
0.727051 0.779724 0.555725
0.810913 0.789398 0.571167
0.899567 0.816895 0.592590
0.987091 0.851471 0.621033
0.116333 0.761566 0.512421
0.221039 0.786163 0.520111
0.351776 0.809753 0.527435
0.498901 0.831818 0.535187
0.637512 0.850891 0.553802
0.751068 0.864502 0.571899
0.840942 0.876099 0.590576
0.911255 0.886627 0.612671
0.993866 0.916870 0.640991
0.122650 0.843872 0.522705
0.228485 0.865173 0.528015
0.360626 0.884857 0.532745
0.509399 0.902435 0.537567
0.640625 0.919434 0.562988
0.762299 0.935486 0.586151
0.859528 0.949158 0.608795
0.936432 0.961426 0.633789
0.997162 0.973633 0.666351
0.092407 0.113007 0.304260
0.152618 0.117279 0.322449
0.223602 0.121735 0.342926
0.306213 0.125946 0.367035
0.401367 0.129608 0.396179
0.495850 0.137054 0.421387
0.603851 0.144562 0.456360
0.722595 0.152954 0.498688
0.849335 0.163025 0.545837
0.100006 0.181641 0.355164
0.181427 0.203796 0.377502
0.257507 0.207489 0.397217
0.345734 0.210846 0.420227
0.446930 0.213470 0.447937
0.542572 0.225983 0.467865
0.646454 0.242523 0.499054
0.760773 0.259918 0.538391
0.882782 0.278961 0.583557
0.107178 0.264862 0.413300
0.189117 0.291107 0.434845
0.290833 0.311340 0.449615
0.383575 0.314941 0.471375
0.489807 0.317657 0.497528
0.586975 0.331909 0.513550
0.688049 0.356323 0.538513
0.797455 0.383942 0.574524
0.914246 0.413177 0.617157
0.112762 0.362793 0.476562
0.196838 0.392883 0.496063
0.301056 0.416840 0.510071
0.418488 0.434448 0.518158
0.528656 0.438354 0.542572
0.626465 0.453339 0.555084
0.726440 0.478729 0.575623
0.829681 0.515137 0.605133
0.940735 0.555847 0.644836
0.115540 0.475525 0.543030
0.203369 0.509216 0.559143
0.311646 0.536621 0.571045
0.433533 0.557617 0.578308
0.562134 0.571869 0.580658
0.659760 0.586578 0.590057
0.757751 0.611908 0.606537
0.857239 0.648560 0.631073
0.959320 0.697113 0.664612
0.118103 0.579407 0.569214
0.211487 0.611481 0.583588
0.327301 0.641083 0.596771
0.456757 0.664307 0.605774
0.592957 0.680908 0.610229
0.692932 0.689117 0.618134
0.787354 0.710571 0.632294
0.881897 0.742432 0.653778
0.977722 0.785431 0.683502
0.115540 0.677551 0.591034
0.214417 0.706329 0.602875
0.338776 0.734344 0.614380
0.475861 0.759247 0.624756
0.619690 0.777618 0.631012
0.726105 0.787964 0.642303
0.809082 0.796051 0.654053
0.898926 0.822815 0.673126
0.988739 0.859894 0.699707
0.109833 0.768677 0.608002
0.213440 0.794464 0.617554
0.343170 0.819122 0.626373
0.489349 0.842072 0.635193
0.640930 0.861633 0.642944
0.753418 0.874115 0.658508
0.841949 0.884155 0.673584
0.910645 0.892792 0.690948
0.994598 0.923492 0.715057
0.103149 0.851227 0.619751
0.210632 0.874451 0.627258
0.344910 0.896118 0.633636
0.496307 0.915619 0.639587
0.655151 0.932526 0.645874
0.773376 0.947174 0.666779
0.867096 0.959198 0.686096
0.940521 0.969604 0.706635
0.997711 0.979370 0.731323
0.096710 0.118896 0.355652
0.153198 0.122559 0.374359
0.222717 0.126129 0.395264
0.304840 0.129517 0.420013
0.400421 0.132385 0.449890
0.512329 0.132660 0.490234
0.621124 0.137817 0.527466
0.743011 0.143127 0.574097
0.875275 0.149414 0.627655
0.102325 0.175140 0.394745
0.171295 0.192810 0.421509
0.243958 0.195343 0.441772
0.329956 0.197388 0.465515
0.430084 0.198639 0.494110
0.549072 0.196808 0.533295
0.654816 0.210480 0.566559
0.772949 0.224396 0.609741
0.900726 0.239349 0.660492
0.108887 0.250000 0.449554
0.177917 0.272034 0.475861
0.273438 0.291382 0.495605
0.363617 0.293335 0.518188
0.468414 0.294312 0.545319
0.591583 0.294006 0.582153
0.694275 0.316528 0.608185
0.806732 0.341492 0.646820
0.928589 0.367432 0.693878
0.114166 0.341522 0.512115
0.184692 0.368195 0.536774
0.282349 0.391449 0.555542
0.396576 0.408569 0.567841
0.504974 0.410370 0.593323
0.630676 0.412323 0.627319
0.731964 0.436340 0.648468
0.837402 0.471588 0.679047
0.952789 0.509796 0.721954
0.116974 0.449768 0.580353
0.190491 0.481384 0.602203
0.291809 0.508270 0.618713
0.410095 0.528931 0.630035
0.538452 0.543121 0.635773
0.665070 0.548065 0.666473
0.764099 0.572571 0.683136
0.865479 0.608551 0.708282
0.970306 0.656647 0.742889
0.113098 0.576050 0.650055
0.201294 0.612976 0.665344
0.313446 0.644257 0.678955
0.440643 0.668671 0.688171
0.576019 0.686096 0.692719
0.691345 0.696442 0.693909
0.786285 0.717133 0.706573
0.881744 0.749359 0.726685
0.978912 0.793732 0.755249
0.110291 0.677368 0.674042
0.205750 0.709686 0.687042
0.328278 0.739014 0.699158
0.463562 0.765076 0.709747
0.607086 0.784210 0.716034
0.726074 0.795593 0.719025
0.807983 0.802582 0.727692
0.898590 0.829132 0.744812
0.989532 0.867004 0.769653
0.103424 0.772186 0.693634
0.205444 0.800354 0.704559
0.335449 0.826294 0.714264
0.482391 0.850372 0.723419
0.634125 0.870575 0.731140
0.756470 0.882599 0.735596
0.843262 0.891449 0.747467
0.910248 0.898621 0.760345
0.995209 0.929688 0.782104
0.094482 0.859009 0.708344
0.202515 0.883545 0.717590
0.339142 0.906494 0.725037
0.493378 0.927094 0.731567
0.655548 0.944855 0.737885
0.781067 0.957062 0.743469
0.872375 0.967804 0.759583
0.943420 0.976715 0.775604
0.998260 0.984741 0.794434
0.100586 0.124786 0.405548
0.155273 0.128357 0.425232
0.222717 0.130920 0.446991
0.305176 0.133240 0.472656
0.401978 0.135010 0.503693
0.517517 0.134125 0.545746
0.634613 0.131378 0.591064
0.756378 0.133942 0.639465
0.890808 0.136749 0.696869
0.104950 0.174225 0.436462
0.164551 0.186829 0.462982
0.232971 0.188263 0.483948
0.318024 0.188934 0.508575
0.418182 0.188782 0.538208
0.539856 0.185059 0.579224
0.662689 0.181061 0.626160
0.781494 0.191772 0.671326
0.912292 0.202759 0.726105
0.109680 0.234253 0.478485
0.168579 0.249603 0.504120
0.248718 0.262848 0.528351
0.336212 0.262695 0.551910
0.439514 0.261475 0.580200
0.564270 0.257782 0.619080
0.695343 0.254517 0.665466
0.809570 0.276184 0.705872
0.935120 0.298279 0.756409
0.114502 0.316315 0.537720
0.174133 0.336334 0.562012
0.255005 0.353210 0.585052
0.363831 0.368225 0.602051
0.470398 0.367554 0.628784
0.597595 0.365509 0.664978
0.732300 0.365204 0.708527
0.839172 0.398865 0.739716
0.957520 0.433990 0.784943
0.117188 0.417023 0.605225
0.178955 0.442078 0.627014
0.262054 0.462860 0.647675
0.374512 0.481567 0.663513
0.500427 0.494080 0.673157
0.628448 0.494476 0.706238
0.765198 0.497925 0.746429
0.867767 0.532837 0.771729
0.974579 0.580017 0.806976
0.113708 0.538483 0.677551
0.188629 0.570923 0.694092
0.279938 0.596466 0.711426
0.400238 0.618774 0.724579
0.532104 0.634277 0.732422
0.653076 0.643280 0.736755
0.788940 0.649872 0.772247
0.885223 0.681793 0.791931
0.984009 0.726044 0.820526
0.105347 0.669525 0.745575
0.198547 0.706787 0.759155
0.316406 0.740387 0.771545
0.449493 0.767883 0.781952
0.592224 0.787994 0.787933
0.713348 0.799988 0.790131
0.807281 0.808136 0.791412
0.898376 0.834290 0.806885
0.990173 0.872864 0.830200
0.098114 0.768433 0.767487
0.198486 0.800751 0.779022
0.325806 0.829712 0.789185
0.472839 0.854889 0.798340
0.624237 0.876038 0.805695
0.749268 0.888611 0.809387
0.844299 0.897400 0.812164
0.910004 0.903473 0.821472
0.995667 0.934601 0.841125
0.087830 0.859924 0.784973
0.194824 0.887848 0.794678
0.330963 0.912628 0.802917
0.487335 0.934326 0.809723
0.652161 0.953033 0.815796
0.780884 0.965698 0.820618
0.876678 0.974670 0.824615
0.945770 0.982361 0.837036
0.998688 0.988922 0.850861
0.104034 0.130524 0.453888
0.157288 0.134155 0.474670
0.223419 0.136597 0.497528
0.305908 0.137573 0.524597
0.404785 0.137970 0.557068
0.524963 0.135559 0.601379
0.646851 0.131470 0.648865
0.764862 0.126129 0.696472
0.898224 0.125824 0.755127
0.107422 0.175049 0.478607
0.159454 0.183441 0.504272
0.225922 0.184784 0.526306
0.308960 0.183990 0.552155
0.409973 0.182190 0.583130
0.535187 0.176422 0.626404
0.662781 0.170868 0.675629
0.786041 0.164429 0.725250
0.916565 0.171844 0.781494
0.110962 0.227692 0.512115
0.162109 0.237946 0.536499
0.231384 0.245605 0.560547
0.314819 0.243744 0.585236
0.417725 0.240540 0.614777
0.544983 0.234100 0.655792
0.679901 0.228271 0.704620
0.810089 0.221588 0.756561
0.936157 0.239563 0.808838
0.114227 0.292786 0.557800
0.165222 0.306183 0.580566
0.233826 0.315399 0.602600
0.325043 0.322388 0.623993
0.429688 0.318665 0.652161
0.558289 0.312286 0.690674
0.696045 0.307617 0.736816
0.836060 0.304565 0.789001
0.956085 0.336060 0.835693
0.116638 0.382904 0.621948
0.168976 0.401367 0.642517
0.238983 0.414612 0.662537
0.331604 0.424469 0.681976
0.452881 0.433685 0.696075
0.582245 0.429108 0.731598
0.721893 0.427582 0.774597
0.865112 0.429016 0.823425
0.973206 0.474915 0.858765
0.113434 0.496368 0.694092
0.177521 0.523743 0.710754
0.253906 0.541260 0.727234
0.350922 0.553925 0.742828
0.476990 0.565918 0.754517
0.600830 0.571533 0.762421
0.739716 0.572479 0.800842
0.884155 0.578125 0.845367
0.983887 0.621857 0.873505
0.105560 0.622803 0.765015
0.187408 0.655884 0.779327
0.288239 0.683289 0.791992
0.394592 0.701111 0.804077
0.530457 0.717499 0.813263
0.652954 0.725708 0.818207
0.755524 0.732086 0.822540
0.898895 0.740234 0.862000
0.991272 0.779053 0.884308
0.093597 0.756531 0.830322
0.192352 0.793610 0.842468
0.317291 0.827118 0.853027
0.460266 0.855927 0.861755
0.610931 0.878296 0.868317
0.737732 0.891541 0.870941
0.835449 0.900848 0.872864
0.909943 0.907227 0.874268
0.996002 0.938354 0.892120
0.082886 0.853058 0.850342
0.188721 0.884949 0.860626
0.323120 0.913513 0.869202
0.477783 0.937622 0.875763
0.644562 0.957245 0.881317
0.775574 0.970520 0.884979
0.874634 0.979980 0.888123
0.947571 0.986572 0.890808
0.999054 0.992035 0.900635
0.107056 0.135956 0.500610
0.159302 0.139862 0.522614
0.224457 0.142303 0.546692
0.306030 0.143036 0.574982
0.407532 0.141754 0.609650
0.533417 0.137573 0.656677
0.661072 0.131836 0.706818
0.785065 0.124969 0.756989
0.899811 0.117432 0.804230
0.109802 0.177521 0.521118
0.156006 0.182495 0.545380
0.220886 0.183868 0.568604
0.302429 0.182922 0.595581
0.404114 0.179352 0.628510
0.533875 0.171387 0.674438
0.667236 0.163971 0.726440
0.796356 0.155823 0.778778
0.915802 0.147369 0.828400
0.112427 0.224609 0.548096
0.157593 0.230591 0.570648
0.217804 0.233551 0.593994
0.299072 0.231537 0.619781
0.400757 0.226288 0.651062
0.531403 0.216949 0.694580
0.671173 0.208435 0.746216
0.807190 0.199829 0.801025
0.933014 0.191254 0.853424
0.114563 0.281677 0.584900
0.159393 0.289948 0.605438
0.218750 0.293610 0.626343
0.297607 0.294495 0.647675
0.399048 0.288208 0.677429
0.529968 0.278229 0.718353
0.671448 0.270172 0.767212
0.816589 0.263916 0.822357
0.950500 0.256104 0.877838
0.115723 0.353119 0.634979
0.160980 0.364960 0.653168
0.220184 0.370605 0.671326
0.298401 0.371918 0.689484
0.400543 0.370789 0.707733
0.531158 0.360870 0.745850
0.673706 0.353973 0.791718
0.821350 0.350037 0.843719
0.967285 0.348907 0.900330
0.112671 0.455414 0.704132
0.168304 0.477142 0.719696
0.232178 0.486603 0.734161
0.312927 0.490204 0.748322
0.415558 0.489868 0.762207
0.539459 0.490051 0.774170
0.681274 0.484955 0.815643
0.830292 0.484558 0.863525
0.979645 0.488739 0.916229
0.105225 0.574005 0.775085
0.178070 0.602417 0.788971
0.264343 0.622986 0.800751
0.352661 0.631287 0.811188
0.460785 0.634155 0.821075
0.581848 0.636505 0.829193
0.690277 0.639099 0.837067
0.838257 0.640533 0.880066
0.988647 0.648315 0.928101
0.093903 0.703278 0.843567
0.183105 0.736572 0.855865
0.292969 0.764221 0.866150
0.415222 0.785065 0.874176
0.533844 0.793488 0.880341
0.657745 0.800446 0.885254
0.759796 0.805573 0.889862
0.845886 0.809784 0.894287
0.994934 0.819427 0.936920
0.079285 0.837463 0.905212
0.183990 0.874023 0.916077
0.316559 0.907013 0.925018
0.468750 0.935303 0.931793
0.632355 0.957764 0.936096
0.764709 0.971802 0.938385
0.866119 0.981842 0.940308
0.942352 0.988922 0.942017
0.999268 0.993988 0.943665
