source/confirmed_python/official_bleach/Bleach.CUBE
#Created by: Leica Camera AG | Wetzlar | Germany
#Unique Leica Look ID: 22
#Based Filmstyle Mode: Standard
TITLE "Bleach"
# 75% of orignal smoothed version
#LUT size
LUT_3D_SIZE 5
#data domain
DOMAIN_MIN 0.0 0.0 0.0
DOMAIN_MAX 1.0 1.0 1.0
#LUT data points
0.078217 0.097321 0.108337
0.203064 0.113708 0.118347
0.341949 0.132080 0.131287
0.485077 0.148285 0.146973
0.631531 0.166229 0.166107
0.107727 0.268188 0.142120
0.314270 0.307434 0.163940
0.474426 0.332825 0.186676
0.642975 0.365570 0.218018
0.803711 0.395264 0.246643
0.132355 0.459137 0.183563
0.345184 0.509552 0.205322
0.572845 0.544067 0.239227
0.754486 0.589050 0.284698
0.934204 0.644226 0.333588
0.183746 0.656952 0.227417
0.347595 0.694031 0.252136
0.608704 0.737671 0.293060
0.808899 0.770660 0.347137
0.983093 0.831329 0.413910
0.330933 0.854889 0.266541
0.367981 0.853943 0.294952
0.604828 0.888184 0.349976
0.845367 0.928467 0.414337
0.996124 0.959839 0.489319
0.084167 0.103394 0.202393
0.223907 0.113800 0.239288
0.373718 0.131561 0.260498
0.561249 0.151764 0.304993
0.751282 0.175720 0.350769
0.100159 0.272827 0.314911
0.300201 0.316589 0.332733
0.470093 0.336395 0.345642
0.656952 0.379486 0.377930
0.841492 0.437042 0.426971
0.123016 0.471161 0.363098
0.337250 0.527740 0.386658
0.569855 0.557159 0.406525
0.760071 0.601868 0.439941
0.947937 0.670807 0.493347
0.125916 0.666107 0.403229
0.358154 0.718719 0.420563
0.619171 0.758423 0.452240
0.811584 0.782959 0.489227
0.985107 0.843353 0.544495
0.165161 0.841980 0.429932
0.399506 0.877930 0.436584
0.626648 0.907288 0.485413
0.852936 0.940399 0.537323
0.996735 0.968445 0.604340
0.092407 0.113007 0.304260
0.223602 0.121735 0.342926
0.401367 0.129608 0.396179
0.603851 0.144562 0.456360
0.849335 0.163025 0.545837
0.107178 0.264862 0.413300
0.290833 0.311340 0.449615
0.489807 0.317657 0.497528
0.688049 0.356323 0.538513
0.914246 0.413177 0.617157
0.115540 0.475525 0.543030
0.311646 0.536621 0.571045
0.562134 0.571869 0.580658
0.757751 0.611908 0.606537
0.959320 0.697113 0.664612
0.115540 0.677551 0.591034
0.338776 0.734344 0.614380
0.619690 0.777618 0.631012
0.809082 0.796051 0.654053
0.988739 0.859894 0.699707
0.103149 0.851227 0.619751
0.344910 0.896118 0.633636
0.655151 0.932526 0.645874
0.867096 0.959198 0.686096
0.997711 0.979370 0.731323
0.100586 0.124786 0.405548
0.222717 0.130920 0.446991
0.401978 0.135010 0.503693
0.634613 0.131378 0.591064
0.890808 0.136749 0.696869
0.109680 0.234253 0.478485
0.248718 0.262848 0.528351
0.439514 0.261475 0.580200
0.695343 0.254517 0.665466
0.935120 0.298279 0.756409
0.117188 0.417023 0.605225
0.262054 0.462860 0.647675
0.500427 0.494080 0.673157
0.765198 0.497925 0.746429
0.974579 0.580017 0.806976
0.105347 0.669525 0.745575
0.316406 0.740387 0.771545
0.592224 0.787994 0.787933
0.807281 0.808136 0.791412
0.990173 0.872864 0.830200
0.087830 0.859924 0.784973
0.330963 0.912628 0.802917
0.652161 0.953033 0.815796
0.876678 0.974670 0.824615
0.998688 0.988922 0.850861
0.107056 0.135956 0.500610
0.224457 0.142303 0.546692
0.407532 0.141754 0.609650
0.661072 0.131836 0.706818
0.899811 0.117432 0.804230
0.112427 0.224609 0.548096
0.217804 0.233551 0.593994
0.400757 0.226288 0.651062
0.671173 0.208435 0.746216
0.933014 0.191254 0.853424
0.115723 0.353119 0.634979
0.220184 0.370605 0.671326
0.400543 0.370789 0.707733
0.673706 0.353973 0.791718
0.967285 0.348907 0.900330
0.105225 0.574005 0.775085
0.264343 0.622986 0.800751
0.460785 0.634155 0.821075
0.690277 0.639099 0.837067
0.988647 0.648315 0.928101
0.079285 0.837463 0.905212
0.316559 0.907013 0.925018
0.632355 0.957764 0.936096
0.866119 0.981842 0.940308
0.999268 0.993988 0.943665
