source/confirmed_python/official_bleach/Bleach.CUBE
#Created by: Leica Camera AG | Wetzlar | Germany
#Unique Leica Look ID: 22
#Based Filmstyle Mode: Standard
TITLE "Bleach"
# 75% of orignal smoothed version
#LUT size
LUT_3D_SIZE 17
#data domain
DOMAIN_MIN 0.0 0.0 0.0
DOMAIN_MAX 1.0 1.0 1.0
#LUT data points
0.078217 0.097321 0.108337
0.108368 0.101196 0.110657
0.138550 0.105072 0.112976
0.169769 0.109161 0.115448
0.203064 0.113708 0.118347
0.236328 0.118256 0.121246
0.271057 0.122833 0.124481
0.306488 0.127472 0.127899
0.341949 0.132080 0.131287
0.377625 0.136108 0.135010
0.413300 0.140198 0.138763
0.449066 0.144226 0.142670
0.485077 0.148285 0.146973
0.521088 0.152313 0.151276
0.557709 0.156799 0.156067
0.594635 0.161530 0.161072
0.631531 0.166229 0.166107
0.085754 0.138580 0.116333
0.135345 0.147888 0.121155
0.165497 0.151733 0.123444
0.197937 0.156128 0.126434
0.233734 0.161224 0.130280
0.266998 0.165771 0.133148
0.304749 0.171387 0.137787
0.341675 0.176483 0.141876
0.377106 0.181091 0.145294
0.416718 0.187073 0.151123
0.452393 0.191132 0.154846
0.489288 0.195923 0.159424
0.527557 0.201477 0.165100
0.563538 0.205536 0.169403
0.601440 0.210999 0.175049
0.639038 0.216187 0.180511
0.675964 0.220886 0.185547
0.093292 0.179840 0.124268
0.142883 0.189117 0.129120
0.192474 0.198425 0.133972
0.224915 0.202789 0.136932
0.261902 0.208191 0.141235
0.297668 0.213287 0.145081
0.335388 0.218872 0.149689
0.375336 0.225006 0.155151
0.412262 0.230103 0.159271
0.451874 0.236084 0.165100
0.491516 0.242065 0.170929
0.528442 0.246887 0.175537
0.567780 0.253174 0.181854
0.605988 0.258698 0.187531
0.643921 0.264160 0.193176
0.682800 0.270355 0.199493
0.720367 0.275574 0.204956
0.100677 0.222565 0.132721
0.150696 0.232666 0.137573
0.200287 0.241943 0.142395
0.251495 0.250946 0.147858
0.288483 0.256317 0.152161
0.325470 0.261719 0.156464
0.365509 0.268066 0.162170
0.405457 0.274170 0.167633
0.445404 0.280304 0.173126
0.486359 0.287170 0.179840
0.526001 0.293182 0.185699
0.566772 0.300476 0.192627
0.606140 0.306763 0.198975
0.645477 0.313019 0.205292
0.685669 0.320435 0.212433
0.724548 0.326630 0.218750
0.763428 0.332825 0.225098
0.107727 0.268188 0.142120
0.158630 0.279938 0.146942
0.208649 0.290070 0.151794
0.259857 0.299042 0.157257
0.314270 0.307434 0.163940
0.351257 0.312805 0.168243
0.392395 0.319641 0.174530
0.434479 0.326721 0.181213
0.474426 0.332825 0.186676
0.518097 0.341492 0.195221
0.559052 0.348389 0.201965
0.599823 0.355682 0.208893
0.642975 0.365570 0.218018
0.682312 0.371857 0.224365
0.723663 0.380493 0.232330
0.764862 0.389069 0.240326
0.803711 0.395264 0.246643
0.114807 0.313843 0.151489
0.165680 0.325592 0.156342
0.216583 0.337341 0.161163
0.268219 0.347168 0.166626
0.322632 0.355530 0.173309
0.377075 0.363922 0.180023
0.418182 0.370758 0.186310
0.461365 0.378265 0.193573
0.503448 0.385315 0.200256
0.547119 0.394012 0.208801
0.590759 0.402710 0.217346
0.632904 0.410889 0.225189
0.676056 0.420807 0.234283
0.719177 0.430695 0.243408
0.760498 0.439331 0.251434
0.802856 0.449127 0.260223
0.844025 0.457733 0.268219
0.120972 0.361572 0.161835
0.171661 0.374603 0.166504
0.222534 0.386353 0.171356
0.275940 0.397675 0.176971
0.331726 0.406769 0.183838
0.386139 0.415131 0.190521
0.441711 0.423065 0.198853
0.484894 0.430603 0.206116
0.528076 0.438171 0.213409
0.572968 0.447968 0.223450
0.616638 0.456635 0.231995
0.660767 0.466766 0.241852
0.704590 0.477692 0.252106
0.747711 0.487610 0.261230
0.791992 0.500366 0.272308
0.834320 0.510162 0.281128
0.876648 0.519958 0.289948
0.126648 0.410370 0.172699
0.177246 0.424042 0.177277
0.227936 0.437042 0.181915
0.281342 0.448395 0.187561
0.339783 0.458862 0.194763
0.395538 0.467926 0.201630
0.451141 0.475861 0.209930
0.507294 0.483582 0.219055
0.550476 0.491119 0.226318
0.596008 0.501495 0.237122
0.640930 0.511292 0.247162
0.685089 0.521423 0.257050
0.730194 0.534393 0.269531
0.773987 0.545349 0.279755
0.818268 0.558105 0.290863
0.863098 0.572296 0.302979
0.905426 0.582092 0.311798
0.132355 0.459137 0.183563
0.182953 0.472809 0.188110
0.233521 0.486481 0.192688
0.286743 0.499054 0.198120
0.345184 0.509552 0.205322
0.403625 0.520020 0.212524
0.460541 0.528656 0.221008
0.516693 0.536377 0.230133
0.572845 0.544067 0.239227
0.618408 0.554443 0.250061
0.663940 0.564789 0.260834
0.709381 0.576050 0.272217
0.754486 0.589050 0.284698
0.799591 0.602051 0.297180
0.844543 0.615845 0.309418
0.889374 0.630035 0.321503
0.934204 0.644226 0.333588
0.140228 0.508575 0.194794
0.183380 0.520416 0.199158
0.233978 0.534088 0.203705
0.288452 0.547302 0.209442
0.349487 0.558990 0.217194
0.407959 0.569458 0.224396
0.469330 0.579163 0.233643
0.527710 0.587402 0.243134
0.583893 0.595123 0.252228
0.634888 0.602997 0.263977
0.680450 0.613342 0.274811
0.725677 0.624786 0.287079
0.770447 0.638245 0.301331
0.815582 0.651215 0.313843
0.860107 0.666382 0.328583
0.904724 0.681244 0.341949
0.949585 0.695435 0.354065
0.148102 0.558014 0.206024
0.191254 0.569855 0.210419
0.234406 0.581696 0.214783
0.288910 0.594910 0.220490
0.351227 0.607239 0.228516
0.412292 0.618927 0.236267
0.473694 0.628601 0.245514
0.536530 0.637909 0.255768
0.594940 0.646179 0.265259
0.645935 0.654022 0.277008
0.696930 0.661865 0.288757
0.742188 0.673309 0.301025
0.786774 0.686981 0.316193
0.831573 0.700378 0.330475
0.876068 0.715546 0.345245
0.920288 0.731781 0.361145
0.964905 0.746643 0.374481
0.160980 0.607483 0.216980
0.196777 0.617004 0.221527
0.239899 0.628845 0.225891
0.288177 0.640442 0.231934
0.350555 0.652740 0.239929
0.412903 0.665039 0.247955
0.478180 0.675964 0.258209
0.541016 0.685272 0.268463
0.603882 0.694550 0.278717
0.657166 0.702789 0.290894
0.708191 0.710663 0.302643
0.755951 0.718506 0.315735
0.800568 0.732147 0.330933
0.845154 0.745789 0.346100
0.888702 0.760956 0.362793
0.932922 0.777191 0.378662
0.977142 0.793427 0.394562
0.183746 0.656952 0.227417
0.204926 0.661835 0.232208
0.240723 0.671356 0.236755
0.289001 0.682953 0.242767
0.347595 0.694031 0.252136
0.409912 0.706329 0.260162
0.477783 0.717834 0.271118
0.545837 0.728363 0.282806
0.608704 0.737671 0.293060
0.666595 0.746674 0.306091
0.719879 0.754913 0.318268
0.767670 0.762787 0.331390
0.808899 0.770660 0.347137
0.853516 0.784302 0.362305
0.896271 0.799255 0.380035
0.938904 0.815094 0.398010
0.983093 0.831329 0.413910
0.206573 0.706390 0.237854
0.227722 0.711273 0.242645
0.248871 0.716187 0.247437
0.289825 0.725464 0.253601
0.348419 0.736542 0.263000
0.406952 0.747620 0.272339
0.474854 0.759125 0.283295
0.545471 0.770264 0.295715
0.613525 0.780762 0.307434
0.671417 0.789764 0.320465
0.729309 0.798798 0.333496
0.779358 0.807037 0.347015
0.820618 0.814911 0.362762
0.861877 0.822815 0.378510
0.904633 0.837769 0.396240
0.946472 0.853394 0.415283
0.989075 0.869232 0.433228
0.243378 0.755890 0.247620
0.247009 0.755707 0.252686
0.268158 0.760590 0.257507
0.294922 0.765442 0.264343
0.346649 0.774414 0.274200
0.405212 0.785492 0.283569
0.471283 0.796173 0.296783
0.541931 0.807281 0.309235
0.612549 0.818390 0.321655
0.676239 0.828552 0.336487
0.734161 0.837555 0.349518
0.788452 0.846497 0.363800
0.831726 0.854675 0.379944
0.872986 0.862579 0.395691
0.908691 0.870117 0.414062
0.950500 0.885712 0.433075
0.992340 0.901367 0.452087
0.287140 0.805389 0.257080
0.282043 0.802673 0.262299
0.285706 0.802460 0.267365
0.312469 0.807312 0.274200
0.350464 0.812073 0.285065
0.402161 0.821045 0.294922
0.468231 0.831726 0.308167
0.538055 0.842163 0.323364
0.608704 0.853302 0.335815
0.675293 0.864014 0.351532
0.738983 0.874146 0.366364
0.793335 0.883087 0.380676
0.840515 0.891876 0.397491
0.883759 0.900055 0.413574
0.919495 0.907593 0.431976
0.952393 0.914948 0.451691
0.994232 0.930603 0.470703
0.330933 0.854889 0.266541
0.325836 0.852142 0.271729
0.320709 0.849396 0.276978
0.329987 0.849182 0.284088
0.367981 0.853943 0.294952
0.406006 0.858704 0.305786
0.465210 0.867249 0.319550
0.535004 0.877716 0.334747
0.604828 0.888184 0.349976
0.671448 0.898895 0.365723
0.738037 0.909607 0.381439
0.798187 0.919708 0.397522
0.845367 0.928467 0.414337
0.892578 0.937286 0.431122
0.930237 0.945129 0.449890
0.963196 0.952484 0.469604
0.996124 0.959839 0.489319
0.079559 0.098602 0.131256
0.113007 0.101318 0.139679
0.143158 0.105194 0.141968
0.174652 0.109161 0.144775
0.208527 0.113525 0.148163
0.241791 0.118073 0.151062
0.278595 0.122772 0.155640
0.315033 0.127441 0.159729
0.350494 0.132050 0.163147
0.392517 0.137085 0.170563
0.428162 0.141144 0.174286
0.466919 0.145691 0.179932
0.508820 0.150696 0.187714
0.544830 0.154755 0.192017
0.585907 0.160065 0.199371
0.625061 0.165161 0.205688
0.661957 0.169891 0.210724
0.083740 0.139130 0.158081
0.130737 0.149353 0.162262
0.160889 0.153259 0.164581
0.193878 0.157257 0.167023
0.230743 0.161682 0.169769
0.264038 0.166229 0.172668
0.303406 0.171356 0.176117
0.341156 0.176239 0.179657
0.376587 0.180847 0.183044
0.419800 0.188629 0.189331
0.455475 0.192688 0.193054
0.494110 0.199249 0.198883
0.535858 0.208282 0.207001
0.571869 0.212341 0.211304
0.613007 0.221313 0.219849
0.652191 0.228271 0.226746
0.689117 0.232971 0.231750
0.091309 0.180420 0.166077
0.138245 0.190613 0.170258
0.187836 0.199921 0.175110
0.220856 0.203918 0.177521
0.258942 0.208649 0.180756
0.294708 0.213745 0.184570
0.334045 0.218872 0.188049
0.374817 0.224762 0.192932
0.411774 0.229889 0.197052
0.454987 0.237671 0.203308
0.494598 0.243652 0.209137
0.533264 0.250183 0.214966
0.576080 0.259979 0.223755
0.614319 0.265503 0.229401
0.655457 0.274506 0.237976
0.695953 0.282440 0.245697
0.733521 0.287659 0.251160
0.098694 0.223511 0.175049
0.146332 0.234711 0.179688
0.195892 0.244019 0.184540
0.247559 0.252747 0.189178
0.285675 0.257446 0.192383
0.322662 0.262848 0.196716
0.364166 0.268555 0.200989
0.404938 0.274445 0.205902
0.444855 0.280548 0.211365
0.488953 0.288849 0.218018
0.528595 0.294830 0.223846
0.570435 0.303345 0.231415
0.613281 0.313110 0.240204
0.652618 0.319397 0.246521
0.695465 0.330017 0.256134
0.735962 0.337982 0.263916
0.774841 0.344147 0.270233
0.105835 0.269989 0.185486
0.154724 0.283112 0.191101
0.204742 0.293213 0.195953
0.256409 0.301971 0.200592
0.311798 0.309875 0.205627
0.348785 0.315247 0.209900
0.391174 0.321289 0.214569
0.433899 0.327972 0.220428
0.473846 0.334076 0.225922
0.519745 0.343353 0.233368
0.560699 0.350220 0.240082
0.602570 0.358765 0.247620
0.647797 0.371094 0.257935
0.687134 0.377380 0.264282
0.730591 0.388885 0.274292
0.772797 0.398926 0.283325
0.811707 0.405090 0.289642
0.112885 0.315643 0.194885
0.161804 0.328766 0.200470
0.212677 0.340515 0.205322
0.264771 0.350067 0.209961
0.320160 0.358002 0.214996
0.374573 0.366364 0.221680
0.416962 0.372375 0.226318
0.460785 0.379547 0.232788
0.502869 0.386597 0.239471
0.548767 0.395874 0.246918
0.592438 0.404541 0.255463
0.635620 0.413971 0.263916
0.680847 0.426300 0.274231
0.723999 0.436218 0.283356
0.767426 0.447723 0.293396
0.810822 0.458954 0.303223
0.851990 0.467560 0.311188
0.118530 0.364502 0.205902
0.168823 0.379059 0.211914
0.219696 0.390808 0.216766
0.273590 0.401947 0.221710
0.330292 0.410645 0.227051
0.384705 0.419037 0.233765
0.440796 0.426117 0.239960
0.484589 0.433258 0.246429
0.527771 0.440796 0.253723
0.574188 0.450378 0.261627
0.617859 0.459045 0.270172
0.662323 0.469604 0.279755
0.707550 0.482178 0.290283
0.750702 0.492065 0.299408
0.795715 0.506470 0.311188
0.839111 0.517700 0.321045
0.881439 0.527496 0.329865
0.123993 0.413879 0.217102
0.174927 0.429077 0.223328
0.225616 0.442108 0.227966
0.279510 0.453308 0.232941
0.338867 0.463440 0.238770
0.394653 0.472534 0.245605
0.450745 0.479614 0.251831
0.507141 0.486908 0.259918
0.550323 0.494415 0.267212
0.596985 0.504181 0.275330
0.641907 0.513977 0.285370
0.686401 0.524536 0.294952
0.732239 0.538361 0.306854
0.776031 0.549286 0.317108
0.821075 0.563690 0.328888
0.866333 0.578705 0.341339
0.908630 0.588501 0.350159
0.129700 0.462616 0.227936
0.180634 0.477875 0.234161
0.231232 0.491547 0.238739
0.284912 0.503967 0.243500
0.344269 0.514160 0.249329
0.402710 0.524628 0.256531
0.460144 0.532379 0.262909
0.516541 0.539673 0.270996
0.572723 0.547394 0.280121
0.619385 0.557159 0.288239
0.664948 0.567535 0.299072
0.710693 0.579193 0.310120
0.756531 0.593018 0.322021
0.801636 0.606018 0.334503
0.847351 0.621460 0.347443
0.892578 0.636444 0.359863
0.937439 0.650635 0.371948
0.131897 0.512177 0.238403
0.183777 0.526642 0.243286
0.234344 0.540314 0.247864
0.289154 0.553406 0.253082
0.350769 0.564850 0.259918
0.409241 0.575317 0.267120
0.470856 0.584351 0.274750
0.529388 0.592255 0.283417
0.585571 0.599976 0.292511
0.635803 0.606384 0.301514
0.681366 0.616730 0.312317
0.726624 0.628113 0.323639
0.771454 0.641327 0.336060
0.816559 0.654327 0.348541
0.861023 0.669861 0.362640
0.905670 0.684967 0.375671
0.950500 0.699158 0.387787
0.139771 0.561584 0.249634
0.191620 0.576080 0.254547
0.234772 0.587921 0.258911
0.289581 0.601013 0.264160
0.352509 0.613068 0.271240
0.413544 0.624786 0.278992
0.475220 0.633789 0.286591
0.538177 0.642792 0.296051
0.596588 0.651001 0.305542
0.646851 0.657440 0.314514
0.697845 0.665283 0.326263
0.743103 0.676636 0.337585
0.787750 0.690063 0.350922
0.832550 0.703491 0.365204
0.877045 0.719025 0.379303
0.921234 0.735474 0.394867
0.965851 0.750366 0.408203
0.146606 0.609863 0.259796
0.198517 0.623260 0.263885
0.241669 0.635101 0.268250
0.289856 0.646515 0.273987
0.352814 0.658569 0.281067
0.415161 0.670868 0.289093
0.480316 0.681183 0.297974
0.543274 0.690125 0.307404
0.606140 0.699432 0.317657
0.658508 0.706329 0.327301
0.709534 0.714172 0.339050
0.756775 0.721710 0.351440
0.801453 0.735138 0.364746
0.846069 0.748779 0.379944
0.889435 0.764008 0.395569
0.933624 0.780457 0.411133
0.977814 0.796661 0.427032
0.157379 0.657013 0.268555
0.209412 0.668213 0.271057
0.245209 0.677734 0.275574
0.293427 0.689148 0.281311
0.351837 0.699860 0.290070
0.414185 0.712158 0.298065
0.481506 0.723083 0.307922
0.549286 0.733276 0.319061
0.612122 0.742584 0.329315
0.668762 0.750427 0.340302
0.722046 0.758698 0.352478
0.769348 0.766205 0.364868
0.809601 0.773407 0.379211
0.854248 0.787048 0.394409
0.896667 0.801758 0.410675
0.939117 0.817444 0.427917
0.983337 0.833710 0.443787
0.180206 0.706482 0.278992
0.232208 0.717682 0.281494
0.253387 0.722565 0.286285
0.294220 0.731659 0.292145
0.352631 0.742371 0.300903
0.411194 0.753448 0.310272
0.478546 0.764374 0.320099
0.548920 0.775208 0.331970
0.616943 0.785706 0.343689
0.673584 0.793549 0.354645
0.731476 0.802551 0.367676
0.781036 0.810455 0.380493
0.821320 0.817657 0.394867
0.862579 0.825562 0.410614
0.904999 0.840271 0.426880
0.946686 0.855774 0.445160
0.989288 0.871613 0.463135
0.202148 0.752808 0.287079
0.253723 0.761780 0.288452
0.274872 0.766663 0.293243
0.301300 0.771301 0.299805
0.352600 0.779877 0.309082
0.411163 0.790955 0.318451
0.475861 0.800934 0.330811
0.546234 0.811737 0.342712
0.616882 0.822876 0.355103
0.678833 0.831970 0.368225
0.736725 0.840973 0.381287
0.790497 0.849640 0.395050
0.832703 0.857208 0.409912
0.873962 0.865082 0.425659
0.909027 0.872345 0.443420
0.950653 0.887848 0.461700
0.992493 0.903473 0.480713
0.238495 0.800751 0.295715
0.289886 0.808594 0.296539
0.293549 0.808411 0.301605
0.319946 0.813049 0.308136
0.357239 0.817352 0.318481
0.408966 0.826324 0.328308
0.473694 0.836304 0.340698
0.542847 0.846405 0.355438
0.613464 0.857544 0.367859
0.678070 0.867249 0.382080
0.741791 0.877380 0.396942
0.795563 0.886047 0.410706
0.841644 0.894287 0.426453
0.884857 0.902466 0.442535
0.919922 0.909760 0.460297
0.952545 0.916962 0.479675
0.994354 0.932617 0.498718
0.282288 0.850250 0.305145
0.333679 0.858124 0.305969
0.328583 0.855377 0.311188
0.337463 0.854919 0.318024
0.374786 0.859253 0.328339
0.412781 0.863983 0.339203
0.470642 0.871857 0.352081
0.539795 0.881958 0.366821
0.609619 0.892426 0.382050
0.674194 0.902130 0.396240
0.740814 0.912842 0.412018
0.800385 0.922638 0.427582
0.846497 0.930908 0.443329
0.893707 0.939667 0.460114
0.930695 0.947235 0.478210
0.963318 0.954468 0.497620
0.996246 0.961853 0.517303
0.080841 0.099915 0.154205
0.114319 0.102600 0.162598
0.147797 0.105316 0.171021
0.179260 0.109314 0.173767
0.213409 0.113525 0.177460
0.247253 0.117889 0.180878
0.284027 0.122589 0.185486
0.322571 0.127350 0.190887
0.359039 0.132019 0.195007
0.401062 0.137054 0.202393
0.443054 0.142090 0.209839
0.481812 0.146637 0.215485
0.526672 0.152161 0.224976
0.568573 0.157166 0.232758
0.609650 0.162476 0.240112
0.653259 0.168427 0.248993
0.692413 0.173553 0.255310
0.085083 0.140442 0.181030
0.132050 0.150665 0.185211
0.165497 0.153351 0.193634
0.198486 0.157379 0.196045
0.235657 0.161682 0.199066
0.269501 0.166016 0.202484
0.308838 0.171173 0.205933
0.348663 0.176147 0.210815
0.385132 0.180817 0.214905
0.428345 0.188599 0.221161
0.470367 0.193665 0.228607
0.509003 0.200195 0.234436
0.553680 0.209717 0.244263
0.595612 0.214722 0.252045
0.636749 0.223755 0.260559
0.680389 0.231506 0.270050
0.719543 0.236633 0.276337
0.089294 0.180969 0.207825
0.136261 0.191193 0.212036
0.183228 0.201416 0.216217
0.216217 0.205444 0.218658
0.254883 0.209778 0.221313
0.291748 0.214203 0.224060
0.331085 0.219299 0.227539
0.373505 0.224731 0.231293
0.411255 0.229614 0.234802
0.454437 0.237427 0.241089
0.497681 0.245209 0.247345
0.536316 0.251740 0.253174
0.580902 0.263306 0.263214
0.622650 0.272308 0.271301
0.663788 0.281311 0.279846
0.707489 0.292786 0.290497
0.746674 0.299744 0.297394
0.096680 0.224091 0.216827
0.144318 0.235260 0.221497
0.191284 0.245514 0.225677
0.242950 0.254242 0.230316
0.281616 0.258575 0.232971
0.319702 0.263275 0.236176
0.361206 0.268982 0.240479
0.403564 0.274445 0.244232
0.444336 0.280304 0.249146
0.488434 0.288605 0.255798
0.531677 0.296387 0.262085
0.573517 0.304901 0.269592
0.618103 0.316406 0.279633
0.660950 0.326202 0.288422
0.703796 0.336823 0.298035
0.747498 0.348297 0.308685
0.787994 0.356232 0.316437
0.103882 0.270966 0.227814
0.152771 0.284088 0.233429
0.200378 0.295258 0.238068
0.252045 0.304016 0.242706
0.307892 0.311707 0.246918
0.345978 0.316376 0.250153
0.388367 0.322418 0.254791
0.432526 0.328461 0.259247
0.473297 0.334320 0.264160
0.519196 0.343597 0.271606
0.563293 0.351898 0.278259
0.605133 0.360413 0.285797
0.651459 0.373962 0.296722
0.694305 0.383759 0.305511
0.737732 0.395264 0.315552
0.782623 0.408508 0.327026
0.823120 0.416443 0.334808
0.110992 0.317444 0.238281
0.159912 0.330566 0.243896
0.208801 0.343658 0.249481
0.260895 0.353241 0.254120
0.316711 0.360901 0.258331
0.372101 0.368805 0.263367
0.414490 0.374847 0.268036
0.459564 0.381195 0.272827
0.502289 0.387878 0.278687
0.548157 0.397156 0.286163
0.594086 0.406403 0.293610
0.637268 0.415833 0.302032
0.683563 0.429382 0.312958
0.728821 0.441711 0.323273
0.772247 0.453217 0.333313
0.817719 0.467346 0.345184
0.859955 0.477386 0.354187
0.116638 0.366302 0.249329
0.166931 0.380829 0.255341
0.215820 0.393951 0.260925
0.269684 0.405090 0.265869
0.326843 0.413574 0.270416
0.382233 0.421478 0.275421
0.438293 0.428558 0.281647
0.483368 0.434875 0.286469
0.527191 0.442047 0.292908
0.573608 0.451630 0.300842
0.619476 0.460938 0.308289
0.663971 0.471466 0.317871
0.710236 0.485260 0.329010
0.755524 0.497589 0.339355
0.800537 0.511963 0.351135
0.846008 0.526093 0.363037
0.889404 0.537354 0.372864
0.121582 0.416779 0.261169
0.172546 0.432007 0.267395
0.222778 0.446564 0.273407
0.276672 0.457733 0.278351
0.336517 0.467712 0.283508
0.393219 0.476410 0.288849
0.449280 0.483490 0.295074
0.506195 0.489929 0.301025
0.550018 0.497040 0.307495
0.596710 0.506805 0.315643
0.643097 0.516418 0.323547
0.687622 0.526947 0.333130
0.733795 0.541199 0.344727
0.779022 0.553772 0.355286
0.824036 0.568176 0.367065
0.870056 0.584808 0.380219
0.913422 0.596039 0.390045
0.127045 0.466125 0.272369
0.177979 0.481384 0.278595
0.228912 0.496613 0.284790
0.282593 0.509064 0.289551
0.342438 0.519073 0.294708
0.401794 0.529205 0.300537
0.459229 0.536987 0.306915
0.516144 0.543396 0.312897
0.572540 0.550690 0.320953
0.619232 0.560455 0.329102
0.665924 0.570221 0.337250
0.711670 0.581879 0.348328
0.757874 0.596130 0.359924
0.803711 0.609985 0.371857
0.849396 0.625397 0.384766
0.895386 0.642029 0.397888
0.940643 0.657043 0.410339
0.129211 0.515656 0.282806
0.181091 0.530121 0.287720
0.232056 0.545380 0.293915
0.286835 0.558441 0.299164
0.348969 0.569733 0.305298
0.408325 0.579926 0.311127
0.469971 0.588959 0.318726
0.528992 0.596008 0.325317
0.585388 0.603271 0.333405
0.635651 0.609711 0.342377
0.682343 0.619476 0.350525
0.727600 0.630798 0.361847
0.772797 0.644440 0.373962
0.818634 0.658295 0.385895
0.863098 0.673828 0.399994
0.908478 0.690521 0.413696
0.953705 0.705536 0.426147
0.131409 0.565186 0.293243
0.183289 0.579681 0.298126
0.235168 0.594147 0.303040
0.289948 0.607239 0.308289
0.353210 0.619171 0.314911
0.414825 0.630615 0.321716
0.476501 0.639648 0.329346
0.539734 0.647949 0.337158
0.598267 0.655884 0.345825
0.648529 0.662292 0.354797
0.698761 0.668701 0.363770
0.744019 0.680054 0.375122
0.788696 0.693390 0.387512
0.833527 0.706604 0.399933
0.878021 0.722137 0.414032
0.922150 0.738983 0.428925
0.966797 0.754028 0.441956
0.138245 0.613464 0.303375
0.190186 0.626862 0.307465
0.242065 0.641327 0.312378
0.290253 0.652740 0.318115
0.353485 0.664673 0.324738
0.416443 0.676727 0.331818
0.481567 0.687012 0.340698
0.544830 0.695312 0.348480
0.607788 0.704315 0.357941
0.660187 0.711182 0.367584
0.710449 0.717590 0.376556
0.757721 0.725128 0.388947
0.802399 0.738464 0.401337
0.847046 0.751892 0.414673
0.890411 0.767120 0.430267
0.934570 0.783936 0.445190
0.978760 0.800385 0.460754
0.143036 0.659424 0.311340
0.195068 0.670624 0.313843
0.246979 0.684021 0.317963
0.295166 0.695404 0.323700
0.353516 0.705963 0.332092
0.416443 0.718018 0.339172
0.483765 0.728912 0.349030
0.551392 0.738495 0.358826
0.614380 0.747467 0.368256
0.671021 0.755341 0.379242
0.723419 0.762207 0.388885
0.770660 0.769714 0.401276
0.810455 0.776611 0.414948
0.855133 0.790039 0.428253
0.897552 0.804749 0.444519
0.939819 0.820526 0.460663
0.984009 0.836945 0.476227
0.153809 0.706543 0.320129
0.205811 0.717743 0.322632
0.257843 0.728943 0.325134
0.298737 0.738037 0.330994
0.357056 0.748596 0.339447
0.415466 0.759308 0.348175
0.482788 0.770203 0.358032
0.552612 0.780396 0.368774
0.620361 0.790619 0.379944
0.677032 0.798492 0.390900
0.733643 0.806335 0.401886
0.783203 0.814240 0.414703
0.822998 0.821106 0.428375
0.863281 0.828308 0.442719
0.905731 0.843018 0.458984
0.947052 0.858276 0.475800
0.989502 0.873962 0.493011
0.175751 0.752899 0.328247
0.227356 0.761871 0.329620
0.279388 0.773071 0.332123
0.305786 0.777679 0.338654
0.356995 0.786072 0.347626
0.415375 0.796814 0.356384
0.480133 0.806763 0.368744
0.549927 0.816986 0.379517
0.620300 0.827789 0.391357
0.682251 0.836884 0.404510
0.738892 0.844727 0.415466
0.792664 0.853394 0.429260
0.834381 0.860626 0.443451
0.874664 0.867828 0.457794
0.909729 0.875092 0.475525
0.951050 0.890350 0.492340
0.992706 0.905853 0.510620
0.197296 0.797699 0.335175
0.248657 0.805542 0.335968
0.300262 0.814514 0.337341
0.326691 0.819153 0.343903
0.363617 0.823242 0.353943
0.414917 0.831818 0.363220
0.479614 0.841766 0.375610
0.547424 0.851196 0.389465
0.617798 0.862000 0.401337
0.682404 0.871704 0.415558
0.744354 0.880798 0.428711
0.798126 0.889465 0.442444
0.843658 0.897430 0.457672
0.885864 0.904999 0.472565
0.920898 0.912262 0.490295
0.952850 0.919220 0.509033
0.994507 0.934723 0.527344
0.233673 0.845642 0.343750
0.285034 0.853485 0.344574
0.336426 0.861328 0.345398
0.345306 0.860870 0.352234
0.382263 0.864960 0.362305
0.419556 0.869263 0.372620
0.477417 0.877136 0.385498
0.545227 0.886566 0.399353
0.614380 0.896667 0.414124
0.678986 0.906372 0.428345
0.743591 0.916077 0.442535
0.803192 0.925873 0.458130
0.848694 0.933838 0.473328
0.894806 0.942108 0.489075
0.931824 0.949677 0.507172
0.963776 0.956604 0.525909
0.996399 0.963837 0.545319
0.082336 0.101410 0.177704
0.115356 0.104065 0.186249
0.148804 0.106750 0.194641
0.184204 0.109436 0.203766
0.218353 0.113678 0.207428
0.252441 0.117889 0.211121
0.289917 0.122375 0.216431
0.328430 0.127106 0.221863
0.366974 0.131897 0.227295
0.410278 0.136810 0.235809
0.452271 0.141846 0.243195
0.497894 0.147034 0.253235
