source/candidate_film_set/acros/look.CUBE
#Created by: Infinite Arch Leica Look Builder
#Unique Leica Look ID: 27
#Based Filmstyle Mode: Standard
TITLE "IA Acros"
LUT_3D_SIZE 5
DOMAIN_MIN 0.0 0.0 0.0
DOMAIN_MAX 1.0 1.0 1.0
0.012000 0.012000 0.012000
0.031034 0.031034 0.031034
0.084229 0.084229 0.084229
0.137405 0.137405 0.137405
0.190546 0.190546 0.190546
0.174608 0.174608 0.174608
0.227718 0.227718 0.227718
0.280778 0.280778 0.280778
0.333778 0.333778 0.333778
0.386714 0.386714 0.386714
0.370841 0.370841 0.370841
0.423728 0.423728 0.423728
0.476540 0.476540 0.476540
0.529273 0.529273 0.529273
0.581922 0.581922 0.581922
0.566136 0.566136 0.566136
0.618723 0.618723 0.618723
0.671219 0.671219 0.671219
0.723620 0.723620 0.723620
0.775921 0.775921 0.775921
0.760241 0.760241 0.760241
0.812471 0.812471 0.812471
0.864595 0.864595 0.864595
0.916611 0.916611 0.916611
0.968514 0.968514 0.968514
0.012000 0.012000 0.012000
0.046993 0.046993 0.046993
0.100185 0.100185 0.100185
0.153352 0.153352 0.153352
0.206480 0.206480 0.206480
0.190546 0.190546 0.190546
0.243642 0.243642 0.243642
0.296684 0.296684 0.296684
0.349666 0.349666 0.349666
0.402581 0.402581 0.402581
0.386714 0.386714 0.386714
0.439579 0.439579 0.439579
0.492368 0.492368 0.492368
0.545077 0.545077 0.545077
0.597699 0.597699 0.597699
0.581922 0.581922 0.581922
0.634482 0.634482 0.634482
0.686949 0.686949 0.686949
0.739321 0.739321 0.739321
0.791591 0.791591 0.791591
0.775921 0.775921 0.775921
0.828119 0.828119 0.828119
0.880211 0.880211 0.880211
0.932193 0.932193 0.932193
0.984063 0.984063 0.984063
0.012000 0.012000 0.012000
0.062952 0.062952 0.062952
0.116138 0.116138 0.116138
0.169295 0.169295 0.169295
0.222410 0.222410 0.222410
0.206480 0.206480 0.206480
0.259561 0.259561 0.259561
0.312586 0.312586 0.312586
0.365548 0.365548 0.365548
0.418442 0.418442 0.418442
0.402581 0.402581 0.402581
0.455424 0.455424 0.455424
0.508190 0.508190 0.508190
0.560873 0.560873 0.560873
0.613469 0.613469 0.613469
0.597699 0.597699 0.597699
0.650232 0.650232 0.650232
0.702671 0.702671 0.702671
0.755012 0.755012 0.755012
0.807252 0.807252 0.807252
0.791591 0.791591 0.791591
0.843758 0.843758 0.843758
0.895818 0.895818 0.895818
0.947766 0.947766 0.947766
0.999601 0.999601 0.999601
0.025714 0.025714 0.025714
0.078910 0.078910 0.078910
0.132089 0.132089 0.132089
0.185234 0.185234 0.185234
0.238335 0.238335 0.238335
0.222410 0.222410 0.222410
0.275474 0.275474 0.275474
0.328481 0.328481 0.328481
0.381424 0.381424 0.381424
0.434296 0.434296 0.434296
0.418442 0.418442 0.418442
0.471262 0.471262 0.471262
0.524003 0.524003 0.524003
0.576661 0.576661 0.576661
0.629230 0.629230 0.629230
0.613469 0.613469 0.613469
0.665974 0.665974 0.665974
0.718384 0.718384 0.718384
0.770695 0.770695 0.770695
0.822904 0.822904 0.822904
0.807252 0.807252 0.807252
0.859387 0.859387 0.859387
0.911414 0.911414 0.911414
0.963329 0.963329 0.963329
1.000000 1.000000 1.000000
0.041673 0.041673 0.041673
0.094867 0.094867 0.094867
0.148036 0.148036 0.148036
0.201169 0.201169 0.201169
0.254255 0.254255 0.254255
0.238335 0.238335 0.238335
0.291383 0.291383 0.291383
0.344371 0.344371 0.344371
0.397293 0.397293 0.397293
0.450143 0.450143 0.450143
0.434296 0.434296 0.434296
0.487093 0.487093 0.487093
0.539810 0.539810 0.539810
0.592441 0.592441 0.592441
0.644983 0.644983 0.644983
0.629230 0.629230 0.629230
0.681707 0.681707 0.681707
0.734088 0.734088 0.734088
0.786369 0.786369 0.786369
0.838546 0.838546 0.838546
0.822904 0.822904 0.822904
0.875007 0.875007 0.875007
0.927000 0.927000 0.927000
0.978881 0.978881 0.978881
1.000000 1.000000 1.000000
