source/candidate_film_set/acros/look.CUBE
#Created by: Infinite Arch Leica Look Builder
#Unique Leica Look ID: 27
#Based Filmstyle Mode: Standard
TITLE "IA Acros"
LUT_3D_SIZE 9
DOMAIN_MIN 0.0 0.0 0.0
DOMAIN_MAX 1.0 1.0 1.0
0.012000 0.012000 0.012000
0.012000 0.012000 0.012000
0.031034 0.031034 0.031034
0.057633 0.057633 0.057633
0.084229 0.084229 0.084229
0.110821 0.110821 0.110821
0.137405 0.137405 0.137405
0.163981 0.163981 0.163981
0.190546 0.190546 0.190546
0.076251 0.076251 0.076251
0.102844 0.102844 0.102844
0.129431 0.129431 0.129431
0.156009 0.156009 0.156009
0.182578 0.182578 0.182578
0.209135 0.209135 0.209135
0.235681 0.235681 0.235681
0.262213 0.262213 0.262213
0.288732 0.288732 0.288732
0.174608 0.174608 0.174608
0.201169 0.201169 0.201169
0.227718 0.227718 0.227718
0.254255 0.254255 0.254255
0.280778 0.280778 0.280778
0.307286 0.307286 0.307286
0.333778 0.333778 0.333778
0.360255 0.360255 0.360255
0.386714 0.386714 0.386714
0.272822 0.272822 0.272822
0.299335 0.299335 0.299335
0.325832 0.325832 0.325832
0.352314 0.352314 0.352314
0.378778 0.378778 0.378778
0.405225 0.405225 0.405225
0.431654 0.431654 0.431654
0.458064 0.458064 0.458064
0.484455 0.484455 0.484455
0.370841 0.370841 0.370841
0.397293 0.397293 0.397293
0.423728 0.423728 0.423728
0.450143 0.450143 0.450143
0.476540 0.476540 0.476540
0.502917 0.502917 0.502917
0.529273 0.529273 0.529273
0.555608 0.555608 0.555608
0.581922 0.581922 0.581922
0.468623 0.468623 0.468623
0.495006 0.495006 0.495006
0.521368 0.521368 0.521368
0.547710 0.547710 0.547710
0.574030 0.574030 0.574030
0.600328 0.600328 0.600328
0.626604 0.626604 0.626604
0.652856 0.652856 0.652856
0.679085 0.679085 0.679085
0.566136 0.566136 0.566136
0.592441 0.592441 0.592441
0.618723 0.618723 0.618723
0.644983 0.644983 0.644983
0.671219 0.671219 0.671219
0.697432 0.697432 0.697432
0.723620 0.723620 0.723620
0.749783 0.749783 0.749783
0.775921 0.775921 0.775921
0.663351 0.663351 0.663351
0.689570 0.689570 0.689570
0.715766 0.715766 0.715766
0.741936 0.741936 0.741936
0.768082 0.768082 0.768082
0.794202 0.794202 0.794202
0.820296 0.820296 0.820296
0.846364 0.846364 0.846364
0.872404 0.872404 0.872404
0.760241 0.760241 0.760241
0.786369 0.786369 0.786369
0.812471 0.812471 0.812471
0.838546 0.838546 0.838546
0.864595 0.864595 0.864595
0.890617 0.890617 0.890617
0.916611 0.916611 0.916611
0.942576 0.942576 0.942576
0.968514 0.968514 0.968514
0.012000 0.012000 0.012000
0.012415 0.012415 0.012415
0.039013 0.039013 0.039013
0.065612 0.065612 0.065612
0.092207 0.092207 0.092207
0.118797 0.118797 0.118797
0.145379 0.145379 0.145379
0.171951 0.171951 0.171951
0.198514 0.198514 0.198514
0.084229 0.084229 0.084229
0.110821 0.110821 0.110821
0.137405 0.137405 0.137405
0.163981 0.163981 0.163981
0.190546 0.190546 0.190546
0.217100 0.217100 0.217100
0.243642 0.243642 0.243642
0.270170 0.270170 0.270170
0.296684 0.296684 0.296684
0.182578 0.182578 0.182578
0.209135 0.209135 0.209135
0.235681 0.235681 0.235681
0.262213 0.262213 0.262213
0.288732 0.288732 0.288732
0.315235 0.315235 0.315235
0.341723 0.341723 0.341723
0.368195 0.368195 0.368195
0.394649 0.394649 0.394649
0.280778 0.280778 0.280778
0.307286 0.307286 0.307286
0.333778 0.333778 0.333778
0.360255 0.360255 0.360255
0.386714 0.386714 0.386714
0.413156 0.413156 0.413156
0.439579 0.439579 0.439579
0.465984 0.465984 0.465984
0.492368 0.492368 0.492368
0.378778 0.378778 0.378778
0.405225 0.405225 0.405225
0.431654 0.431654 0.431654
0.458064 0.458064 0.458064
0.484455 0.484455 0.484455
0.510826 0.510826 0.510826
0.537176 0.537176 0.537176
0.563504 0.563504 0.563504
0.589811 0.589811 0.589811
0.476540 0.476540 0.476540
0.502917 0.502917 0.502917
0.529273 0.529273 0.529273
0.555608 0.555608 0.555608
0.581922 0.581922 0.581922
0.608213 0.608213 0.608213
0.634482 0.634482 0.634482
0.660728 0.660728 0.660728
0.686949 0.686949 0.686949
0.574030 0.574030 0.574030
0.600328 0.600328 0.600328
0.626604 0.626604 0.626604
0.652856 0.652856 0.652856
0.679085 0.679085 0.679085
0.705291 0.705291 0.705291
0.731471 0.731471 0.731471
0.757627 0.757627 0.757627
0.783757 0.783757 0.783757
0.671219 0.671219 0.671219
0.697432 0.697432 0.697432
0.723620 0.723620 0.723620
0.749783 0.749783 0.749783
0.775921 0.775921 0.775921
0.802033 0.802033 0.802033
0.828119 0.828119 0.828119
0.854179 0.854179 0.854179
0.880211 0.880211 0.880211
0.768082 0.768082 0.768082
0.794202 0.794202 0.794202
0.820296 0.820296 0.820296
0.846364 0.846364 0.846364
0.872404 0.872404 0.872404
0.898418 0.898418 0.898418
0.924403 0.924403 0.924403
0.950361 0.950361 0.950361
0.976290 0.976290 0.976290
0.012000 0.012000 0.012000
0.020394 0.020394 0.020394
0.046993 0.046993 0.046993
0.073591 0.073591 0.073591
0.100185 0.100185 0.100185
0.126772 0.126772 0.126772
0.153352 0.153352 0.153352
0.179921 0.179921 0.179921
0.206480 0.206480 0.206480
0.092207 0.092207 0.092207
0.118797 0.118797 0.118797
0.145379 0.145379 0.145379
0.171951 0.171951 0.171951
0.198514 0.198514 0.198514
0.225064 0.225064 0.225064
0.251602 0.251602 0.251602
0.278126 0.278126 0.278126
0.304636 0.304636 0.304636
0.190546 0.190546 0.190546
0.217100 0.217100 0.217100
0.243642 0.243642 0.243642
0.270170 0.270170 0.270170
0.296684 0.296684 0.296684
0.323183 0.323183 0.323183
0.349666 0.349666 0.349666
0.376133 0.376133 0.376133
0.402581 0.402581 0.402581
0.288732 0.288732 0.288732
0.315235 0.315235 0.315235
0.341723 0.341723 0.341723
0.368195 0.368195 0.368195
0.394649 0.394649 0.394649
0.421085 0.421085 0.421085
0.447503 0.447503 0.447503
0.473901 0.473901 0.473901
0.500280 0.500280 0.500280
0.386714 0.386714 0.386714
0.413156 0.413156 0.413156
0.439579 0.439579 0.439579
0.465984 0.465984 0.465984
0.492368 0.492368 0.492368
0.518733 0.518733 0.518733
0.545077 0.545077 0.545077
0.571399 0.571399 0.571399
0.597699 0.597699 0.597699
0.484455 0.484455 0.484455
0.510826 0.510826 0.510826
0.537176 0.537176 0.537176
0.563504 0.563504 0.563504
0.589811 0.589811 0.589811
0.616096 0.616096 0.616096
0.642358 0.642358 0.642358
0.668597 0.668597 0.668597
0.694811 0.694811 0.694811
0.581922 0.581922 0.581922
0.608213 0.608213 0.608213
0.634482 0.634482 0.634482
0.660728 0.660728 0.660728
0.686949 0.686949 0.686949
0.713147 0.713147 0.713147
0.739321 0.739321 0.739321
0.765469 0.765469 0.765469
0.791591 0.791591 0.791591
0.679085 0.679085 0.679085
0.705291 0.705291 0.705291
0.731471 0.731471 0.731471
0.757627 0.757627 0.757627
0.783757 0.783757 0.783757
0.809862 0.809862 0.809862
0.835940 0.835940 0.835940
0.861991 0.861991 0.861991
0.888016 0.888016 0.888016
0.775921 0.775921 0.775921
0.802033 0.802033 0.802033
0.828119 0.828119 0.828119
0.854179 0.854179 0.854179
0.880211 0.880211 0.880211
0.906216 0.906216 0.906216
0.932193 0.932193 0.932193
0.958142 0.958142 0.958142
0.984063 0.984063 0.984063
0.012000 0.012000 0.012000
0.028374 0.028374 0.028374
0.054973 0.054973 0.054973
0.081570 0.081570 0.081570
0.108162 0.108162 0.108162
0.134747 0.134747 0.134747
0.161323 0.161323 0.161323
0.187890 0.187890 0.187890
0.214445 0.214445 0.214445
0.100185 0.100185 0.100185
0.126772 0.126772 0.126772
0.153352 0.153352 0.153352
0.179921 0.179921 0.179921
0.206480 0.206480 0.206480
0.233027 0.233027 0.233027
0.259561 0.259561 0.259561
0.286080 0.286080 0.286080
0.312586 0.312586 0.312586
0.198514 0.198514 0.198514
0.225064 0.225064 0.225064
0.251602 0.251602 0.251602
0.278126 0.278126 0.278126
0.304636 0.304636 0.304636
0.331130 0.331130 0.331130
0.357608 0.357608 0.357608
0.384069 0.384069 0.384069
0.410513 0.410513 0.410513
0.296684 0.296684 0.296684
0.323183 0.323183 0.323183
0.349666 0.349666 0.349666
0.376133 0.376133 0.376133
0.402581 0.402581 0.402581
0.429012 0.429012 0.429012
0.455424 0.455424 0.455424
0.481817 0.481817 0.481817
0.508190 0.508190 0.508190
0.394649 0.394649 0.394649
0.421085 0.421085 0.421085
0.447503 0.447503 0.447503
0.473901 0.473901 0.473901
0.500280 0.500280 0.500280
0.526638 0.526638 0.526638
0.552975 0.552975 0.552975
0.579291 0.579291 0.579291
0.605585 0.605585 0.605585
0.492368 0.492368 0.492368
0.518733 0.518733 0.518733
0.545077 0.545077 0.545077
0.571399 0.571399 0.571399
0.597699 0.597699 0.597699
0.623977 0.623977 0.623977
0.650232 0.650232 0.650232
0.676464 0.676464 0.676464
0.702671 0.702671 0.702671
0.589811 0.589811 0.589811
0.616096 0.616096 0.616096
0.642358 0.642358 0.642358
0.668597 0.668597 0.668597
0.694811 0.694811 0.694811
0.721002 0.721002 0.721002
0.747168 0.747168 0.747168
0.773308 0.773308 0.773308
0.799423 0.799423 0.799423
0.686949 0.686949 0.686949
0.713147 0.713147 0.713147
0.739321 0.739321 0.739321
0.765469 0.765469 0.765469
0.791591 0.791591 0.791591
0.817688 0.817688 0.817688
0.843758 0.843758 0.843758
0.869801 0.869801 0.869801
0.895818 0.895818 0.895818
0.783757 0.783757 0.783757
0.809862 0.809862 0.809862
0.835940 0.835940 0.835940
0.861991 0.861991 0.861991
0.888016 0.888016 0.888016
0.914012 0.914012 0.914012
0.939981 0.939981 0.939981
0.965922 0.965922 0.965922
0.991833 0.991833 0.991833
0.012000 0.012000 0.012000
0.036353 0.036353 0.036353
0.062952 0.062952 0.062952
0.089548 0.089548 0.089548
0.116138 0.116138 0.116138
0.142721 0.142721 0.142721
0.169295 0.169295 0.169295
0.195858 0.195858 0.195858
0.222410 0.222410 0.222410
0.108162 0.108162 0.108162
0.134747 0.134747 0.134747
0.161323 0.161323 0.161323
0.187890 0.187890 0.187890
0.214445 0.214445 0.214445
0.240988 0.240988 0.240988
0.267518 0.267518 0.267518
0.294034 0.294034 0.294034
0.320534 0.320534 0.320534
0.206480 0.206480 0.206480
0.233027 0.233027 0.233027
0.259561 0.259561 0.259561
0.286080 0.286080 0.286080
0.312586 0.312586 0.312586
0.339075 0.339075 0.339075
0.365548 0.365548 0.365548
0.392004 0.392004 0.392004
0.418442 0.418442 0.418442
0.304636 0.304636 0.304636
0.331130 0.331130 0.331130
0.357608 0.357608 0.357608
0.384069 0.384069 0.384069
0.410513 0.410513 0.410513
0.436938 0.436938 0.436938
0.463344 0.463344 0.463344
0.489731 0.489731 0.489731
0.516097 0.516097 0.516097
0.402581 0.402581 0.402581
0.429012 0.429012 0.429012
0.455424 0.455424 0.455424
0.481817 0.481817 0.481817
0.508190 0.508190 0.508190
0.534542 0.534542 0.534542
0.560873 0.560873 0.560873
0.587182 0.587182 0.587182
0.613469 0.613469 0.613469
0.500280 0.500280 0.500280
0.526638 0.526638 0.526638
0.552975 0.552975 0.552975
0.579291 0.579291 0.579291
0.605585 0.605585 0.605585
0.631856 0.631856 0.631856
0.658104 0.658104 0.658104
0.684328 0.684328 0.684328
0.710529 0.710529 0.710529
0.597699 0.597699 0.597699
0.623977 0.623977 0.623977
0.650232 0.650232 0.650232
0.676464 0.676464 0.676464
0.702671 0.702671 0.702671
0.728854 0.728854 0.728854
0.755012 0.755012 0.755012
0.781145 0.781145 0.781145
0.807252 0.807252 0.807252
0.694811 0.694811 0.694811
0.721002 0.721002 0.721002
0.747168 0.747168 0.747168
0.773308 0.773308 0.773308
0.799423 0.799423 0.799423
0.825512 0.825512 0.825512
0.851574 0.851574 0.851574
0.877609 0.877609 0.877609
0.903617 0.903617 0.903617
0.791591 0.791591 0.791591
0.817688 0.817688 0.817688
0.843758 0.843758 0.843758
0.869801 0.869801 0.869801
0.895818 0.895818 0.895818
0.921806 0.921806 0.921806
0.947766 0.947766 0.947766
0.973698 0.973698 0.973698
0.999601 0.999601 0.999601
0.017734 0.017734 0.017734
0.044333 0.044333 0.044333
0.070932 0.070932 0.070932
0.097526 0.097526 0.097526
0.124114 0.124114 0.124114
0.150694 0.150694 0.150694
0.177265 0.177265 0.177265
0.203825 0.203825 0.203825
0.230373 0.230373 0.230373
0.116138 0.116138 0.116138
0.142721 0.142721 0.142721
0.169295 0.169295 0.169295
0.195858 0.195858 0.195858
0.222410 0.222410 0.222410
0.248949 0.248949 0.248949
0.275474 0.275474 0.275474
0.301985 0.301985 0.301985
0.328481 0.328481 0.328481
0.214445 0.214445 0.214445
0.240988 0.240988 0.240988
0.267518 0.267518 0.267518
0.294034 0.294034 0.294034
0.320534 0.320534 0.320534
0.347019 0.347019 0.347019
0.373487 0.373487 0.373487
0.399937 0.399937 0.399937
0.426370 0.426370 0.426370
0.312586 0.312586 0.312586
0.339075 0.339075 0.339075
0.365548 0.365548 0.365548
0.392004 0.392004 0.392004
0.418442 0.418442 0.418442
0.444862 0.444862 0.444862
0.471262 0.471262 0.471262
0.497643 0.497643 0.497643
0.524003 0.524003 0.524003
0.410513 0.410513 0.410513
0.436938 0.436938 0.436938
0.463344 0.463344 0.463344
0.489731 0.489731 0.489731
0.516097 0.516097 0.516097
0.542443 0.542443 0.542443
0.568768 0.568768 0.568768
0.595070 0.595070 0.595070
0.621350 0.621350 0.621350
0.508190 0.508190 0.508190
0.534542 0.534542 0.534542
0.560873 0.560873 0.560873
0.587182 0.587182 0.587182
0.613469 0.613469 0.613469
0.639733 0.639733 0.639733
0.665974 0.665974 0.665974
0.692191 0.692191 0.692191
0.718384 0.718384 0.718384
0.605585 0.605585 0.605585
0.631856 0.631856 0.631856
0.658104 0.658104 0.658104
0.684328 0.684328 0.684328
0.710529 0.710529 0.710529
0.736704 0.736704 0.736704
0.762855 0.762855 0.762855
0.788980 0.788980 0.788980
0.815079 0.815079 0.815079
0.702671 0.702671 0.702671
0.728854 0.728854 0.728854
0.755012 0.755012 0.755012
0.781145 0.781145 0.781145
0.807252 0.807252 0.807252
0.833333 0.833333 0.833333
0.859387 0.859387 0.859387
0.885414 0.885414 0.885414
0.911414 0.911414 0.911414
0.799423 0.799423 0.799423
0.825512 0.825512 0.825512
0.851574 0.851574 0.851574
0.877609 0.877609 0.877609
0.903617 0.903617 0.903617
0.929597 0.929597 0.929597
0.955549 0.955549 0.955549
0.981472 0.981472 0.981472
1.000000 1.000000 1.000000
0.025714 0.025714 0.025714
0.052313 0.052313 0.052313
0.078910 0.078910 0.078910
0.105503 0.105503 0.105503
0.132089 0.132089 0.132089
0.158666 0.158666 0.158666
0.185234 0.185234 0.185234
0.211790 0.211790 0.211790
0.238335 0.238335 0.238335
0.124114 0.124114 0.124114
0.150694 0.150694 0.150694
0.177265 0.177265 0.177265
0.203825 0.203825 0.203825
0.230373 0.230373 0.230373
0.256908 0.256908 0.256908
0.283429 0.283429 0.283429
0.309936 0.309936 0.309936
0.336427 0.336427 0.336427
0.222410 0.222410 0.222410
0.248949 0.248949 0.248949
0.275474 0.275474 0.275474
0.301985 0.301985 0.301985
0.328481 0.328481 0.328481
0.354961 0.354961 0.354961
0.381424 0.381424 0.381424
0.407869 0.407869 0.407869
0.434296 0.434296 0.434296
0.320534 0.320534 0.320534
0.347019 0.347019 0.347019
0.373487 0.373487 0.373487
0.399937 0.399937 0.399937
0.426370 0.426370 0.426370
0.452784 0.452784 0.452784
0.479179 0.479179 0.479179
0.505553 0.505553 0.505553
0.531907 0.531907 0.531907
0.418442 0.418442 0.418442
0.444862 0.444862 0.444862
0.471262 0.471262 0.471262
0.497643 0.497643 0.497643
0.524003 0.524003 0.524003
0.550343 0.550343 0.550343
0.576661 0.576661 0.576661
0.602957 0.602957 0.602957
0.629230 0.629230 0.629230
0.516097 0.516097 0.516097
0.542443 0.542443 0.542443
0.568768 0.568768 0.568768
0.595070 0.595070 0.595070
0.621350 0.621350 0.621350
0.647608 0.647608 0.647608
0.673841 0.673841 0.673841
0.700051 0.700051 0.700051
0.726237 0.726237 0.726237
0.613469 0.613469 0.613469
0.639733 0.639733 0.639733
0.665974 0.665974 0.665974
0.692191 0.692191 0.692191
0.718384 0.718384 0.718384
0.744552 0.744552 0.744552
0.770695 0.770695 0.770695
0.796813 0.796813 0.796813
0.822904 0.822904 0.822904
0.710529 0.710529 0.710529
0.736704 0.736704 0.736704
0.762855 0.762855 0.762855
0.788980 0.788980 0.788980
0.815079 0.815079 0.815079
0.841152 0.841152 0.841152
0.867198 0.867198 0.867198
0.893217 0.893217 0.893217
0.919208 0.919208 0.919208
0.807252 0.807252 0.807252
0.833333 0.833333 0.833333
0.859387 0.859387 0.859387
0.885414 0.885414 0.885414
0.911414 0.911414 0.911414
0.937386 0.937386 0.937386
0.963329 0.963329 0.963329
0.989243 0.989243 0.989243
1.000000 1.000000 1.000000
0.033694 0.033694 0.033694
0.060293 0.060293 0.060293
0.086889 0.086889 0.086889
0.113480 0.113480 0.113480
0.140063 0.140063 0.140063
0.166638 0.166638 0.166638
0.193202 0.193202 0.193202
0.219755 0.219755 0.219755
0.246295 0.246295 0.246295
0.132089 0.132089 0.132089
0.158666 0.158666 0.158666
0.185234 0.185234 0.185234
0.211790 0.211790 0.211790
0.238335 0.238335 0.238335
0.264866 0.264866 0.264866
0.291383 0.291383 0.291383
0.317885 0.317885 0.317885
0.344371 0.344371 0.344371
0.230373 0.230373 0.230373
0.256908 0.256908 0.256908
0.283429 0.283429 0.283429
0.309936 0.309936 0.309936
0.336427 0.336427 0.336427
0.362902 0.362902 0.362902
0.389359 0.389359 0.389359
0.415799 0.415799 0.415799
0.442221 0.442221 0.442221
0.328481 0.328481 0.328481
0.354961 0.354961 0.354961
0.381424 0.381424 0.381424
0.407869 0.407869 0.407869
0.434296 0.434296 0.434296
0.460704 0.460704 0.460704
0.487093 0.487093 0.487093
0.513462 0.513462 0.513462
0.539810 0.539810 0.539810
0.426370 0.426370 0.426370
0.452784 0.452784 0.452784
0.479179 0.479179 0.479179
0.505553 0.505553 0.505553
0.531907 0.531907 0.531907
0.558240 0.558240 0.558240
0.584552 0.584552 0.584552
0.610841 0.610841 0.610841
0.637107 0.637107 0.637107
0.524003 0.524003 0.524003
0.550343 0.550343 0.550343
0.576661 0.576661 0.576661
0.602957 0.602957 0.602957
0.629230 0.629230 0.629230
0.655480 0.655480 0.655480
0.681707 0.681707 0.681707
0.707910 0.707910 0.707910
0.734088 0.734088 0.734088
0.621350 0.621350 0.621350
0.647608 0.647608 0.647608
0.673841 0.673841 0.673841
0.700051 0.700051 0.700051
0.726237 0.726237 0.726237
0.752398 0.752398 0.752398
0.778533 0.778533 0.778533
0.804643 0.804643 0.804643
0.830726 0.830726 0.830726
0.718384 0.718384 0.718384
0.744552 0.744552 0.744552
0.770695 0.770695 0.770695
0.796813 0.796813 0.796813
0.822904 0.822904 0.822904
0.848969 0.848969 0.848969
0.875007 0.875007 0.875007
0.901017 0.901017 0.901017
0.927000 0.927000 0.927000
0.815079 0.815079 0.815079
0.841152 0.841152 0.841152
0.867198 0.867198 0.867198
0.893217 0.893217 0.893217
0.919208 0.919208 0.919208
0.945172 0.945172 0.945172
0.971106 0.971106 0.971106
0.997012 0.997012 0.997012
1.000000 1.000000 1.000000
0.041673 0.041673 0.041673
0.068272 0.068272 0.068272
0.094867 0.094867 0.094867
0.121455 0.121455 0.121455
0.148036 0.148036 0.148036
0.174608 0.174608 0.174608
0.201169 0.201169 0.201169
0.227718 0.227718 0.227718
0.254255 0.254255 0.254255
0.140063 0.140063 0.140063
0.166638 0.166638 0.166638
0.193202 0.193202 0.193202
0.219755 0.219755 0.219755
0.246295 0.246295 0.246295
0.272822 0.272822 0.272822
0.299335 0.299335 0.299335
0.325832 0.325832 0.325832
0.352314 0.352314 0.352314
0.238335 0.238335 0.238335
0.264866 0.264866 0.264866
0.291383 0.291383 0.291383
0.317885 0.317885 0.317885
0.344371 0.344371 0.344371
0.370841 0.370841 0.370841
0.397293 0.397293 0.397293
0.423728 0.423728 0.423728
0.450143 0.450143 0.450143
0.336427 0.336427 0.336427
0.362902 0.362902 0.362902
0.389359 0.389359 0.389359
0.415799 0.415799 0.415799
0.442221 0.442221 0.442221
0.468623 0.468623 0.468623
0.495006 0.495006 0.495006
0.521368 0.521368 0.521368
0.547710 0.547710 0.547710
0.434296 0.434296 0.434296
0.460704 0.460704 0.460704
0.487093 0.487093 0.487093
0.513462 0.513462 0.513462
0.539810 0.539810 0.539810
0.566136 0.566136 0.566136
0.592441 0.592441 0.592441
0.618723 0.618723 0.618723
0.644983 0.644983 0.644983
0.531907 0.531907 0.531907
0.558240 0.558240 0.558240
0.584552 0.584552 0.584552
0.610841 0.610841 0.610841
0.637107 0.637107 0.637107
0.663351 0.663351 0.663351
0.689570 0.689570 0.689570
0.715766 0.715766 0.715766
0.741936 0.741936 0.741936
0.629230 0.629230 0.629230
0.655480 0.655480 0.655480
0.681707 0.681707 0.681707
0.707910 0.707910 0.707910
0.734088 0.734088 0.734088
0.760241 0.760241 0.760241
0.786369 0.786369 0.786369
0.812471 0.812471 0.812471
0.838546 0.838546 0.838546
0.726237 0.726237 0.726237
0.752398 0.752398 0.752398
0.778533 0.778533 0.778533
0.804643 0.804643 0.804643
0.830726 0.830726 0.830726
0.856783 0.856783 0.856783
0.882813 0.882813 0.882813
0.908815 0.908815 0.908815
0.934790 0.934790 0.934790
0.822904 0.822904 0.822904
0.848969 0.848969 0.848969
0.875007 0.875007 0.875007
0.901017 0.901017 0.901017
0.927000 0.927000 0.927000
0.952955 0.952955 0.952955
0.978881 0.978881 0.978881
1.000000 1.000000 1.000000
1.000000 1.000000 1.000000
