source/candidate_film_set/acros/look.CUBE
#Created by: Infinite Arch Leica Look Builder
#Unique Leica Look ID: 27
#Based Filmstyle Mode: Standard
TITLE "IA Acros"
LUT_3D_SIZE 17
DOMAIN_MIN 0.0 0.0 0.0
DOMAIN_MAX 1.0 1.0 1.0
0.012000 0.012000 0.012000
0.012000 0.012000 0.012000
0.012000 0.012000 0.012000
0.017734 0.017734 0.017734
0.031034 0.031034 0.031034
0.044333 0.044333 0.044333
0.057633 0.057633 0.057633
0.070932 0.070932 0.070932
0.084229 0.084229 0.084229
0.097526 0.097526 0.097526
0.110821 0.110821 0.110821
0.124114 0.124114 0.124114
0.137405 0.137405 0.137405
0.150694 0.150694 0.150694
0.163981 0.163981 0.163981
0.177265 0.177265 0.177265
0.190546 0.190546 0.190546
0.027044 0.027044 0.027044
0.040343 0.040343 0.040343
0.053643 0.053643 0.053643
0.066942 0.066942 0.066942
0.080240 0.080240 0.080240
0.093537 0.093537 0.093537
0.106833 0.106833 0.106833
0.120126 0.120126 0.120126
0.133418 0.133418 0.133418
0.146708 0.146708 0.146708
0.159995 0.159995 0.159995
0.173280 0.173280 0.173280
0.186562 0.186562 0.186562
0.199841 0.199841 0.199841
0.213118 0.213118 0.213118
0.226391 0.226391 0.226391
0.239661 0.239661 0.239661
0.076251 0.076251 0.076251
0.089548 0.089548 0.089548
0.102844 0.102844 0.102844
0.116138 0.116138 0.116138
0.129431 0.129431 0.129431
0.142721 0.142721 0.142721
0.156009 0.156009 0.156009
0.169295 0.169295 0.169295
0.182578 0.182578 0.182578
0.195858 0.195858 0.195858
0.209135 0.209135 0.209135
0.222410 0.222410 0.222410
0.235681 0.235681 0.235681
0.248949 0.248949 0.248949
0.262213 0.262213 0.262213
0.275474 0.275474 0.275474
0.288732 0.288732 0.288732
0.125443 0.125443 0.125443
0.138734 0.138734 0.138734
0.152023 0.152023 0.152023
0.165309 0.165309 0.165309
0.178593 0.178593 0.178593
0.191874 0.191874 0.191874
0.205152 0.205152 0.205152
0.218428 0.218428 0.218428
0.231700 0.231700 0.231700
0.244969 0.244969 0.244969
0.258234 0.258234 0.258234
0.271496 0.271496 0.271496
0.284755 0.284755 0.284755
0.298010 0.298010 0.298010
0.311261 0.311261 0.311261
0.324508 0.324508 0.324508
0.337751 0.337751 0.337751
0.174608 0.174608 0.174608
0.187890 0.187890 0.187890
0.201169 0.201169 0.201169
0.214445 0.214445 0.214445
0.227718 0.227718 0.227718
0.240988 0.240988 0.240988
0.254255 0.254255 0.254255
0.267518 0.267518 0.267518
0.280778 0.280778 0.280778
0.294034 0.294034 0.294034
0.307286 0.307286 0.307286
0.320534 0.320534 0.320534
0.333778 0.333778 0.333778
0.347019 0.347019 0.347019
0.360255 0.360255 0.360255
0.373487 0.373487 0.373487
0.386714 0.386714 0.386714
0.223737 0.223737 0.223737
0.237008 0.237008 0.237008
0.250275 0.250275 0.250275
0.263539 0.263539 0.263539
0.276800 0.276800 0.276800
0.290057 0.290057 0.290057
0.303311 0.303311 0.303311
0.316560 0.316560 0.316560
0.329806 0.329806 0.329806
0.343047 0.343047 0.343047
0.356284 0.356284 0.356284
0.369518 0.369518 0.369518
0.382746 0.382746 0.382746
0.395971 0.395971 0.395971
0.409191 0.409191 0.409191
0.422406 0.422406 0.422406
0.435617 0.435617 0.435617
0.272822 0.272822 0.272822
0.286080 0.286080 0.286080
0.299335 0.299335 0.299335
0.312586 0.312586 0.312586
0.325832 0.325832 0.325832
0.339075 0.339075 0.339075
0.352314 0.352314 0.352314
0.365548 0.365548 0.365548
0.378778 0.378778 0.378778
0.392004 0.392004 0.392004
0.405225 0.405225 0.405225
0.418442 0.418442 0.418442
0.431654 0.431654 0.431654
0.444862 0.444862 0.444862
0.458064 0.458064 0.458064
0.471262 0.471262 0.471262
0.484455 0.484455 0.484455
0.321859 0.321859 0.321859
0.335103 0.335103 0.335103
0.348343 0.348343 0.348343
0.361578 0.361578 0.361578
0.374810 0.374810 0.374810
0.388037 0.388037 0.388037
0.401259 0.401259 0.401259
0.414478 0.414478 0.414478
0.427691 0.427691 0.427691
0.440900 0.440900 0.440900
0.454104 0.454104 0.454104
0.467303 0.467303 0.467303
0.480498 0.480498 0.480498
0.493687 0.493687 0.493687
0.506871 0.506871 0.506871
0.520051 0.520051 0.520051
0.533225 0.533225 0.533225
0.370841 0.370841 0.370841
0.384069 0.384069 0.384069
0.397293 0.397293 0.397293
0.410513 0.410513 0.410513
0.423728 0.423728 0.423728
0.436938 0.436938 0.436938
0.450143 0.450143 0.450143
0.463344 0.463344 0.463344
0.476540 0.476540 0.476540
0.489731 0.489731 0.489731
0.502917 0.502917 0.502917
0.516097 0.516097 0.516097
0.529273 0.529273 0.529273
0.542443 0.542443 0.542443
0.555608 0.555608 0.555608
0.568768 0.568768 0.568768
0.581922 0.581922 0.581922
0.419764 0.419764 0.419764
0.432975 0.432975 0.432975
0.446182 0.446182 0.446182
0.459384 0.459384 0.459384
0.472582 0.472582 0.472582
0.485774 0.485774 0.485774
0.498961 0.498961 0.498961
0.512144 0.512144 0.512144
0.525321 0.525321 0.525321
0.538493 0.538493 0.538493
0.551659 0.551659 0.551659
0.564820 0.564820 0.564820
0.577976 0.577976 0.577976
0.591126 0.591126 0.591126
0.604271 0.604271 0.604271
0.617410 0.617410 0.617410
0.630543 0.630543 0.630543
0.468623 0.468623 0.468623
0.481817 0.481817 0.481817
0.495006 0.495006 0.495006
0.508190 0.508190 0.508190
0.521368 0.521368 0.521368
0.534542 0.534542 0.534542
0.547710 0.547710 0.547710
0.560873 0.560873 0.560873
0.574030 0.574030 0.574030
0.587182 0.587182 0.587182
0.600328 0.600328 0.600328
0.613469 0.613469 0.613469
0.626604 0.626604 0.626604
0.639733 0.639733 0.639733
0.652856 0.652856 0.652856
0.665974 0.665974 0.665974
0.679085 0.679085 0.679085
0.517415 0.517415 0.517415
0.530590 0.530590 0.530590
0.543760 0.543760 0.543760
0.556924 0.556924 0.556924
0.570083 0.570083 0.570083
0.583237 0.583237 0.583237
0.596385 0.596385 0.596385
0.609527 0.609527 0.609527
0.622664 0.622664 0.622664
0.635795 0.635795 0.635795
0.648920 0.648920 0.648920
0.662039 0.662039 0.662039
0.675153 0.675153 0.675153
0.688260 0.688260 0.688260
0.701361 0.701361 0.701361
0.714457 0.714457 0.714457
0.727546 0.727546 0.727546
0.566136 0.566136 0.566136
0.579291 0.579291 0.579291
0.592441 0.592441 0.592441
0.605585 0.605585 0.605585
0.618723 0.618723 0.618723
0.631856 0.631856 0.631856
0.644983 0.644983 0.644983
0.658104 0.658104 0.658104
0.671219 0.671219 0.671219
0.684328 0.684328 0.684328
0.697432 0.697432 0.697432
0.710529 0.710529 0.710529
0.723620 0.723620 0.723620
0.736704 0.736704 0.736704
0.749783 0.749783 0.749783
0.762855 0.762855 0.762855
0.775921 0.775921 0.775921
0.614782 0.614782 0.614782
0.627917 0.627917 0.627917
0.641045 0.641045 0.641045
0.654168 0.654168 0.654168
0.667285 0.667285 0.667285
0.680396 0.680396 0.680396
0.693501 0.693501 0.693501
0.706600 0.706600 0.706600
0.719693 0.719693 0.719693
0.732780 0.732780 0.732780
0.745860 0.745860 0.745860
0.758934 0.758934 0.758934
0.772002 0.772002 0.772002
0.785063 0.785063 0.785063
0.798118 0.798118 0.798118
0.811166 0.811166 0.811166
0.824208 0.824208 0.824208
0.663351 0.663351 0.663351
0.676464 0.676464 0.676464
0.689570 0.689570 0.689570
0.702671 0.702671 0.702671
0.715766 0.715766 0.715766
0.728854 0.728854 0.728854
0.741936 0.741936 0.741936
0.755012 0.755012 0.755012
0.768082 0.768082 0.768082
0.781145 0.781145 0.781145
0.794202 0.794202 0.794202
0.807252 0.807252 0.807252
0.820296 0.820296 0.820296
0.833333 0.833333 0.833333
0.846364 0.846364 0.846364
0.859387 0.859387 0.859387
0.872404 0.872404 0.872404
0.711838 0.711838 0.711838
0.724928 0.724928 0.724928
0.738012 0.738012 0.738012
0.751090 0.751090 0.751090
0.764162 0.764162 0.764162
0.777227 0.777227 0.777227
0.790286 0.790286 0.790286
0.803338 0.803338 0.803338
0.816384 0.816384 0.816384
0.829423 0.829423 0.829423
0.842455 0.842455 0.842455
0.855481 0.855481 0.855481
0.868500 0.868500 0.868500
0.881512 0.881512 0.881512
0.894517 0.894517 0.894517
0.907516 0.907516 0.907516
0.920507 0.920507 0.920507
0.760241 0.760241 0.760241
0.773308 0.773308 0.773308
0.786369 0.786369 0.786369
0.799423 0.799423 0.799423
0.812471 0.812471 0.812471
0.825512 0.825512 0.825512
0.838546 0.838546 0.838546
0.851574 0.851574 0.851574
0.864595 0.864595 0.864595
0.877609 0.877609 0.877609
0.890617 0.890617 0.890617
0.903617 0.903617 0.903617
0.916611 0.916611 0.916611
0.929597 0.929597 0.929597
0.942576 0.942576 0.942576
0.955549 0.955549 0.955549
0.968514 0.968514 0.968514
0.012000 0.012000 0.012000
0.012000 0.012000 0.012000
0.012000 0.012000 0.012000
0.021724 0.021724 0.021724
0.035023 0.035023 0.035023
0.048323 0.048323 0.048323
0.061623 0.061623 0.061623
0.074921 0.074921 0.074921
0.088218 0.088218 0.088218
0.101515 0.101515 0.101515
0.114809 0.114809 0.114809
0.128101 0.128101 0.128101
0.141392 0.141392 0.141392
0.154680 0.154680 0.154680
0.167966 0.167966 0.167966
0.181249 0.181249 0.181249
0.194530 0.194530 0.194530
0.031034 0.031034 0.031034
0.044333 0.044333 0.044333
0.057633 0.057633 0.057633
0.070932 0.070932 0.070932
0.084229 0.084229 0.084229
0.097526 0.097526 0.097526
0.110821 0.110821 0.110821
0.124114 0.124114 0.124114
0.137405 0.137405 0.137405
0.150694 0.150694 0.150694
0.163981 0.163981 0.163981
0.177265 0.177265 0.177265
0.190546 0.190546 0.190546
0.203825 0.203825 0.203825
0.217100 0.217100 0.217100
0.230373 0.230373 0.230373
0.243642 0.243642 0.243642
0.080240 0.080240 0.080240
0.093537 0.093537 0.093537
0.106833 0.106833 0.106833
0.120126 0.120126 0.120126
0.133418 0.133418 0.133418
0.146708 0.146708 0.146708
0.159995 0.159995 0.159995
0.173280 0.173280 0.173280
0.186562 0.186562 0.186562
0.199841 0.199841 0.199841
0.213118 0.213118 0.213118
0.226391 0.226391 0.226391
0.239661 0.239661 0.239661
0.252928 0.252928 0.252928
0.266192 0.266192 0.266192
0.279452 0.279452 0.279452
0.292708 0.292708 0.292708
0.129431 0.129431 0.129431
0.142721 0.142721 0.142721
0.156009 0.156009 0.156009
0.169295 0.169295 0.169295
0.182578 0.182578 0.182578
0.195858 0.195858 0.195858
0.209135 0.209135 0.209135
0.222410 0.222410 0.222410
0.235681 0.235681 0.235681
0.248949 0.248949 0.248949
0.262213 0.262213 0.262213
0.275474 0.275474 0.275474
0.288732 0.288732 0.288732
0.301985 0.301985 0.301985
0.315235 0.315235 0.315235
0.328481 0.328481 0.328481
0.341723 0.341723 0.341723
0.178593 0.178593 0.178593
0.191874 0.191874 0.191874
0.205152 0.205152 0.205152
0.218428 0.218428 0.218428
0.231700 0.231700 0.231700
0.244969 0.244969 0.244969
0.258234 0.258234 0.258234
0.271496 0.271496 0.271496
0.284755 0.284755 0.284755
0.298010 0.298010 0.298010
0.311261 0.311261 0.311261
0.324508 0.324508 0.324508
0.337751 0.337751 0.337751
0.350990 0.350990 0.350990
0.364225 0.364225 0.364225
0.377455 0.377455 0.377455
0.390682 0.390682 0.390682
0.227718 0.227718 0.227718
0.240988 0.240988 0.240988
0.254255 0.254255 0.254255
0.267518 0.267518 0.267518
0.280778 0.280778 0.280778
0.294034 0.294034 0.294034
0.307286 0.307286 0.307286
0.320534 0.320534 0.320534
0.333778 0.333778 0.333778
0.347019 0.347019 0.347019
0.360255 0.360255 0.360255
0.373487 0.373487 0.373487
0.386714 0.386714 0.386714
0.399937 0.399937 0.399937
0.413156 0.413156 0.413156
0.426370 0.426370 0.426370
0.439579 0.439579 0.439579
0.276800 0.276800 0.276800
0.290057 0.290057 0.290057
0.303311 0.303311 0.303311
0.316560 0.316560 0.316560
0.329806 0.329806 0.329806
0.343047 0.343047 0.343047
0.356284 0.356284 0.356284
0.369518 0.369518 0.369518
0.382746 0.382746 0.382746
0.395971 0.395971 0.395971
0.409191 0.409191 0.409191
0.422406 0.422406 0.422406
0.435617 0.435617 0.435617
0.448823 0.448823 0.448823
0.462024 0.462024 0.462024
0.475221 0.475221 0.475221
0.488412 0.488412 0.488412
0.325832 0.325832 0.325832
0.339075 0.339075 0.339075
0.352314 0.352314 0.352314
0.365548 0.365548 0.365548
0.378778 0.378778 0.378778
0.392004 0.392004 0.392004
0.405225 0.405225 0.405225
0.418442 0.418442 0.418442
0.431654 0.431654 0.431654
0.444862 0.444862 0.444862
0.458064 0.458064 0.458064
0.471262 0.471262 0.471262
0.484455 0.484455 0.484455
0.497643 0.497643 0.497643
0.510826 0.510826 0.510826
0.524003 0.524003 0.524003
0.537176 0.537176 0.537176
0.374810 0.374810 0.374810
0.388037 0.388037 0.388037
0.401259 0.401259 0.401259
0.414478 0.414478 0.414478
0.427691 0.427691 0.427691
0.440900 0.440900 0.440900
0.454104 0.454104 0.454104
0.467303 0.467303 0.467303
0.480498 0.480498 0.480498
0.493687 0.493687 0.493687
0.506871 0.506871 0.506871
0.520051 0.520051 0.520051
0.533225 0.533225 0.533225
0.546393 0.546393 0.546393
0.559556 0.559556 0.559556
0.572714 0.572714 0.572714
0.585867 0.585867 0.585867
0.423728 0.423728 0.423728
0.436938 0.436938 0.436938
0.450143 0.450143 0.450143
0.463344 0.463344 0.463344
0.476540 0.476540 0.476540
0.489731 0.489731 0.489731
0.502917 0.502917 0.502917
0.516097 0.516097 0.516097
0.529273 0.529273 0.529273
0.542443 0.542443 0.542443
0.555608 0.555608 0.555608
0.568768 0.568768 0.568768
0.581922 0.581922 0.581922
0.595070 0.595070 0.595070
0.608213 0.608213 0.608213
0.621350 0.621350 0.621350
0.634482 0.634482 0.634482
0.472582 0.472582 0.472582
0.485774 0.485774 0.485774
0.498961 0.498961 0.498961
0.512144 0.512144 0.512144
0.525321 0.525321 0.525321
0.538493 0.538493 0.538493
0.551659 0.551659 0.551659
0.564820 0.564820 0.564820
0.577976 0.577976 0.577976
0.591126 0.591126 0.591126
0.604271 0.604271 0.604271
0.617410 0.617410 0.617410
0.630543 0.630543 0.630543
0.643671 0.643671 0.643671
0.656792 0.656792 0.656792
0.669908 0.669908 0.669908
0.683018 0.683018 0.683018
0.521368 0.521368 0.521368
0.534542 0.534542 0.534542
0.547710 0.547710 0.547710
0.560873 0.560873 0.560873
0.574030 0.574030 0.574030
0.587182 0.587182 0.587182
0.600328 0.600328 0.600328
0.613469 0.613469 0.613469
0.626604 0.626604 0.626604
0.639733 0.639733 0.639733
0.652856 0.652856 0.652856
0.665974 0.665974 0.665974
0.679085 0.679085 0.679085
0.692191 0.692191 0.692191
0.705291 0.705291 0.705291
0.718384 0.718384 0.718384
0.731471 0.731471 0.731471
0.570083 0.570083 0.570083
0.583237 0.583237 0.583237
0.596385 0.596385 0.596385
0.609527 0.609527 0.609527
0.622664 0.622664 0.622664
0.635795 0.635795 0.635795
0.648920 0.648920 0.648920
0.662039 0.662039 0.662039
0.675153 0.675153 0.675153
0.688260 0.688260 0.688260
0.701361 0.701361 0.701361
0.714457 0.714457 0.714457
0.727546 0.727546 0.727546
0.740629 0.740629 0.740629
0.753705 0.753705 0.753705
0.766775 0.766775 0.766775
0.779839 0.779839 0.779839
0.618723 0.618723 0.618723
0.631856 0.631856 0.631856
0.644983 0.644983 0.644983
0.658104 0.658104 0.658104
0.671219 0.671219 0.671219
0.684328 0.684328 0.684328
0.697432 0.697432 0.697432
0.710529 0.710529 0.710529
0.723620 0.723620 0.723620
0.736704 0.736704 0.736704
0.749783 0.749783 0.749783
0.762855 0.762855 0.762855
0.775921 0.775921 0.775921
0.788980 0.788980 0.788980
0.802033 0.802033 0.802033
0.815079 0.815079 0.815079
0.828119 0.828119 0.828119
0.667285 0.667285 0.667285
0.680396 0.680396 0.680396
0.693501 0.693501 0.693501
0.706600 0.706600 0.706600
0.719693 0.719693 0.719693
0.732780 0.732780 0.732780
0.745860 0.745860 0.745860
0.758934 0.758934 0.758934
0.772002 0.772002 0.772002
0.785063 0.785063 0.785063
0.798118 0.798118 0.798118
0.811166 0.811166 0.811166
0.824208 0.824208 0.824208
0.837243 0.837243 0.837243
0.850271 0.850271 0.850271
0.863293 0.863293 0.863293
0.876308 0.876308 0.876308
0.715766 0.715766 0.715766
0.728854 0.728854 0.728854
0.741936 0.741936 0.741936
0.755012 0.755012 0.755012
0.768082 0.768082 0.768082
0.781145 0.781145 0.781145
0.794202 0.794202 0.794202
0.807252 0.807252 0.807252
0.820296 0.820296 0.820296
0.833333 0.833333 0.833333
0.846364 0.846364 0.846364
0.859387 0.859387 0.859387
0.872404 0.872404 0.872404
0.885414 0.885414 0.885414
0.898418 0.898418 0.898418
0.911414 0.911414 0.911414
0.924403 0.924403 0.924403
0.764162 0.764162 0.764162
0.777227 0.777227 0.777227
0.790286 0.790286 0.790286
0.803338 0.803338 0.803338
0.816384 0.816384 0.816384
0.829423 0.829423 0.829423
0.842455 0.842455 0.842455
0.855481 0.855481 0.855481
0.868500 0.868500 0.868500
0.881512 0.881512 0.881512
0.894517 0.894517 0.894517
0.907516 0.907516 0.907516
0.920507 0.920507 0.920507
0.933492 0.933492 0.933492
0.946469 0.946469 0.946469
0.959439 0.959439 0.959439
0.972402 0.972402 0.972402
0.012000 0.012000 0.012000
0.012000 0.012000 0.012000
0.012415 0.012415 0.012415
0.025714 0.025714 0.025714
0.039013 0.039013 0.039013
0.052313 0.052313 0.052313
0.065612 0.065612 0.065612
0.078910 0.078910 0.078910
0.092207 0.092207 0.092207
0.105503 0.105503 0.105503
0.118797 0.118797 0.118797
0.132089 0.132089 0.132089
0.145379 0.145379 0.145379
0.158666 0.158666 0.158666
0.171951 0.171951 0.171951
0.185234 0.185234 0.185234
0.198514 0.198514 0.198514
0.035023 0.035023 0.035023
0.048323 0.048323 0.048323
0.061623 0.061623 0.061623
0.074921 0.074921 0.074921
0.088218 0.088218 0.088218
0.101515 0.101515 0.101515
0.114809 0.114809 0.114809
0.128101 0.128101 0.128101
0.141392 0.141392 0.141392
0.154680 0.154680 0.154680
0.167966 0.167966 0.167966
0.181249 0.181249 0.181249
0.194530 0.194530 0.194530
0.207808 0.207808 0.207808
0.221082 0.221082 0.221082
0.234354 0.234354 0.234354
0.247622 0.247622 0.247622
0.084229 0.084229 0.084229
0.097526 0.097526 0.097526
0.110821 0.110821 0.110821
0.124114 0.124114 0.124114
0.137405 0.137405 0.137405
0.150694 0.150694 0.150694
0.163981 0.163981 0.163981
0.177265 0.177265 0.177265
0.190546 0.190546 0.190546
0.203825 0.203825 0.203825
0.217100 0.217100 0.217100
0.230373 0.230373 0.230373
0.243642 0.243642 0.243642
0.256908 0.256908 0.256908
0.270170 0.270170 0.270170
0.283429 0.283429 0.283429
0.296684 0.296684 0.296684
0.133418 0.133418 0.133418
0.146708 0.146708 0.146708
0.159995 0.159995 0.159995
0.173280 0.173280 0.173280
0.186562 0.186562 0.186562
0.199841 0.199841 0.199841
0.213118 0.213118 0.213118
0.226391 0.226391 0.226391
0.239661 0.239661 0.239661
0.252928 0.252928 0.252928
0.266192 0.266192 0.266192
0.279452 0.279452 0.279452
0.292708 0.292708 0.292708
0.305961 0.305961 0.305961
0.319209 0.319209 0.319209
0.332454 0.332454 0.332454
0.345695 0.345695 0.345695
0.182578 0.182578 0.182578
0.195858 0.195858 0.195858
0.209135 0.209135 0.209135
0.222410 0.222410 0.222410
0.235681 0.235681 0.235681
0.248949 0.248949 0.248949
0.262213 0.262213 0.262213
0.275474 0.275474 0.275474
0.288732 0.288732 0.288732
0.301985 0.301985 0.301985
0.315235 0.315235 0.315235
0.328481 0.328481 0.328481
0.341723 0.341723 0.341723
0.354961 0.354961 0.354961
0.368195 0.368195 0.368195
0.381424 0.381424 0.381424
0.394649 0.394649 0.394649
0.231700 0.231700 0.231700
0.244969 0.244969 0.244969
0.258234 0.258234 0.258234
0.271496 0.271496 0.271496
0.284755 0.284755 0.284755
0.298010 0.298010 0.298010
0.311261 0.311261 0.311261
0.324508 0.324508 0.324508
0.337751 0.337751 0.337751
0.350990 0.350990 0.350990
0.364225 0.364225 0.364225
0.377455 0.377455 0.377455
0.390682 0.390682 0.390682
0.403903 0.403903 0.403903
0.417121 0.417121 0.417121
0.430333 0.430333 0.430333
0.443541 0.443541 0.443541
0.280778 0.280778 0.280778
0.294034 0.294034 0.294034
0.307286 0.307286 0.307286
0.320534 0.320534 0.320534
0.333778 0.333778 0.333778
0.347019 0.347019 0.347019
0.360255 0.360255 0.360255
0.373487 0.373487 0.373487
0.386714 0.386714 0.386714
0.399937 0.399937 0.399937
0.413156 0.413156 0.413156
0.426370 0.426370 0.426370
0.439579 0.439579 0.439579
0.452784 0.452784 0.452784
0.465984 0.465984 0.465984
0.479179 0.479179 0.479179
0.492368 0.492368 0.492368
0.329806 0.329806 0.329806
0.343047 0.343047 0.343047
0.356284 0.356284 0.356284
0.369518 0.369518 0.369518
0.382746 0.382746 0.382746
0.395971 0.395971 0.395971
0.409191 0.409191 0.409191
0.422406 0.422406 0.422406
0.435617 0.435617 0.435617
0.448823 0.448823 0.448823
0.462024 0.462024 0.462024
0.475221 0.475221 0.475221
0.488412 0.488412 0.488412
0.501598 0.501598 0.501598
0.514780 0.514780 0.514780
0.527956 0.527956 0.527956
0.541126 0.541126 0.541126
0.378778 0.378778 0.378778
0.392004 0.392004 0.392004
0.405225 0.405225 0.405225
0.418442 0.418442 0.418442
0.431654 0.431654 0.431654
0.444862 0.444862 0.444862
0.458064 0.458064 0.458064
0.471262 0.471262 0.471262
0.484455 0.484455 0.484455
0.497643 0.497643 0.497643
0.510826 0.510826 0.510826
0.524003 0.524003 0.524003
0.537176 0.537176 0.537176
0.550343 0.550343 0.550343
0.563504 0.563504 0.563504
0.576661 0.576661 0.576661
0.589811 0.589811 0.589811
0.427691 0.427691 0.427691
0.440900 0.440900 0.440900
0.454104 0.454104 0.454104
0.467303 0.467303 0.467303
0.480498 0.480498 0.480498
0.493687 0.493687 0.493687
0.506871 0.506871 0.506871
0.520051 0.520051 0.520051
0.533225 0.533225 0.533225
0.546393 0.546393 0.546393
0.559556 0.559556 0.559556
0.572714 0.572714 0.572714
0.585867 0.585867 0.585867
0.599014 0.599014 0.599014
0.612155 0.612155 0.612155
0.625290 0.625290 0.625290
0.638420 0.638420 0.638420
0.476540 0.476540 0.476540
0.489731 0.489731 0.489731
0.502917 0.502917 0.502917
0.516097 0.516097 0.516097
0.529273 0.529273 0.529273
0.542443 0.542443 0.542443
0.555608 0.555608 0.555608
0.568768 0.568768 0.568768
0.581922 0.581922 0.581922
0.595070 0.595070 0.595070
0.608213 0.608213 0.608213
0.621350 0.621350 0.621350
0.634482 0.634482 0.634482
0.647608 0.647608 0.647608
0.660728 0.660728 0.660728
0.673841 0.673841 0.673841
0.686949 0.686949 0.686949
0.525321 0.525321 0.525321
0.538493 0.538493 0.538493
0.551659 0.551659 0.551659
0.564820 0.564820 0.564820
0.577976 0.577976 0.577976
0.591126 0.591126 0.591126
0.604271 0.604271 0.604271
0.617410 0.617410 0.617410
0.630543 0.630543 0.630543
0.643671 0.643671 0.643671
0.656792 0.656792 0.656792
0.669908 0.669908 0.669908
0.683018 0.683018 0.683018
0.696121 0.696121 0.696121
0.709219 0.709219 0.709219
0.722311 0.722311 0.722311
0.735396 0.735396 0.735396
0.574030 0.574030 0.574030
0.587182 0.587182 0.587182
0.600328 0.600328 0.600328
0.613469 0.613469 0.613469
0.626604 0.626604 0.626604
0.639733 0.639733 0.639733
0.652856 0.652856 0.652856
0.665974 0.665974 0.665974
0.679085 0.679085 0.679085
0.692191 0.692191 0.692191
0.705291 0.705291 0.705291
0.718384 0.718384 0.718384
0.731471 0.731471 0.731471
0.744552 0.744552 0.744552
0.757627 0.757627 0.757627
0.770695 0.770695 0.770695
0.783757 0.783757 0.783757
0.622664 0.622664 0.622664
0.635795 0.635795 0.635795
0.648920 0.648920 0.648920
0.662039 0.662039 0.662039
0.675153 0.675153 0.675153
0.688260 0.688260 0.688260
0.701361 0.701361 0.701361
0.714457 0.714457 0.714457
0.727546 0.727546 0.727546
0.740629 0.740629 0.740629
0.753705 0.753705 0.753705
0.766775 0.766775 0.766775
0.779839 0.779839 0.779839
0.792897 0.792897 0.792897
0.805948 0.805948 0.805948
0.818992 0.818992 0.818992
0.832030 0.832030 0.832030
0.671219 0.671219 0.671219
0.684328 0.684328 0.684328
0.697432 0.697432 0.697432
0.710529 0.710529 0.710529
0.723620 0.723620 0.723620
0.736704 0.736704 0.736704
0.749783 0.749783 0.749783
0.762855 0.762855 0.762855
0.775921 0.775921 0.775921
0.788980 0.788980 0.788980
0.802033 0.802033 0.802033
0.815079 0.815079 0.815079
0.828119 0.828119 0.828119
0.841152 0.841152 0.841152
0.854179 0.854179 0.854179
0.867198 0.867198 0.867198
0.880211 0.880211 0.880211
0.719693 0.719693 0.719693
0.732780 0.732780 0.732780
0.745860 0.745860 0.745860
0.758934 0.758934 0.758934
0.772002 0.772002 0.772002
0.785063 0.785063 0.785063
0.798118 0.798118 0.798118
0.811166 0.811166 0.811166
0.824208 0.824208 0.824208
0.837243 0.837243 0.837243
0.850271 0.850271 0.850271
0.863293 0.863293 0.863293
0.876308 0.876308 0.876308
0.889316 0.889316 0.889316
0.902317 0.902317 0.902317
0.915311 0.915311 0.915311
0.928299 0.928299 0.928299
0.768082 0.768082 0.768082
0.781145 0.781145 0.781145
0.794202 0.794202 0.794202
0.807252 0.807252 0.807252
0.820296 0.820296 0.820296
0.833333 0.833333 0.833333
0.846364 0.846364 0.846364
0.859387 0.859387 0.859387
0.872404 0.872404 0.872404
0.885414 0.885414 0.885414
0.898418 0.898418 0.898418
0.911414 0.911414 0.911414
0.924403 0.924403 0.924403
0.937386 0.937386 0.937386
0.950361 0.950361 0.950361
0.963329 0.963329 0.963329
0.976290 0.976290 0.976290
0.012000 0.012000 0.012000
0.012000 0.012000 0.012000
0.016404 0.016404 0.016404
0.029704 0.029704 0.029704
0.043003 0.043003 0.043003
0.056303 0.056303 0.056303
0.069602 0.069602 0.069602
0.082900 0.082900 0.082900
0.096196 0.096196 0.096196
0.109491 0.109491 0.109491
0.122785 0.122785 0.122785
0.136076 0.136076 0.136076
0.149365 0.149365 0.149365
0.162652 0.162652 0.162652
0.175936 0.175936 0.175936
